assets/luts/budapest-01-ee850e4a.cube
# Enhanced with VOXCOLOR algorithms
LUT_3D_SIZE 8
DOMAIN_MIN 0.000000 0.000000 0.000000
DOMAIN_MAX 0.903226 0.903226 0.903226
0.062745 0.015686 0.047059
0.160695 0.026889 0.037254
0.300628 0.046693 0.025944
0.457887 0.074775 0.017124
0.610218 0.110242 0.013922
0.727685 0.150982 0.019569
0.801837 0.191313 0.033718
0.846452 0.228691 0.055043
0.083660 0.040027 0.044543
0.202767 0.060859 0.032867
0.352281 0.092892 0.023435
0.508512 0.132824 0.018427
0.651153 0.177399 0.019447
0.755537 0.222242 0.028345
0.820290 0.263436 0.043920
0.859597 0.301729 0.064821
0.121394 0.085193 0.045255
0.255969 0.118561 0.033162
0.409202 0.164214 0.025810
0.560058 0.216365 0.024033
0.691229 0.269844 0.028349
0.783199 0.318511 0.039797
0.839606 0.360382 0.057098
0.874152 0.398890 0.079080
0.172496 0.151642 0.049431
0.315834 0.197503 0.037835
0.467272 0.255743 0.032363
0.609368 0.318740 0.033023
0.728267 0.379920 0.039715
0.808998 0.431740 0.053255
0.858184 0.473675 0.072784
0.888474 0.510995 0.097293
0.233271 0.238489 0.057180
0.377834 0.294016 0.046439
0.522408 0.361522 0.042256
0.653360 0.432321 0.044361
0.760144 0.498999 0.052523
0.831313 0.552895 0.067918
0.874530 0.593987 0.090347
0.901101 0.628354 0.118743
0.298639 0.343589 0.068996
0.434372 0.401123 0.058545
0.567011 0.470385 0.054287
0.685740 0.542642 0.056344
0.782211 0.610355 0.064911
0.846725 0.664241 0.082165
0.885965 0.703395 0.108478
0.909838 0.733369 0.142208
0.356560 0.449793 0.082737
0.476511 0.501008 0.071402
0.594996 0.564334 0.065636
0.702625 0.631673 0.066345
0.791918 0.695872 0.074488
0.853332 0.747629 0.093673
0.891170 0.784449 0.124631
0.913923 0.810502 0.164522
0.398017 0.544395 0.096202
0.500456 0.584382 0.083025
0.605497 0.637478 0.074864
0.704462 0.696462 0.073475
0.790025 0.754751 0.080644
0.851799 0.803378 0.101598
0.890725 0.838123 0.137369
0.913763 0.861561 0.183564
0.120432 0.029865 0.079736
0.212840 0.038927 0.066447
0.339286 0.055948 0.053462
0.480786 0.081235 0.044469
0.619753 0.114524 0.042533
0.730810 0.154926 0.052111
0.803736 0.197395 0.073279
0.848904 0.239005 0.103327
0.144742 0.059734 0.077870
0.260923 0.081129 0.065108
0.396793 0.110826 0.055343
0.535859 0.147284 0.050754
0.663633 0.188775 0.053075
0.760501 0.232745 0.065156
0.823451 0.275894 0.086423
0.863211 0.318589 0.115047
0.182018 0.111503 0.080601
0.315395 0.147526 0.069807
0.455272 0.190543 0.063347
0.588602 0.237742 0.062461
0.704471 0.286442 0.068087
0.788496 0.332871 0.082141
0.842732 0.375450 0.103924
0.877597 0.417002 0.132192
0.230524 0.185475 0.088171
0.372948 0.234609 0.079876
0.511368 0.288954 0.076286
0.636350 0.344900 0.078234
0.740391 0.399166 0.086336
0.813372 0.447018 0.102204
0.860334 0.488019 0.125311
0.890946 0.526473 0.154650
0.287659 0.280116 0.100366
0.430028 0.337579 0.094244
0.561809 0.399018 0.092632
0.676640 0.460373 0.096422
0.769710 0.517983 0.106313
0.833839 0.566257 0.124180
0.875122 0.604928 0.149736
0.902247 0.638733 0.181804
0.347468 0.390209 0.116050
0.479372 0.446674 0.110451
0.599931 0.507682 0.109166
0.704274 0.568909 0.113541
0.788735 0.626381 0.124699
0.847172 0.673743 0.145263
0.884912 0.709652 0.174921
0.909683 0.738140 0.211683
0.396914 0.494692 0.130250
0.513214 0.542887 0.123284
0.621698 0.597516 0.120777
0.717469 0.654112 0.124688
0.796640 0.708460 0.136704
0.852646 0.753761 0.160559
0.889069 0.787151 0.195736
0.912823 0.811457 0.238839
0.428045 0.580260 0.139925
0.529562 0.618542 0.130637
0.627989 0.664852 0.125948
0.717952 0.714962 0.128485
0.794906 0.764749 0.140614
0.851280 0.807427 0.167626
0.888399 0.838836 0.209193
0.912346 0.860617 0.260294
0.168312 0.043277 0.124993
0.257984 0.050922 0.109887
0.373966 0.066307 0.096712
0.502282 0.090283 0.089144
0.629573 0.123158 0.090363
0.734964 0.165364 0.105942
0.807368 0.212655 0.136286
0.854010 0.261975 0.178125
0.202101 0.081290 0.126772
0.315638 0.103431 0.114942
0.439349 0.131386 0.106394
0.562936 0.165214 0.103630
0.677003 0.204617 0.108750
0.766710 0.248941 0.125599
0.828045 0.295584 0.154034
0.868558 0.344348 0.191894
0.244053 0.143289 0.135923
0.373864 0.181568 0.129032
0.500503 0.221972 0.125048
0.617408 0.264394 0.126054
0.718910 0.308464 0.133746
0.795195 0.352878 0.151077
0.847175 0.396615 0.177820
0.882284 0.441553 0.212541
0.293333 0.228516 0.152203
0.430651 0.280185 0.150439
0.555320 0.330246 0.150282
0.663982 0.378704 0.153939
0.753998 0.425328 0.163199
0.819317 0.468348 0.180814
0.863773 0.507802 0.206714
0.894378 0.546765 0.239764
0.348096 0.334088 0.174629
0.483665 0.392829 0.176842
0.601744 0.447657 0.179216
0.701153 0.498641 0.184411
0.781205 0.545601 0.194616
0.838160 0.586266 0.212898
0.876992 0.620882 0.239340
0.904122 0.652808 0.272635
0.402363 0.451226 0.199972
0.526681 0.506386 0.202950
0.634470 0.558621 0.205761
0.724959 0.607538 0.211514
0.797768 0.652496 0.222782
0.849646 0.690462 0.243150
0.885130 0.720740 0.272390
0.910086 0.746045 0.308348
0.444266 0.555685 0.219678
0.553895 0.600644 0.220351
0.651491 0.645827 0.221897
0.735357 0.690027 0.227672
0.804221 0.731829 0.240466
0.854079 0.767420 0.264443
0.888253 0.794724 0.298700
0.912231 0.815456 0.339706
0.467453 0.634685 0.229017
0.564781 0.669900 0.226424
0.654849 0.707874 0.225888
0.734895 0.746984 0.231072
0.802606 0.785400 0.245094
0.852879 0.818970 0.273219
0.887449 0.844536 0.314307
0.911407 0.862878 0.363246
0.209618 0.056754 0.181631
0.298426 0.063690 0.166066
0.406203 0.078411 0.154038
0.523404 0.102380 0.149478
0.640470 0.136524 0.155820
0.740792 0.182690 0.179562
0.813015 0.237105 0.220665
0.861440 0.295969 0.274880
0.254186 0.104048 0.189129
0.364534 0.126498 0.179376
0.477616 0.153102 0.173094
0.587995 0.185283 0.173346
0.690329 0.223967 0.182725
0.773852 0.270281 0.205974
0.833930 0.321938 0.242747
0.875283 0.377547 0.290014
0.302938 0.178141 0.207834
0.426613 0.217037 0.205742
0.540811 0.254643 0.204979
0.643547 0.292962 0.208621
0.732894 0.333456 0.219218
0.802575 0.376977 0.240716
0.852610 0.422768 0.272951
0.887891 0.471281 0.313845
0.354877 0.276309 0.236496
0.483382 0.328078 0.241956
0.594616 0.373326 0.245673
0.689095 0.414765 0.251281
0.767291 0.454497 0.261797
0.826034 0.493279 0.281111
0.868174 0.531531 0.309477
0.898561 0.570866 0.345366
0.408246 0.393681 0.272962
0.533317 0.451192 0.284090
0.637921 0.498905 0.290608
0.723877 0.539925 0.296908
0.792902 0.576700 0.306671
0.843544 0.609814 0.324207
0.879930 0.640198 0.350142
0.906710 0.669872 0.382986
0.457283 0.517690 0.311697
0.571200 0.569804 0.323848
0.666560 0.613126 0.330677
0.744876 0.650150 0.336949
0.807620 0.682787 0.346658
0.853498 0.710943 0.364419
0.886556 0.734989 0.390583
0.911234 0.756557 0.423020
0.492840 0.622323 0.340917
0.593535 0.662973 0.349793
0.680307 0.698720 0.355097
0.753349 0.730780 0.361410
0.812969 0.759935 0.372538
0.857011 0.785101 0.393070
0.888728 0.805484 0.422411
0.912457 0.821971 0.457342
0.510807 0.696653 0.354480
0.601211 0.727344 0.358875
0.682101 0.756506 0.362007
0.752462 0.784432 0.368288
0.811483 0.811078 0.381387
0.855922 0.834712 0.406261
0.887812 0.853544 0.441528
0.911338 0.867701 0.482634
0.247396 0.071217 0.248395
0.335927 0.077959 0.233284
0.436914 0.092740 0.223465
0.544624 0.117781 0.223309
0.652799 0.154727 0.236565
0.748621 0.206900 0.270341
0.820747 0.270293 0.322937
0.870750 0.339125 0.387823
0.299728 0.127384 0.262573
0.405612 0.149192 0.255156
0.509559 0.174648 0.251674
0.609434 0.206230 0.255840
0.702671 0.245802 0.270754
0.781534 0.295993 0.301831
0.840879 0.354103 0.347578
0.883002 0.416619 0.403115
0.354679 0.213696 0.292479
0.469710 0.250704 0.294536
0.572841 0.285205 0.296964
0.664559 0.320494 0.303708
0.744956 0.359155 0.318033
0.809934 0.403592 0.344637
0.858686 0.452676 0.382764
0.894099 0.504889 0.429048
0.409855 0.324623 0.335327
0.526581 0.372923 0.346484
0.625621 0.412807 0.353537
0.709085 0.448445 0.361175
0.778712 0.483211 0.373319
0.832768 0.519527 0.394694
0.873195 0.557720 0.425518
0.903277 0.597756 0.463531
0.462660 0.452756 0.387431
0.574598 0.505307 0.405356
0.666924 0.545539 0.415100
0.742361 0.578095 0.422213
0.803319 0.606805 0.431394
0.849307 0.634102 0.447843
0.883694 0.661304 0.472651
0.909948 0.689202 0.504072
0.507247 0.581737 0.440967
0.608922 0.628091 0.460194
0.693025 0.662745 0.469962
0.761684 0.689674 0.476046
0.816861 0.712172 0.483362
0.858118 0.732132 0.497233
0.889068 0.750842 0.518808
0.913217 0.769123 0.546164
0.538037 0.685612 0.482173
0.628272 0.720387 0.497495
0.705021 0.747376 0.505394
0.769137 0.769098 0.511066
0.821488 0.787595 0.518881
0.860879 0.803709 0.533575
0.890430 0.817861 0.555362
0.913677 0.830431 0.581754
0.553859 0.756671 0.504703
0.635125 0.781489 0.514293
0.706735 0.802307 0.519714
0.768472 0.820454 0.525488
0.820220 0.836924 0.535350
0.859821 0.851706 0.553539
0.889374 0.864265 0.579000
0.912361 0.874377 0.608366
0.285320 0.088846 0.325276
0.370658 0.094980 0.310423
0.464813 0.109984 0.303152
0.564545 0.136868 0.308108
0.665751 0.177973 0.329112
0.758202 0.237992 0.373223
0.830298 0.311616 0.435617
0.881170 0.389449 0.505874
0.336134 0.150452 0.344592
0.435087 0.169977 0.338298
0.531375 0.194256 0.337288
0.624207 0.226370 0.345672
0.712137 0.268695 0.366765
0.788856 0.324880 0.406073
0.848408 0.390814 0.459771
0.891181 0.459807 0.520065
0.392970 0.246236 0.384294
0.497433 0.278259 0.387677
0.591814 0.309407 0.392178
0.676867 0.343249 0.402037
0.752856 0.382592 0.420695
0.816143 0.430503 0.452936
0.864857 0.484602 0.496501
0.900522 0.540884 0.546104
0.450560 0.367179 0.439416
0.554161 0.407904 0.451840
0.643625 0.442188 0.460412
0.720531 0.474169 0.469924
0.786109 0.507194 0.484350
0.838427 0.544119 0.508443
0.878348 0.584397 0.541706
0.908261 0.626267 0.580857
0.504162 0.502919 0.504375
0.602161 0.546343 0.523575
0.684722 0.579269 0.534291
0.753663 0.606149 0.541980
0.810585 0.630687 0.551290
0.854528 0.655723 0.567374
0.887932 0.682241 0.591308
0.913700 0.709988 0.621062
0.546750 0.633598 0.569337
0.635717 0.671289 0.590189
0.710661 0.698275 0.600633
0.772965 0.718422 0.606189
0.823929 0.735010 0.611623
0.862791 0.750507 0.622114
0.892465 0.766450 0.639378
0.916008 0.783142 0.661852
0.575847 0.735081 0.620924
0.654953 0.762642 0.638093
0.723087 0.782533 0.646517
0.780754 0.797328 0.650908
0.828508 0.809216 0.655313
0.865142 0.819745 0.664039
0.893255 0.829973 0.678224
0.915899 0.840112 0.696383
0.593984 0.803999 0.654893
0.664239 0.822311 0.665580
0.726811 0.836465 0.671144
0.781402 0.847866 0.675217
0.827806 0.857677 0.680830
0.864109 0.866545 0.691146
0.892005 0.874669 0.705910
0.914413 0.881849 0.723256
0.325165 0.110638 0.406649
0.401191 0.114639 0.390661
0.486853 0.129193 0.385101
0.579684 0.157844 0.394253
0.676192 0.203367 0.421444
0.767080 0.271426 0.472828
0.839578 0.354702 0.540232
0.890762 0.439710 0.609713
0.364524 0.172653 0.427204
0.453656 0.188357 0.420215
0.542868 0.211167 0.420693
0.631240 0.244346 0.432568
0.717133 0.290378 0.458842
0.794223 0.353446 0.504349
0.855073 0.427473 0.562591
0.898599 0.502364 0.623134
0.417619 0.273066 0.471904
0.511191 0.298536 0.473855
0.598901 0.326523 0.479166
0.680621 0.360218 0.491654
0.755779 0.402058 0.514282
0.820044 0.455126 0.551123
0.870031 0.515321 0.598000
0.906293 0.576127 0.647893
0.475708 0.399600 0.533573
0.567523 0.431304 0.543422
0.650215 0.460730 0.551949
0.724024 0.491148 0.563123
0.788961 0.525130 0.580157
0.842033 0.565149 0.606936
0.882707 0.609320 0.641760
0.912781 0.654273 0.680448
0.531213 0.539206 0.604809
0.617253 0.572449 0.620555
0.692845 0.599381 0.630454
0.758398 0.623372 0.638809
0.814236 0.647188 0.649266
0.858295 0.673151 0.665976
0.891792 0.701375 0.689417
0.917259 0.730748 0.717367
0.575116 0.669271 0.674148
0.653016 0.697975 0.691755
0.720994 0.719092 0.701111
0.779369 0.735602 0.706477
0.828471 0.750050 0.711573
0.866708 0.764574 0.720583
0.895950 0.780372 0.735185
0.918903 0.797399 0.754200
0.606230 0.767678 0.729867
0.675183 0.788521 0.744750
0.736160 0.803420 0.752257
0.789095 0.814418 0.755840
0.833988 0.823285 0.758537
0.869222 0.831499 0.763724
0.896504 0.840217 0.773025
0.918410 0.849658 0.785810
0.630378 0.834977 0.770983
0.689697 0.847888 0.779781
0.743905 0.857586 0.784452
0.792381 0.865135 0.787210
0.834602 0.871447 0.789960
0.868566 0.877183 0.794759
0.895206 0.882836 0.802096
0.916785 0.888429 0.811279
0.363964 0.134399 0.484959
0.426434 0.135652 0.467955
0.502394 0.149200 0.463526
0.589129 0.179053 0.475333
0.682789 0.228308 0.506005
0.773764 0.303227 0.560363
0.847192 0.394298 0.627826
0.898514 0.484464 0.692812
0.386791 0.193684 0.503876
0.464535 0.205045 0.496065
0.546968 0.226239 0.497678
0.632328 0.260499 0.512107
0.718121 0.310217 0.541748
0.797172 0.379766 0.590304
0.860032 0.461037 0.649211
0.904455 0.540952 0.706636
0.432478 0.294585 0.549206
0.516006 0.313669 0.549347
0.598532 0.339124 0.555334
0.678735 0.373491 0.570104
0.754909 0.418596 0.595766
0.821603 0.477216 0.635170
0.873638 0.543488 0.682525
0.910743 0.608675 0.729846
0.489284 0.422658 0.612273
0.571792 0.446323 0.618766
0.649904 0.472315 0.627183
0.722543 0.502769 0.640154
0.788501 0.539242 0.659680
0.843604 0.583509 0.688220
0.885783 0.632262 0.722897
0.916225 0.680697 0.759083
0.547042 0.563067 0.684419
0.624139 0.587685 0.695328
0.695084 0.610592 0.704201
0.759053 0.633853 0.713661
0.815243 0.659088 0.725878
0.860510 0.687775 0.743415
0.894761 0.718995 0.765930
0.920023 0.750885 0.791267
0.594751 0.691499 0.752857
0.664086 0.712828 0.765326
0.726996 0.730108 0.773148
0.782888 0.745267 0.778895
0.831243 0.759932 0.784827
0.869691 0.775588 0.793636
0.898990 0.792861 0.806553
0.921324 0.811443 0.822860
0.630533 0.787033 0.807018
0.691344 0.802738 0.817943
0.746648 0.814565 0.824166
0.795915 0.823900 0.827656
0.838696 0.831959 0.830209
0.873027 0.839866 0.834011
0.899728 0.848656 0.840710
0.920768 0.858611 0.850379
0.661867 0.852789 0.848610
0.712452 0.862243 0.855073
0.759763 0.869454 0.859057
0.803043 0.875132 0.861473
0.841606 0.879897 0.863172
0.873451 0.884230 0.865204
0.898842 0.888761 0.868431
0.919386 0.893774 0.873025
