assets/luts/budapest-01-ee850e4a.cube
# Enhanced with VOXCOLOR algorithms
LUT_3D_SIZE 5
DOMAIN_MIN 0.000000 0.000000 0.000000
DOMAIN_MAX 0.903226 0.903226 0.903226
0.062745 0.015686 0.047059
0.261323 0.040856 0.028926
0.536543 0.092132 0.014891
0.752720 0.161126 0.021831
0.846452 0.228691 0.055043
0.110229 0.071757 0.044744
0.353978 0.132018 0.026249
0.616989 0.218745 0.023461
0.796392 0.303203 0.039975
0.870368 0.372117 0.075054
0.202555 0.193761 0.053015
0.458120 0.291308 0.037681
0.691191 0.408690 0.041900
0.836616 0.505129 0.064877
0.895065 0.570556 0.107874
0.314237 0.369975 0.072142
0.544491 0.477669 0.057706
0.741603 0.602841 0.062781
0.863029 0.701195 0.090848
0.911557 0.756835 0.147959
0.398017 0.544395 0.096202
0.578969 0.622855 0.076388
0.748943 0.726297 0.076075
0.864957 0.814146 0.108318
0.913763 0.861561 0.183564
0.157352 0.040003 0.112384
0.333228 0.058886 0.087441
0.563735 0.103529 0.075336
0.757075 0.172897 0.095156
0.852460 0.254930 0.156696
0.217361 0.117607 0.117590
0.441861 0.179184 0.103529
0.653156 0.252450 0.104570
0.804248 0.330558 0.129808
0.877565 0.408696 0.184058
0.304721 0.267163 0.143009
0.539122 0.363610 0.141141
0.722784 0.454564 0.149731
0.841432 0.532752 0.178084
0.898772 0.595972 0.231143
0.400732 0.462194 0.180327
0.607014 0.556463 0.181762
0.762972 0.645649 0.193110
0.862512 0.718168 0.227512
0.911120 0.765011 0.289568
0.456636 0.619168 0.202074
0.625256 0.685032 0.195985
0.766648 0.758748 0.206425
0.863571 0.823467 0.251187
0.911593 0.861983 0.334809
0.228496 0.063759 0.214290
0.394067 0.080872 0.190305
0.591384 0.126570 0.189123
0.766497 0.207540 0.233095
0.866016 0.317035 0.330987
0.316416 0.173108 0.242158
0.516504 0.232557 0.239434
0.686820 0.296066 0.249476
0.815355 0.373232 0.289007
0.888138 0.463962 0.364057
0.410334 0.362098 0.307642
0.609755 0.449518 0.325620
0.753343 0.514621 0.338154
0.850113 0.573834 0.367841
0.904847 0.632667 0.424023
0.493303 0.580030 0.386886
0.665706 0.656500 0.409788
0.787306 0.708635 0.420887
0.867024 0.749309 0.446166
0.912832 0.781570 0.494833
0.532542 0.727568 0.429594
0.676687 0.774322 0.440495
0.789263 0.813876 0.452479
0.867197 0.847769 0.486876
0.911776 0.870982 0.546275
0.294993 0.093669 0.344946
0.447272 0.109800 0.324134
0.619457 0.161498 0.339149
0.781508 0.262912 0.412011
0.883692 0.402023 0.533965
0.386240 0.225759 0.394200
0.558489 0.275169 0.397585
0.706599 0.335942 0.418528
0.826105 0.422472 0.475745
0.899890 0.528884 0.566126
0.486957 0.445895 0.498231
0.649122 0.511446 0.522381
0.771290 0.561297 0.538654
0.859011 0.614499 0.571462
0.912258 0.675002 0.628302
0.564779 0.674656 0.614496
0.703068 0.727127 0.643888
0.804290 0.756138 0.652175
0.873828 0.778859 0.666096
0.917008 0.802978 0.697877
0.603642 0.814196 0.689030
0.717171 0.840944 0.704347
0.807718 0.857993 0.710943
0.873286 0.871706 0.724677
0.914958 0.883627 0.749292
0.363964 0.134399 0.484959
0.482015 0.144547 0.463339
0.636150 0.201848 0.488977
0.794753 0.323571 0.575263
0.898514 0.484464 0.692812
0.418703 0.265076 0.535154
0.564121 0.300272 0.536535
0.706821 0.364304 0.565823
0.831340 0.467046 0.633778
0.909136 0.590587 0.723077
0.518881 0.493718 0.648611
0.655348 0.536617 0.664096
0.772955 0.584727 0.684892
0.863904 0.646234 0.722446
0.918302 0.716479 0.775217
0.605485 0.720317 0.768539
0.719169 0.752959 0.787235
0.811763 0.776016 0.795714
0.879783 0.798560 0.807342
0.921464 0.825243 0.830351
0.661867 0.852789 0.848610
0.748272 0.867882 0.858316
0.822804 0.877545 0.862299
0.880767 0.885333 0.865832
0.919386 0.893774 0.873025
