assets/luts/budapest-01-ee850e4a.cube
# Enhanced with VOXCOLOR algorithms
LUT_3D_SIZE 32
0.062745 0.015686 0.047059
0.087233 0.018487 0.044608
0.111720 0.021287 0.042156
0.136208 0.024088 0.039705
0.160695 0.026889 0.037254
0.185183 0.029689 0.034803
0.222018 0.035020 0.031909
0.261323 0.040856 0.028926
0.300628 0.046693 0.025944
0.339933 0.052529 0.022962
0.379238 0.058366 0.019979
0.418559 0.066097 0.018241
0.457887 0.074775 0.017124
0.497215 0.083453 0.016007
0.536543 0.092132 0.014891
0.575871 0.100810 0.013774
0.610218 0.110242 0.013922
0.639585 0.120427 0.015334
0.668952 0.130612 0.016745
0.698318 0.140797 0.018157
0.727685 0.150982 0.019569
0.752720 0.161126 0.021831
0.769092 0.171188 0.025793
0.785464 0.181250 0.029756
0.801837 0.191313 0.033718
0.818209 0.201375 0.037681
0.832975 0.211216 0.042065
0.839713 0.219953 0.048554
0.846452 0.228691 0.055043
0.853190 0.237428 0.061532
0.859929 0.246165 0.068021
0.866667 0.254902 0.074510
0.067974 0.021771 0.046430
0.093784 0.025174 0.043862
0.119593 0.028576 0.041294
0.145403 0.031979 0.038725
0.171213 0.035381 0.036157
0.197023 0.038784 0.033589
0.234330 0.044907 0.030854
0.273936 0.051575 0.028085
0.313542 0.058242 0.025317
0.353147 0.064910 0.022548
0.392753 0.071578 0.019780
0.431790 0.079995 0.018294
0.470543 0.089287 0.017450
0.509296 0.098579 0.016606
0.548048 0.107872 0.015762
0.586801 0.117164 0.014918
0.620452 0.127031 0.015303
0.649001 0.137472 0.016918
0.677550 0.147914 0.018533
0.706099 0.158355 0.020148
0.734648 0.168797 0.021763
0.758958 0.179117 0.024182
0.774788 0.189192 0.028211
0.790619 0.199268 0.032240
0.806450 0.209344 0.036269
0.822281 0.219419 0.040297
0.836570 0.229287 0.044719
0.843154 0.238119 0.051103
0.849738 0.246950 0.057487
0.856322 0.255782 0.063872
0.862906 0.264613 0.070256
0.869490 0.273444 0.076640
0.073202 0.027856 0.045801
0.100335 0.031861 0.043116
0.127467 0.035865 0.040431
0.154599 0.039870 0.037746
0.181731 0.043874 0.035060
0.208864 0.047878 0.032375
0.246641 0.054795 0.029799
0.286548 0.062294 0.027244
0.326455 0.069792 0.024689
0.366362 0.077291 0.022135
0.406268 0.084790 0.019580
0.445022 0.093893 0.018347
0.483199 0.103800 0.017776
0.521377 0.113706 0.017204
0.559554 0.123612 0.016632
0.597731 0.133518 0.016061
0.630686 0.143820 0.016684
0.658417 0.154518 0.018502
0.686148 0.165216 0.020321
0.713880 0.175914 0.022139
0.741611 0.186612 0.023957
0.765195 0.197107 0.026534
0.780485 0.207196 0.030629
0.795774 0.217285 0.034724
0.811063 0.227374 0.038819
0.826353 0.237464 0.042914
0.840165 0.247359 0.047373
0.846595 0.256284 0.053652
0.853024 0.265210 0.059932
0.859454 0.274135 0.066211
0.865883 0.283061 0.072491
0.872312 0.291987 0.078770
0.078431 0.033941 0.045172
0.106886 0.038548 0.042370
0.135340 0.043154 0.039568
0.163795 0.047760 0.036766
0.192249 0.052367 0.033964
0.220704 0.056973 0.031162
0.258953 0.064682 0.028744
0.299160 0.073012 0.026403
0.339368 0.081342 0.024062
0.379576 0.089672 0.021721
0.419784 0.098002 0.019380
0.458254 0.107792 0.018401
0.495856 0.118312 0.018102
0.533458 0.128832 0.017802
0.571060 0.139352 0.017503
0.608661 0.149872 0.017204
0.640919 0.160609 0.018065
0.667833 0.171564 0.020087
0.694747 0.182518 0.022108
0.721660 0.193473 0.024130
0.748574 0.204427 0.026151
0.771433 0.215098 0.028886
0.786181 0.225200 0.033047
0.800929 0.235303 0.037208
0.815677 0.245405 0.041369
0.830425 0.255508 0.045531
0.843761 0.265430 0.050027
0.850035 0.274450 0.056202
0.856310 0.283470 0.062376
0.862585 0.292489 0.068551
0.868860 0.301509 0.074725
0.875135 0.310529 0.080900
0.083660 0.040027 0.044543
0.113437 0.045235 0.041624
0.143214 0.050443 0.038705
0.172991 0.055651 0.035786
0.202767 0.060859 0.032867
0.232544 0.066068 0.029948
0.271264 0.074570 0.027689
0.311773 0.083731 0.025562
0.352281 0.092892 0.023435
0.392790 0.102053 0.021308
0.433299 0.111214 0.019181
0.471486 0.121690 0.018454
0.508512 0.132824 0.018427
0.545539 0.143958 0.018401
0.582565 0.155092 0.018374
0.619592 0.166226 0.018348
0.651153 0.177399 0.019447
0.677249 0.188610 0.021671
0.703345 0.199820 0.023896
0.729441 0.211031 0.026120
0.755537 0.222242 0.028345
0.777670 0.233088 0.031237
0.791877 0.243204 0.035465
0.806083 0.253320 0.039692
0.820290 0.263436 0.043920
0.834497 0.273552 0.048147
0.847356 0.283501 0.052682
0.853476 0.292615 0.058751
0.859597 0.301729 0.064821
0.865717 0.310843 0.070891
0.871837 0.319957 0.076960
0.877958 0.329071 0.083030
0.088889 0.046112 0.043914
0.119988 0.051922 0.040878
0.151087 0.057732 0.037842
0.182186 0.063542 0.034806
0.213285 0.069352 0.031770
0.244385 0.075162 0.028734
0.283576 0.084457 0.026634
0.324385 0.094450 0.024721
0.365195 0.104442 0.022808
0.406004 0.114434 0.020894
0.446814 0.124426 0.018981
0.484717 0.135589 0.018507
0.521169 0.147337 0.018753
0.557620 0.159084 0.018999
0.594071 0.170832 0.019245
0.630522 0.182580 0.019491
0.661386 0.194188 0.020828
0.686665 0.205655 0.023256
0.711943 0.217123 0.025683
0.737222 0.228590 0.028111
0.762500 0.240057 0.030539
0.783907 0.251079 0.033589
0.797573 0.261208 0.037883
0.811238 0.271338 0.042176
0.824903 0.281467 0.046470
0.838569 0.291597 0.050764
0.850951 0.301572 0.055336
0.856917 0.310781 0.061301
0.862883 0.319989 0.067266
0.868849 0.329197 0.073230
0.874815 0.338405 0.079195
0.880781 0.347614 0.085160
0.099064 0.058322 0.044234
0.131067 0.064948 0.041188
0.163070 0.071573 0.038142
0.195074 0.078199 0.035096
0.227077 0.084824 0.032051
0.259080 0.091450 0.029005
0.298309 0.101621 0.027062
0.338983 0.112501 0.025339
0.379657 0.123381 0.023617
0.420332 0.134260 0.021894
0.461006 0.145140 0.020172
0.498376 0.156999 0.019896
0.534096 0.169346 0.020345
0.569815 0.181694 0.020793
0.605534 0.194042 0.021241
0.641253 0.206389 0.021689
0.671368 0.218415 0.023202
0.695877 0.230118 0.025782
0.720387 0.241821 0.028361
0.744897 0.253525 0.030941
0.769407 0.265228 0.033520
0.790149 0.276407 0.036705
0.803357 0.286538 0.041102
0.816564 0.296668 0.045499
0.829771 0.306799 0.049896
0.842978 0.316929 0.054293
0.854953 0.326908 0.058962
0.860768 0.336125 0.064995
0.866584 0.345343 0.071028
0.872399 0.354561 0.077061
0.878215 0.363779 0.083094
0.884031 0.372997 0.089127
0.110229 0.071757 0.044744
0.143053 0.079241 0.041710
0.175876 0.086725 0.038675
0.208699 0.094209 0.035641
0.241523 0.101692 0.032606
0.274346 0.109176 0.029572
0.313526 0.120239 0.027786
0.353978 0.132018 0.026249
0.394430 0.143797 0.024713
0.434881 0.155576 0.023177
0.475333 0.167355 0.021641
0.512121 0.179911 0.021553
0.547077 0.192856 0.022189
0.582033 0.205800 0.022825
0.616989 0.218745 0.023461
0.651945 0.231689 0.024097
0.681298 0.244129 0.025776
0.705049 0.256064 0.028497
0.728801 0.267999 0.031217
0.752552 0.279935 0.033938
0.776303 0.291870 0.036659
0.796392 0.303203 0.039975
0.809158 0.313332 0.044482
0.821923 0.323461 0.048990
0.834688 0.333590 0.053497
0.847454 0.343720 0.058004
0.859036 0.353696 0.062783
0.864702 0.362906 0.068919
0.870368 0.372117 0.075054
0.876034 0.381327 0.081190
0.881700 0.390538 0.087326
0.887366 0.399748 0.093461
0.121394 0.085193 0.045255
0.155038 0.093535 0.042231
0.188682 0.101877 0.039208
0.222325 0.110219 0.036185
0.255969 0.118561 0.033162
0.289612 0.126903 0.030139
0.328744 0.138858 0.028510
0.368973 0.151536 0.027160
0.409202 0.164214 0.025810
0.449431 0.176892 0.024460
0.489661 0.189570 0.023110
0.525865 0.202823 0.023209
0.560058 0.216365 0.024033
0.594251 0.229906 0.024858
0.628443 0.243448 0.025682
0.662636 0.256989 0.026506
0.691229 0.269844 0.028349
0.714221 0.282011 0.031211
0.737214 0.294177 0.034073
0.760207 0.306344 0.036935
0.783199 0.318511 0.039797
0.802635 0.329999 0.043244
0.814959 0.340126 0.047862
0.827283 0.350254 0.052480
0.839606 0.360382 0.057098
0.851930 0.370510 0.061716
0.863119 0.380484 0.066604
0.868636 0.389687 0.072842
0.874152 0.398890 0.079080
0.879669 0.408093 0.085319
0.885185 0.417296 0.091557
0.890702 0.426499 0.097796
0.132559 0.098628 0.045765
0.167023 0.107828 0.042753
0.201487 0.117028 0.039741
0.235951 0.126229 0.036729
0.270415 0.135429 0.033717
0.304879 0.144629 0.030706
0.343962 0.157476 0.029234
0.383968 0.171053 0.028070
0.423975 0.184630 0.026906
0.463981 0.198207 0.025742
0.503988 0.211784 0.024579
0.539610 0.225736 0.024866
0.573039 0.239874 0.025878
0.606469 0.254012 0.026890
0.639898 0.268151 0.027903
0.673328 0.282289 0.028915
0.701159 0.295558 0.030923
0.723393 0.307957 0.033926
0.745627 0.320355 0.036929
0.767861 0.332754 0.039932
0.790095 0.345153 0.042936
0.808878 0.356794 0.046514
0.820760 0.366921 0.051242
0.832642 0.377047 0.055971
0.844524 0.387174 0.060699
0.856406 0.397300 0.065427
0.867202 0.407272 0.070424
0.872569 0.416467 0.076765
0.877936 0.425663 0.083107
0.883303 0.434859 0.089448
0.888670 0.444055 0.095789
0.894038 0.453251 0.102130
0.143724 0.112064 0.046275
0.179008 0.122122 0.043274
0.214293 0.132180 0.040274
0.249577 0.142239 0.037273
0.284861 0.152297 0.034273
0.320145 0.162355 0.031272
0.359179 0.176095 0.029958
0.398963 0.190571 0.028980
0.438747 0.205047 0.028003
0.478531 0.219523 0.027025
0.518316 0.233999 0.026048
0.553354 0.248648 0.026522
0.586021 0.263383 0.027722
0.618687 0.278119 0.028923
0.651353 0.292854 0.030123
0.684019 0.307589 0.031324
0.711090 0.321272 0.033496
0.732565 0.333903 0.036641
0.754041 0.346534 0.039785
0.775516 0.359164 0.042930
0.796991 0.371795 0.046074
0.815121 0.383590 0.049783
0.826562 0.393715 0.054622
0.838002 0.403840 0.059461
0.849442 0.413965 0.064300
0.860882 0.424091 0.069139
0.871285 0.434060 0.074245
0.876503 0.443248 0.080689
0.881720 0.452437 0.087133
0.886938 0.461625 0.093577
0.892156 0.470813 0.100020
0.897373 0.480002 0.106464
0.157466 0.130582 0.047640
0.193134 0.141375 0.044682
0.228803 0.152167 0.041724
0.264471 0.162960 0.038767
0.300140 0.173753 0.035809
0.335808 0.184546 0.032851
0.374505 0.199010 0.031655
0.413808 0.214210 0.030810
0.453112 0.229409 0.029966
0.492415 0.244608 0.029122
0.531718 0.259807 0.028278
0.566074 0.275015 0.028882
0.597956 0.290228 0.030212
0.629838 0.305440 0.031541
0.661720 0.320652 0.032870
0.693602 0.335865 0.034199
0.719947 0.349874 0.036498
0.740753 0.362681 0.039767
0.761560 0.375488 0.043036
0.782367 0.388294 0.046305
0.803173 0.401101 0.049574
0.820732 0.412996 0.053419
0.831795 0.423066 0.058417
0.842859 0.433137 0.063416
0.853922 0.443208 0.068414
0.864986 0.453278 0.073412
0.875049 0.463174 0.078687
0.880114 0.472194 0.085344
0.885179 0.481215 0.092002
0.890243 0.490235 0.098660
0.895308 0.499255 0.105317
0.900373 0.508276 0.111975
0.172496 0.151642 0.049431
0.208330 0.163107 0.046532
0.244165 0.174572 0.043633
0.280000 0.186038 0.040734
0.315834 0.197503 0.037835
0.351669 0.208968 0.034936
0.389886 0.224074 0.033838
0.428579 0.239909 0.033101
0.467272 0.255743 0.032363
0.505965 0.271578 0.031626
0.544658 0.287412 0.030888
0.578281 0.303110 0.031595
0.609368 0.318740 0.033023
0.640456 0.334369 0.034452
0.671544 0.349998 0.035880
0.702631 0.365628 0.037309
0.728267 0.379920 0.039715
0.748449 0.392875 0.043100
0.768632 0.405830 0.046485
0.788815 0.418785 0.049870
0.808998 0.431740 0.053255
0.826027 0.443707 0.057239
0.836746 0.453696 0.062420
0.847465 0.463686 0.067602
0.858184 0.473675 0.072784
0.868903 0.483664 0.077966
0.878654 0.493451 0.083439
0.883564 0.502223 0.090366
0.888474 0.510995 0.097293
0.893384 0.519767 0.104220
0.898294 0.528539 0.111147
0.903204 0.537311 0.118074
0.187525 0.172701 0.051223
0.223526 0.184839 0.048383
0.259527 0.196977 0.045542
0.295528 0.209115 0.042702
0.331529 0.221253 0.039861
0.367530 0.233391 0.037020
0.405266 0.249138 0.036021
0.443349 0.265608 0.035391
0.481432 0.282078 0.034760
0.519515 0.298548 0.034129
0.557598 0.315018 0.033499
0.590488 0.331205 0.034307
0.620781 0.347251 0.035835
0.651074 0.363298 0.037362
0.681367 0.379344 0.038890
0.711660 0.395390 0.040418
0.736586 0.409965 0.042932
0.756146 0.423069 0.046433
0.775705 0.436172 0.049934
0.795264 0.449276 0.053435
0.814823 0.462379 0.056935
0.831321 0.474418 0.061058
0.841696 0.484326 0.066423
0.852071 0.494234 0.071789
0.862446 0.504142 0.077154
0.872821 0.514051 0.082520
0.882259 0.523728 0.088191
0.887014 0.532252 0.095387
0.891770 0.540776 0.102583
0.896525 0.549299 0.109780
0.901281 0.557823 0.116976
0.906036 0.566347 0.124172
0.202555 0.193761 0.053015
0.238723 0.206572 0.050233
0.274890 0.219382 0.047451
0.311057 0.232192 0.044669
0.347224 0.245003 0.041887
0.383392 0.257813 0.039105
0.420647 0.274202 0.038205
0.458120 0.291308 0.037681
0.495592 0.308413 0.037157
0.533065 0.325518 0.036633
0.570538 0.342623 0.036109
0.602695 0.359300 0.037019
0.632193 0.375763 0.038646
0.661692 0.392227 0.040273
0.691191 0.408690 0.041900
0.720689 0.425153 0.043527
0.744906 0.440011 0.046149
0.763842 0.453263 0.049766
0.782777 0.466515 0.053382
0.801713 0.479767 0.056999
0.820648 0.493018 0.060616
0.836616 0.505129 0.064877
0.846646 0.514956 0.070426
0.856677 0.524783 0.075975
0.866708 0.534610 0.081525
0.876738 0.544437 0.087074
0.885864 0.554005 0.092943
0.890465 0.562281 0.100408
0.895065 0.570556 0.107874
0.899666 0.578831 0.115340
0.904267 0.587107 0.122805
0.908868 0.595382 0.130271
0.217585 0.214821 0.054807
0.253919 0.228304 0.052084
0.290252 0.241787 0.049360
0.326586 0.255270 0.046637
0.362919 0.268753 0.043913
0.399253 0.282236 0.041190
0.436027 0.299266 0.040388
0.472890 0.317007 0.039971
0.509753 0.334747 0.039554
0.546615 0.352488 0.039137
0.583478 0.370228 0.038720
0.614902 0.387395 0.039732
0.643606 0.404275 0.041458
0.672310 0.421156 0.043184
0.701014 0.438036 0.044910
0.729718 0.454916 0.046636
0.753226 0.470056 0.049366
0.771538 0.483457 0.053099
0.789850 0.496857 0.056831
0.808162 0.510257 0.060564
0.826473 0.523657 0.064297
0.841910 0.535840 0.068696
0.851597 0.545586 0.074429
0.861283 0.555331 0.080162
0.870969 0.565077 0.085895
0.880656 0.574823 0.091628
0.889469 0.584283 0.097695
0.893915 0.592309 0.105430
0.898361 0.600336 0.113165
0.902807 0.608363 0.120900
0.907253 0.616390 0.128635
0.911699 0.624417 0.136370
0.233271 0.238489 0.057180
0.269412 0.252370 0.054495
0.305553 0.266252 0.051810
0.341693 0.280134 0.049125
0.377834 0.294016 0.046439
0.413975 0.307898 0.043754
0.450119 0.325303 0.042998
0.486264 0.343413 0.042627
0.522408 0.361522 0.042256
0.558553 0.379632 0.041886
0.594698 0.397742 0.041515
0.625391 0.415196 0.042580
0.653360 0.432321 0.044361
0.681328 0.449447 0.046143
0.709296 0.466573 0.047925
0.737264 0.483699 0.049707
0.760144 0.498999 0.052523
0.777936 0.512473 0.056372
0.795728 0.525947 0.060220
0.813520 0.539421 0.064069
0.831313 0.552895 0.067918
0.846309 0.565089 0.072470
0.855716 0.574722 0.078429
0.865123 0.584354 0.084388
0.874530 0.593987 0.090347
0.883936 0.603620 0.096305
0.892493 0.612932 0.102615
0.896797 0.620643 0.110679
0.901101 0.628354 0.118743
0.905405 0.636064 0.126807
0.909709 0.643775 0.134871
0.914013 0.651486 0.142935
0.249613 0.264764 0.060134
0.285202 0.278771 0.057467
0.320791 0.292778 0.054800
0.356380 0.306786 0.052133
0.391968 0.320793 0.049466
0.427557 0.334800 0.046799
0.462921 0.352312 0.046034
0.498240 0.370525 0.045649
0.533559 0.388738 0.045264
0.568878 0.406951 0.044879
0.604197 0.425164 0.044495
0.634164 0.442701 0.045563
0.661455 0.459901 0.047357
0.688746 0.477101 0.049151
0.716037 0.494301 0.050946
0.743327 0.511501 0.052740
0.765661 0.526838 0.055620
0.783037 0.540311 0.059585
0.800413 0.553785 0.063550
0.817789 0.567258 0.067515
0.835166 0.580732 0.071480
0.849814 0.592876 0.076199
0.859005 0.602364 0.082426
0.868197 0.611852 0.088652
0.877389 0.621339 0.094879
0.886580 0.630827 0.101106
0.894936 0.639954 0.107704
0.899110 0.647281 0.116157
0.903285 0.654608 0.124609
0.907460 0.661934 0.133062
0.911634 0.669261 0.141514
0.915809 0.676588 0.149967
0.265955 0.291039 0.063088
0.300992 0.305172 0.060439
0.336029 0.319304 0.057790
0.371066 0.333437 0.055141
0.406103 0.347570 0.052492
0.441140 0.361702 0.049843
0.475724 0.379321 0.049069
0.510217 0.397638 0.048671
0.544710 0.415954 0.048272
0.579203 0.434270 0.047873
0.613696 0.452586 0.047474
0.642936 0.470207 0.048546
0.669550 0.487481 0.050353
0.696163 0.504756 0.052159
0.722777 0.522030 0.053966
0.749391 0.539304 0.055773
0.771178 0.554677 0.058717
0.788138 0.568150 0.062798
0.805098 0.581622 0.066879
0.822058 0.595095 0.070960
0.839019 0.608568 0.075041
0.853318 0.620664 0.079927
0.862294 0.630006 0.086422
0.871271 0.639349 0.092917
0.880248 0.648691 0.099412
0.889224 0.658034 0.105907
0.897379 0.666976 0.112793
0.901424 0.673919 0.121634
0.905469 0.680861 0.130476
0.909514 0.687804 0.139317
0.913560 0.694747 0.148158
0.917605 0.701690 0.156999
0.282297 0.317314 0.066042
0.316782 0.331572 0.063411
0.351267 0.345830 0.060780
0.385752 0.360088 0.058149
0.420237 0.374347 0.055518
0.454722 0.388605 0.052887
0.488526 0.406331 0.052105
0.522193 0.424750 0.051692
0.555861 0.443169 0.051280
0.589528 0.461589 0.050867
0.623195 0.480008 0.050454
0.651709 0.497713 0.051529
0.677645 0.515062 0.053348
0.703581 0.532410 0.055167
0.729518 0.549758 0.056987
0.755454 0.567106 0.058806
0.776694 0.582516 0.061814
0.793239 0.595988 0.066011
0.809783 0.609460 0.070209
0.826327 0.622932 0.074406
0.842872 0.636404 0.078603
0.856822 0.648452 0.083656
0.865583 0.657649 0.090419
0.874345 0.666846 0.097182
0.883106 0.676043 0.103945
0.891868 0.685240 0.110708
0.899822 0.693998 0.117882
0.903738 0.700557 0.127112
0.907653 0.707115 0.136342
0.911569 0.713674 0.145572
0.915485 0.720233 0.154801
0.919401 0.726792 0.164031
0.298639 0.343589 0.068996
0.332572 0.357973 0.066383
0.366505 0.372356 0.063770
0.400439 0.386740 0.061157
0.434372 0.401123 0.058545
0.468305 0.415507 0.055932
0.501328 0.433340 0.055141
0.534170 0.451862 0.054714
0.567011 0.470385 0.054287
0.599853 0.488908 0.053861
0.632695 0.507430 0.053434
0.660481 0.525219 0.054513
0.685740 0.542642 0.056344
0.710999 0.560064 0.058175
0.736258 0.577486 0.060007
0.761517 0.594908 0.061838
0.782211 0.610355 0.064911
0.798339 0.623827 0.069224
0.814468 0.637298 0.073538
0.830596 0.650769 0.077852
0.846725 0.664241 0.082165
0.860326 0.676239 0.087385
0.868872 0.685291 0.094416
0.877419 0.694343 0.101447
0.885965 0.703395 0.108478
0.894512 0.712447 0.115509
0.902265 0.721020 0.122972
0.906051 0.727195 0.132590
0.909838 0.733369 0.142208
0.913624 0.739544 0.151826
0.917410 0.745719 0.161445
0.921197 0.751893 0.171063
0.314237 0.369975 0.072142
0.347444 0.384276 0.069518
0.380651 0.398576 0.066894
0.413859 0.412877 0.064270
0.447066 0.427178 0.061646
0.480274 0.441479 0.059022
0.512482 0.459229 0.058185
0.544491 0.477669 0.057706
0.576500 0.496109 0.057227
0.608509 0.514549 0.056748
0.640518 0.532990 0.056268
0.667627 0.550719 0.057322
0.692286 0.568093 0.059142
0.716944 0.585467 0.060961
0.741603 0.602841 0.062781
0.766262 0.620214 0.064601
0.786492 0.635610 0.067727
0.802293 0.649028 0.072158
0.818094 0.662446 0.076590
0.833896 0.675864 0.081021
0.849697 0.689281 0.085453
0.863029 0.701195 0.090848
0.871419 0.710101 0.098170
0.879810 0.719006 0.105491
0.888201 0.727912 0.112813
0.896592 0.736817 0.120135
0.904198 0.745208 0.127907
0.907877 0.751021 0.137933
0.911557 0.756835 0.147959
0.915236 0.762648 0.157985
0.918916 0.768462 0.168011
0.922595 0.774276 0.178038
0.328344 0.396581 0.075674
0.360479 0.410383 0.072980
0.392613 0.424184 0.070286
0.424747 0.437986 0.067592
0.456881 0.451788 0.064898
0.489016 0.465590 0.062204
0.520340 0.482879 0.061248
0.551503 0.500865 0.060639
0.582666 0.518851 0.060030
0.613828 0.536837 0.059421
0.644991 0.554823 0.058812
0.671520 0.572206 0.059783
0.695732 0.589286 0.061543
0.719944 0.606367 0.063303
0.744156 0.623448 0.065064
0.768368 0.640528 0.066824
0.788301 0.655698 0.069981
0.803953 0.668956 0.074534
0.819605 0.682214 0.079087
0.835257 0.695472 0.083640
0.850909 0.708731 0.088193
0.864128 0.720488 0.093781
0.872483 0.729245 0.101438
0.880837 0.738001 0.109095
0.889191 0.746758 0.116752
0.897545 0.755514 0.124409
0.905110 0.763727 0.132536
0.908728 0.769226 0.143008
0.912346 0.774724 0.153480
0.915963 0.780222 0.163952
0.919581 0.785720 0.174425
0.923199 0.791218 0.184897
0.342452 0.423187 0.079205
0.373513 0.436490 0.076441
0.404574 0.449793 0.073677
0.435635 0.463095 0.070914
0.466696 0.476398 0.068150
0.497757 0.489701 0.065386
0.528198 0.506528 0.064310
0.558514 0.524060 0.063571
0.588831 0.541592 0.062833
0.619147 0.559124 0.062094
0.649464 0.576656 0.061356
0.675413 0.593692 0.062243
0.699179 0.610480 0.063944
0.722944 0.627267 0.065645
0.746710 0.644055 0.067346
0.770475 0.660842 0.069047
0.790109 0.675785 0.072235
0.805612 0.688884 0.076909
0.821115 0.701982 0.081584
0.836618 0.715081 0.086259
0.852120 0.728180 0.090933
0.865228 0.739781 0.096714
0.873546 0.748389 0.104706
0.881863 0.756996 0.112699
0.890181 0.765603 0.120691
0.898498 0.774211 0.128684
0.906022 0.782247 0.137164
0.909578 0.787430 0.148083
0.913134 0.792613 0.159001
0.916690 0.797796 0.169920
0.920246 0.802978 0.180838
0.923803 0.808161 0.191757
0.356560 0.449793 0.082737
0.386548 0.462597 0.079903
0.416536 0.475401 0.077069
0.446523 0.488204 0.074235
0.476511 0.501008 0.071402
0.506499 0.513812 0.068568
0.536056 0.530178 0.067372
0.565526 0.547256 0.066504
0.594996 0.564334 0.065636
0.624466 0.581412 0.064767
0.653937 0.598490 0.063899
0.679306 0.615179 0.064704
0.702625 0.631673 0.066345
0.725944 0.648167 0.067987
0.749263 0.664661 0.069628
0.772582 0.681156 0.071270
0.791918 0.695872 0.074488
0.807272 0.708812 0.079285
0.822625 0.721751 0.084081
0.837979 0.734690 0.088877
0.853332 0.747629 0.093673
0.866328 0.759075 0.099647
0.874609 0.767533 0.107975
0.882889 0.775991 0.116303
0.891170 0.784449 0.124631
0.899451 0.792907 0.132959
0.906934 0.800767 0.141793
0.910429 0.805634 0.153157
0.913923 0.810502 0.164522
0.917417 0.815369 0.175887
0.920912 0.820237 0.187251
0.924406 0.825104 0.198616
0.370668 0.476399 0.086268
0.399582 0.488704 0.083364
0.428497 0.501009 0.080461
0.457412 0.513313 0.077557
0.486326 0.525618 0.074654
0.515241 0.537923 0.071750
0.543914 0.553827 0.070434
0.572537 0.570451 0.069437
0.601161 0.587075 0.068439
0.629785 0.603699 0.067441
0.658409 0.620323 0.066443
0.683199 0.636665 0.067165
0.706072 0.652866 0.068747
0.728944 0.669067 0.070329
0.751817 0.685268 0.071911
0.774689 0.701470 0.073492
0.793727 0.715960 0.076742
0.808931 0.728739 0.081660
0.824135 0.741519 0.086578
0.839339 0.754299 0.091496
0.854543 0.767078 0.096414
0.867427 0.778368 0.102580
0.875672 0.786677 0.111243
0.883916 0.794986 0.119907
0.892160 0.803295 0.128570
0.900404 0.811604 0.137233
0.907846 0.819287 0.146421
0.911279 0.823839 0.158232
0.914712 0.828391 0.170043
0.918145 0.832943 0.181854
0.921577 0.837495 0.193665
0.925010 0.842047 0.205476
0.383623 0.502096 0.089749
0.411458 0.513839 0.086761
0.439293 0.525583 0.083774
0.467128 0.537326 0.080786
0.494963 0.549069 0.077799
0.522798 0.560813 0.074812
0.550614 0.576204 0.073365
0.578426 0.592325 0.072227
0.606237 0.608446 0.071089
0.634049 0.624567 0.069951
0.661861 0.640688 0.068813
0.686119 0.656646 0.069443
0.708599 0.672522 0.070958
0.731079 0.688399 0.072472
0.753560 0.704276 0.073987
0.776040 0.720153 0.075501
0.794834 0.734396 0.078776
0.809942 0.747005 0.083812
0.825049 0.759614 0.088848
0.840157 0.772222 0.093884
0.855264 0.784831 0.098920
0.868083 0.795961 0.105277
0.876326 0.804131 0.114277
0.884568 0.812301 0.123277
0.892811 0.820471 0.132277
0.901053 0.828641 0.141277
0.908485 0.836161 0.150819
0.911866 0.840432 0.163075
0.915246 0.844703 0.175330
0.918626 0.848974 0.187585
0.922006 0.853246 0.199841
0.925386 0.857517 0.212096
0.390820 0.523245 0.092975
0.417543 0.534115 0.089835
0.444265 0.544986 0.086694
0.470987 0.555856 0.083553
0.497710 0.566726 0.080412
0.524432 0.577596 0.077271
0.551527 0.592218 0.075639
0.578697 0.607590 0.074308
0.605867 0.622962 0.072977
0.633037 0.638334 0.071646
0.660207 0.653706 0.070315
0.684170 0.669095 0.070809
0.706531 0.684492 0.072216
0.728891 0.699889 0.073623
0.751251 0.715286 0.075031
0.773612 0.730684 0.076438
0.792430 0.744574 0.079710
0.807705 0.756956 0.084847
0.822980 0.769339 0.089985
0.838256 0.781722 0.095122
0.853531 0.794105 0.100259
0.866520 0.805053 0.106798
0.874936 0.813135 0.116139
