assets/luts/darjeeling-01-b068203a.cube
# Enhanced with VOXCOLOR algorithms
LUT_3D_SIZE 8
DOMAIN_MIN 0.000000 0.000000 0.000000
DOMAIN_MAX 0.903226 0.903226 0.903226
0.015686 0.015686 0.015686
0.066544 0.016466 0.019707
0.179021 0.014403 0.020730
0.333171 0.010590 0.018685
0.507474 0.006107 0.013887
0.663102 0.002610 0.007772
0.771017 0.000863 0.003253
0.840597 0.000129 0.000771
0.020056 0.020147 0.017653
0.072262 0.021399 0.020313
0.189790 0.022997 0.020327
0.350664 0.025931 0.017672
0.531335 0.030937 0.012700
0.689382 0.038766 0.006992
0.793842 0.046673 0.003190
0.856980 0.051744 0.001519
0.024942 0.027515 0.017967
0.070533 0.030461 0.019940
0.179206 0.037795 0.019764
0.334075 0.051897 0.017268
0.515423 0.074350 0.012673
0.683958 0.106655 0.007438
0.801339 0.139820 0.004313
0.873035 0.164025 0.003859
0.030867 0.039033 0.016983
0.066131 0.044396 0.018716
0.156995 0.057546 0.018866
0.295578 0.083181 0.017045
0.469736 0.124710 0.013261
0.649627 0.186560 0.008669
0.789701 0.254282 0.006331
0.882230 0.308970 0.007582
0.038209 0.055907 0.015045
0.062966 0.063997 0.016753
0.131654 0.081450 0.017459
0.246340 0.115562 0.016580
0.404099 0.172178 0.013909
0.589850 0.260845 0.010198
0.755821 0.365338 0.008823
0.878307 0.458175 0.012164
0.047368 0.081328 0.012457
0.064590 0.092172 0.014020
0.112173 0.110924 0.015119
0.199072 0.146361 0.015107
0.330106 0.206293 0.013645
0.507321 0.306083 0.011065
0.691919 0.434667 0.010650
0.848462 0.561891 0.015644
0.058328 0.117173 0.009576
0.070619 0.129637 0.010730
0.101437 0.147078 0.011828
0.161740 0.177740 0.012314
0.260414 0.229787 0.011840
0.413480 0.322031 0.010413
0.601241 0.452713 0.010504
0.787614 0.596603 0.015248
0.071415 0.163646 0.006422
0.078997 0.174040 0.007057
0.096150 0.187470 0.007868
0.132336 0.210073 0.008512
0.197311 0.248823 0.008739
0.315896 0.322947 0.008399
0.492080 0.440181 0.008693
0.700257 0.584500 0.011543
0.018147 0.017807 0.018604
0.066489 0.019081 0.023173
0.175641 0.017343 0.024382
0.329411 0.013624 0.022285
0.508418 0.009068 0.017294
0.672227 0.005901 0.010901
0.783890 0.006019 0.006299
0.852726 0.009192 0.004066
0.023964 0.023964 0.020507
0.082973 0.027279 0.024605
0.203693 0.029870 0.025606
0.365645 0.032762 0.023561
0.546443 0.036876 0.018890
0.704120 0.043684 0.013186
0.806946 0.052464 0.009186
0.867769 0.061588 0.007067
0.032735 0.037439 0.021288
0.098036 0.045618 0.025527
0.219770 0.055635 0.026723
0.379580 0.069564 0.024981
0.557256 0.088915 0.020768
0.714575 0.115306 0.015757
0.820217 0.143276 0.012661
0.883605 0.166666 0.011700
0.046157 0.061752 0.021132
0.114404 0.076522 0.025653
0.228960 0.094919 0.027226
0.377731 0.120782 0.026024
0.546287 0.156956 0.022552
0.704899 0.206791 0.018498
0.821153 0.260539 0.016833
0.896012 0.305710 0.018268
0.065433 0.099647 0.020218
0.134121 0.121614 0.024767
0.235773 0.147477 0.026710
0.366403 0.183072 0.026256
0.519291 0.233092 0.023904
0.677007 0.304413 0.021244
0.807566 0.385662 0.021630
0.900708 0.457901 0.026653
0.092033 0.155914 0.018636
0.158739 0.183797 0.022550
0.245119 0.213875 0.024654
0.353447 0.252882 0.025106
0.483772 0.306848 0.024295
0.632365 0.386888 0.023526
0.773715 0.485616 0.026341
0.888210 0.581863 0.035384
0.121657 0.223858 0.016920
0.183799 0.254668 0.019778
0.256238 0.285722 0.021914
0.343215 0.322555 0.023315
0.448199 0.370862 0.024130
0.578298 0.443822 0.025158
0.720802 0.541652 0.029464
0.853695 0.647315 0.040161
0.148222 0.292487 0.015410
0.203550 0.322937 0.017292
0.263842 0.352905 0.019582
0.332162 0.385324 0.021994
0.412544 0.424163 0.024349
0.518722 0.481972 0.026739
0.653636 0.566438 0.030962
0.800095 0.667533 0.039461
0.022035 0.020791 0.022893
0.067907 0.021786 0.027387
0.174511 0.020101 0.028942
0.328018 0.016768 0.027537
0.510368 0.013036 0.023561
0.680057 0.011838 0.018724
0.794710 0.015835 0.016396
0.863218 0.024732 0.016829
0.029435 0.028735 0.025039
0.096925 0.033876 0.031010
0.221361 0.037614 0.033610
0.383579 0.041267 0.032971
0.562507 0.046131 0.029619
0.717958 0.054655 0.025420
0.818963 0.067551 0.023417
0.878234 0.083673 0.023640
0.044280 0.050412 0.027814
0.130578 0.063577 0.035266
0.264081 0.076236 0.038690
0.426098 0.090687 0.038604
0.597124 0.108795 0.035859
0.742272 0.132899 0.032621
0.837588 0.160353 0.031908
0.894627 0.187329 0.033792
0.069383 0.091371 0.030916
0.169985 0.114336 0.039287
0.304152 0.136868 0.043250
0.457783 0.162700 0.043751
0.616231 0.194756 0.041969
0.753104 0.236294 0.040347
0.848685 0.281624 0.042089
0.909550 0.322955 0.047653
0.106627 0.155427 0.034088
0.215551 0.187783 0.042399
0.342767 0.218817 0.046610
0.481016 0.253754 0.047944
0.622359 0.296864 0.047761
0.751065 0.353590 0.048595
0.850546 0.417036 0.053933
0.920009 0.475106 0.065003
0.158376 0.247628 0.037050
0.266542 0.284722 0.044010
0.380493 0.319454 0.048306
0.498646 0.357259 0.051030
0.618921 0.403003 0.053341
0.736217 0.464679 0.057397
0.838815 0.538218 0.066793
0.919173 0.610070 0.083908
0.214515 0.350677 0.040417
0.313981 0.386320 0.045474
0.413008 0.420152 0.050126
0.511809 0.455649 0.054837
0.610946 0.496501 0.060094
0.712882 0.551189 0.066950
0.813639 0.620969 0.078303
0.903149 0.695648 0.097396
0.261289 0.442889 0.044650
0.348866 0.474197 0.048083
0.434518 0.505620 0.053713
0.517412 0.537594 0.060996
0.598189 0.571524 0.069368
0.683402 0.614200 0.078021
0.778074 0.671562 0.087865
0.874044 0.738338 0.101745
0.026375 0.023721 0.028662
0.070221 0.024139 0.032737
0.175066 0.022514 0.035025
0.328398 0.020016 0.035458
0.512875 0.018093 0.034443
0.686343 0.020507 0.034272
0.803064 0.030217 0.038133
0.871371 0.046178 0.044963
0.035934 0.033845 0.032101
0.112511 0.040436 0.040585
0.240625 0.045412 0.045558
0.402369 0.050603 0.047469
0.578101 0.057825 0.047170
0.730151 0.070619 0.047232
0.829219 0.090360 0.050865
0.887393 0.115432 0.057305
0.058633 0.064849 0.039494
0.164329 0.082017 0.051325
0.307133 0.097060 0.058055
0.469010 0.112840 0.060937
0.631995 0.131805 0.061469
0.765575 0.157296 0.062680
0.852444 0.188417 0.067859
0.904885 0.222234 0.076603
0.097858 0.123509 0.049541
0.225671 0.152583 0.063151
0.373754 0.178158 0.070841
0.527829 0.204311 0.074631
0.674446 0.234377 0.076607
0.791931 0.272042 0.080197
0.871129 0.314501 0.088802
0.921701 0.356810 0.102557
0.155598 0.213893 0.061044
0.295644 0.253025 0.074553
0.439384 0.286833 0.082604
0.578582 0.320461 0.087657
0.705839 0.358173 0.092075
0.808921 0.404755 0.099386
0.883799 0.456752 0.113070
0.935622 0.506931 0.134078
0.234007 0.339582 0.072683
0.371133 0.380571 0.084031
0.500808 0.415980 0.092321
0.619962 0.450567 0.099661
0.726239 0.488535 0.107967
0.815399 0.535706 0.120037
0.887040 0.590507 0.139109
0.941857 0.645192 0.167422
0.316939 0.473033 0.084766
0.439258 0.506675 0.093004
0.551053 0.537791 0.102116
0.650879 0.568609 0.112901
0.738305 0.601466 0.125944
0.813770 0.641300 0.141932
0.880701 0.689618 0.162749
0.937846 0.741363 0.191849
0.384598 0.584975 0.098029
0.489327 0.608740 0.103376
0.585215 0.634539 0.114316
0.669958 0.661309 0.129602
0.742825 0.688697 0.147743
0.806115 0.719105 0.165850
0.867186 0.756021 0.182655
0.925386 0.797585 0.201496
0.030417 0.025897 0.036174
0.072911 0.025803 0.039706
0.176676 0.024437 0.043285
0.329808 0.023303 0.047027
0.515289 0.024182 0.051569
0.690666 0.031768 0.060305
0.808483 0.048811 0.075606
0.876526 0.072753 0.093630
0.042976 0.038772 0.042634
0.128256 0.046310 0.054444
0.259480 0.052530 0.062670
0.420039 0.059946 0.068544
0.591794 0.070980 0.073632
0.739855 0.090286 0.081781
0.836955 0.119030 0.095869
0.894257 0.154112 0.113187
0.074844 0.079407 0.058276
0.196046 0.098992 0.075785
0.344815 0.115945 0.087027
0.504576 0.133844 0.094467
0.659400 0.155786 0.100636
0.783185 0.186126 0.109857
0.863767 0.224444 0.125265
0.913131 0.267239 0.145178
0.129059 0.154628 0.080073
0.275614 0.186989 0.100449
0.430920 0.214476 0.113395
0.581931 0.241678 0.122372
0.717200 0.272399 0.130631
0.819670 0.310882 0.142788
0.887442 0.355664 0.162038
0.931270 0.402773 0.187711
0.206815 0.267708 0.105153
0.365138 0.309824 0.125493
0.515603 0.344620 0.139228
0.650729 0.377383 0.150237
0.764636 0.412493 0.161976
0.848603 0.454439 0.178909
0.906654 0.501681 0.204074
0.946888 0.549724 0.237921
0.308260 0.418866 0.129964
0.459164 0.460267 0.147296
0.593013 0.494450 0.161662
0.707046 0.525939 0.176160
0.799703 0.558609 0.193383
0.868113 0.596849 0.216413
0.918684 0.640386 0.247530
0.956685 0.685190 0.288724
0.412053 0.572476 0.153771
0.542278 0.602306 0.166344
0.654975 0.629360 0.181998
0.748905 0.655432 0.201622
0.823914 0.682204 0.225592
0.879677 0.712278 0.253519
0.923603 0.746740 0.285411
0.959579 0.783760 0.324894
0.496176 0.696560 0.178019
0.604393 0.712571 0.185599
0.698655 0.731893 0.203694
0.777220 0.753046 0.229809
0.839547 0.774894 0.260941
0.885726 0.797039 0.291005
0.923711 0.820601 0.315602
0.957367 0.845773 0.338797
0.033706 0.026788 0.046934
0.075399 0.026440 0.049894
0.178246 0.025579 0.055501
0.330605 0.026290 0.064659
0.515663 0.030871 0.078721
0.691172 0.045082 0.102988
0.809234 0.070931 0.137624
0.877024 0.103499 0.173601
0.050043 0.042935 0.059450
0.142188 0.050648 0.075761
0.275035 0.057884 0.088299
0.433384 0.067932 0.100014
0.600650 0.083849 0.113919
0.744643 0.111368 0.135992
0.839939 0.150591 0.167487
0.896550 0.195841 0.201580
0.091667 0.092775 0.089181
0.222017 0.112301 0.113864
0.372372 0.130184 0.130932
0.528143 0.150659 0.144872
0.675569 0.177336 0.159850
0.792219 0.215399 0.182015
0.868919 0.263509 0.213141
0.916600 0.316108 0.248568
0.159917 0.181769 0.130048
0.313795 0.213223 0.158548
0.468838 0.240912 0.178269
0.614012 0.269761 0.194541
0.740007 0.303797 0.212053
0.833182 0.347582 0.236646
0.894872 0.399119 0.270174
0.935381 0.453471 0.310000
0.253923 0.311229 0.176168
0.415015 0.351129 0.204424
0.562339 0.384830 0.225510
0.689992 0.417563 0.244699
0.793698 0.453566 0.266434
0.866999 0.496935 0.295647
0.916692 0.545946 0.333859
0.951351 0.596547 0.380294
0.369325 0.476222 0.219393
0.517848 0.514171 0.243545
0.645832 0.545860 0.265660
0.751517 0.575580 0.289480
0.834231 0.606839 0.317880
0.891809 0.642918 0.353408
0.932273 0.683123 0.396311
0.962192 0.724769 0.447800
0.481399 0.636523 0.256207
0.606168 0.662307 0.273556
0.711490 0.685990 0.297230
0.796983 0.709315 0.327654
0.863044 0.733662 0.364450
0.908931 0.760228 0.405223
0.942153 0.788900 0.447187
0.968080 0.818994 0.493762
0.571567 0.763149 0.289474
0.673072 0.774760 0.299165
0.759114 0.790159 0.325534
0.829166 0.808053 0.364095
0.883371 0.827184 0.409678
0.920977 0.845811 0.452230
0.948540 0.863273 0.484097
0.970903 0.880464 0.510444
0.036380 0.026546 0.062585
0.077002 0.026240 0.064776
0.177950 0.025971 0.072744
0.328174 0.028584 0.088906
0.511403 0.037043 0.115854
0.686180 0.058340 0.161323
0.804414 0.093707 0.221499
0.872358 0.135672 0.280210
0.056527 0.046100 0.084480
0.152569 0.053363 0.106264
0.284923 0.061241 0.123549
0.439915 0.073705 0.142088
0.602497 0.094382 0.167163
0.742892 0.130109 0.207569
0.836852 0.179867 0.261404
0.893115 0.235159 0.315916
0.106943 0.104237 0.133921
0.240694 0.121766 0.166610
0.389186 0.139583 0.189759
0.539822 0.162286 0.210701
0.680773 0.193755 0.235849
0.792401 0.239882 0.273563
0.866865 0.298025 0.323017
0.913754 0.360063 0.375201
0.186682 0.204389 0.200473
0.339822 0.231663 0.236988
0.490071 0.257989 0.263288
0.628301 0.288204 0.286822
0.746948 0.326187 0.313864
0.834643 0.376613 0.351336
0.893498 0.436131 0.398794
0.932675 0.497944 0.450777
0.292281 0.345450 0.273923
0.446787 0.378922 0.308727
0.586028 0.409683 0.336281
0.705394 0.442416 0.362897
0.801688 0.480781 0.393646
0.869646 0.528294 0.433283
0.915997 0.581894 0.481072
0.948590 0.636662 0.534571
0.413695 0.516818 0.339139
0.551459 0.547658 0.367791
0.669670 0.575563 0.395952
0.767055 0.604140 0.427330
0.843229 0.636154 0.464496
0.896114 0.673789 0.508695
0.932902 0.714892 0.557647
0.959848 0.756638 0.611391
0.523980 0.675829 0.387184
0.637833 0.696176 0.407232
0.734068 0.716610 0.436824
0.812443 0.738505 0.475371
0.873297 0.762746 0.521354
0.915453 0.789433 0.570143
0.945102 0.816838 0.616297
0.967343 0.844142 0.662505
0.610456 0.798975 0.422014
0.702691 0.807435 0.433416
0.781035 0.820543 0.466291
0.845155 0.837022 0.514124
0.895186 0.855470 0.569774
0.929961 0.873432 0.620218
0.954476 0.888914 0.655920
0.972954 0.902675 0.682848
0.038249 0.025157 0.083523
0.077312 0.025437 0.084651
0.174810 0.025896 0.094894
0.321193 0.030298 0.118659
0.501448 0.042420 0.160059
0.675537 0.070665 0.229160
0.794602 0.115912 0.316864
0.863483 0.168672 0.399399
0.062050 0.048367 0.117237
0.159083 0.054925 0.145019
0.288951 0.063240 0.166690
0.439644 0.077757 0.191627
0.597653 0.102549 0.227991
0.735270 0.145591 0.287674
0.828585 0.205336 0.364819
0.885005 0.271155 0.440483
0.119442 0.113848 0.189598
0.252634 0.128498 0.230486
0.397174 0.145787 0.258806
0.542257 0.170256 0.285355
0.677664 0.205770 0.319272
0.785830 0.258895 0.371413
0.859170 0.326199 0.438077
0.905863 0.397476 0.505904
0.207760 0.223046 0.285228
0.356019 0.244699 0.328712
0.499557 0.269014 0.359765
0.630832 0.300209 0.388093
0.743612 0.341645 0.421674
0.828081 0.398080 0.468587
0.885928 0.465098 0.526245
0.924843 0.534118 0.586629
0.321439 0.372566 0.389008
0.465531 0.397680 0.427506
0.595162 0.424742 0.458408
0.706625 0.457332 0.488692
0.797379 0.498134 0.523807
0.862858 0.550106 0.568154
0.908575 0.608908 0.619217
0.940987 0.668372 0.673315
0.445131 0.546496 0.477738
0.569095 0.568233 0.506534
0.676677 0.591714 0.536172
0.766607 0.619349 0.569773
0.838356 0.652797 0.609274
0.889724 0.693283 0.654610
0.926239 0.737203 0.701800
0.953005 0.780950 0.749978
0.549607 0.700496 0.534681
0.650760 0.714234 0.553815
0.738051 0.731303 0.584218
0.810758 0.752330 0.624220
0.868692 0.777457 0.671344
0.910215 0.805930 0.719725
0.939888 0.834558 0.762667
0.961854 0.861804 0.801729
0.627288 0.816610 0.563441
0.710009 0.822314 0.576533
0.782182 0.833886 0.611705
0.842797 0.849930 0.661571
0.891350 0.868862 0.718390
0.926179 0.887850 0.768968
0.951020 0.903801 0.803814
0.969285 0.916836 0.827996
