assets/luts/darjeeling-01-b068203a.cube
# Enhanced with VOXCOLOR algorithms
LUT_3D_SIZE 32
0.015686 0.015686 0.015686
0.028400 0.015881 0.016691
0.041115 0.016076 0.017697
0.053829 0.016271 0.018702
0.066544 0.016466 0.019707
0.079258 0.016661 0.020712
0.110096 0.016019 0.020836
0.144558 0.015211 0.020783
0.179021 0.014403 0.020730
0.213483 0.013595 0.020677
0.247946 0.012786 0.020624
0.288928 0.011746 0.019838
0.333171 0.010590 0.018685
0.377413 0.009434 0.017532
0.421656 0.008278 0.016380
0.465899 0.007122 0.015227
0.507474 0.006107 0.013887
0.546381 0.005233 0.012358
0.585288 0.004358 0.010829
0.624195 0.003484 0.009301
0.663102 0.002610 0.007772
0.697238 0.001911 0.006403
0.721831 0.001561 0.005353
0.746424 0.001212 0.004303
0.771017 0.000863 0.003253
0.795610 0.000514 0.002203
0.817988 0.000216 0.001285
0.829292 0.000173 0.001028
0.840597 0.000129 0.000771
0.851901 0.000086 0.000514
0.863206 0.000043 0.000257
0.874510 0.000000 0.000000
0.016779 0.016801 0.016178
0.029577 0.017026 0.017098
0.042376 0.017250 0.018018
0.055175 0.017474 0.018938
0.067973 0.017699 0.019859
0.080772 0.017923 0.020779
0.111966 0.017546 0.020843
0.146840 0.017049 0.020736
0.181713 0.016552 0.020629
0.216586 0.016054 0.020522
0.251460 0.015557 0.020415
0.292868 0.015005 0.019600
0.337544 0.014425 0.018432
0.382220 0.013846 0.017263
0.426896 0.013267 0.016094
0.471572 0.012687 0.014926
0.513439 0.012314 0.013590
0.552497 0.012148 0.012087
0.591555 0.011982 0.010583
0.630614 0.011815 0.009080
0.669672 0.011649 0.007577
0.703812 0.011616 0.006241
0.728116 0.011849 0.005240
0.752419 0.012082 0.004239
0.776723 0.012316 0.003237
0.801027 0.012549 0.002236
0.823081 0.012766 0.001367
0.833887 0.012899 0.001163
0.844693 0.013033 0.000958
0.855498 0.013167 0.000753
0.866304 0.013301 0.000548
0.877110 0.013434 0.000344
0.017871 0.017916 0.016670
0.030754 0.018170 0.017505
0.043637 0.018424 0.018340
0.056520 0.018678 0.019175
0.069403 0.018932 0.020010
0.082286 0.019186 0.020845
0.113837 0.019073 0.020850
0.149121 0.018887 0.020689
0.184405 0.018700 0.020528
0.219689 0.018514 0.020367
0.254974 0.018327 0.020206
0.296808 0.018263 0.019363
0.341917 0.018261 0.018178
0.387027 0.018258 0.016994
0.432136 0.018255 0.015809
0.477245 0.018253 0.014624
0.519404 0.018522 0.013293
0.558614 0.019064 0.011815
0.597823 0.019605 0.010338
0.637032 0.020146 0.008860
0.676242 0.020688 0.007382
0.710386 0.021321 0.006079
0.734401 0.022137 0.005127
0.758415 0.022952 0.004174
0.782429 0.023768 0.003222
0.806444 0.024584 0.002269
0.828174 0.025316 0.001450
0.838481 0.025626 0.001297
0.848788 0.025937 0.001145
0.859096 0.026248 0.000992
0.869403 0.026558 0.000840
0.879710 0.026869 0.000687
0.018964 0.019032 0.017161
0.031931 0.019315 0.017911
0.044898 0.019599 0.018662
0.057865 0.019882 0.019412
0.070833 0.020166 0.020162
0.083800 0.020449 0.020912
0.115707 0.020600 0.020858
0.151402 0.020724 0.020643
0.187098 0.020849 0.020428
0.222793 0.020973 0.020213
0.258488 0.021098 0.019998
0.300748 0.021522 0.019126
0.346291 0.022096 0.017925
0.391833 0.022670 0.016724
0.437376 0.023244 0.015524
0.482918 0.023818 0.014323
0.525370 0.024730 0.012996
0.564730 0.025979 0.011544
0.604091 0.027228 0.010092
0.643451 0.028478 0.008639
0.682812 0.029727 0.007187
0.716960 0.031026 0.005918
0.740685 0.032424 0.005014
0.764410 0.033823 0.004110
0.788136 0.035221 0.003206
0.811861 0.036619 0.002302
0.833266 0.037866 0.001532
0.843075 0.038353 0.001432
0.852884 0.038841 0.001332
0.862693 0.039328 0.001232
0.872502 0.039816 0.001131
0.882310 0.040303 0.001031
0.020056 0.020147 0.017653
0.033108 0.020460 0.018318
0.046159 0.020773 0.018983
0.059211 0.021086 0.019648
0.072262 0.021399 0.020313
0.085314 0.021712 0.020978
0.117578 0.022127 0.020865
0.153684 0.022562 0.020596
0.189790 0.022997 0.020327
0.225896 0.023433 0.020058
0.262002 0.023868 0.019789
0.304688 0.024780 0.018888
0.350664 0.025931 0.017672
0.396640 0.027082 0.016455
0.442616 0.028233 0.015238
0.488592 0.029383 0.014021
0.531335 0.030937 0.012700
0.570847 0.032894 0.011273
0.610358 0.034852 0.009846
0.649870 0.036809 0.008419
0.689382 0.038766 0.006992
0.723535 0.040731 0.005756
0.746970 0.042712 0.004900
0.770406 0.044693 0.004045
0.793842 0.046673 0.003190
0.817278 0.048654 0.002335
0.838359 0.050416 0.001614
0.847669 0.051080 0.001566
0.856980 0.051744 0.001519
0.866290 0.052409 0.001471
0.875600 0.053073 0.001423
0.884911 0.053738 0.001375
0.021149 0.021262 0.018145
0.034285 0.021605 0.018725
0.047421 0.021947 0.019305
0.060556 0.022290 0.019885
0.073692 0.022632 0.020465
0.086828 0.022975 0.021045
0.119448 0.023654 0.020872
0.155965 0.024400 0.020549
0.192482 0.025146 0.020226
0.228999 0.025892 0.019903
0.265516 0.026638 0.019580
0.308628 0.028039 0.018651
0.355037 0.029766 0.017418
0.401446 0.031494 0.016185
0.447856 0.033221 0.014953
0.494265 0.034949 0.013720
0.537301 0.037145 0.012403
0.576963 0.039810 0.011001
0.616626 0.042475 0.009600
0.656289 0.045140 0.008198
0.695951 0.047805 0.006797
0.730109 0.050436 0.005594
0.753255 0.052999 0.004787
0.776402 0.055563 0.003981
0.799548 0.058126 0.003174
0.822695 0.060689 0.002368
0.843452 0.062965 0.001696
0.852264 0.063807 0.001701
0.861075 0.064648 0.001705
0.869887 0.065489 0.001710
0.878699 0.066331 0.001714
0.887511 0.067172 0.001719
0.022393 0.023232 0.018150
0.035028 0.023694 0.018695
0.047662 0.024156 0.019239
0.060297 0.024618 0.019784
0.072931 0.025080 0.020328
0.085566 0.025542 0.020873
0.117443 0.026648 0.020703
0.153168 0.027884 0.020391
0.188894 0.029119 0.020078
0.224620 0.030355 0.019766
0.260345 0.031590 0.019454
0.303107 0.033892 0.018547
0.349386 0.036726 0.017344
0.395666 0.039561 0.016141
0.441945 0.042396 0.014938
0.488225 0.045230 0.013735
0.531568 0.048818 0.012448
0.571975 0.053158 0.011076
0.612382 0.057498 0.009705
0.652790 0.061837 0.008334
0.693197 0.066177 0.006963
0.728196 0.070514 0.005794
0.752380 0.074843 0.005032
0.776563 0.079172 0.004270
0.800746 0.083501 0.003507
0.824930 0.087830 0.002745
0.846620 0.091742 0.002129
0.855848 0.093568 0.002245
0.865075 0.095395 0.002361
0.874302 0.097221 0.002477
0.883530 0.099047 0.002593
0.892757 0.100874 0.002709
0.023668 0.025374 0.018058
0.035684 0.025973 0.018577
0.047700 0.026572 0.019096
0.059716 0.027171 0.019615
0.071732 0.027770 0.020134
0.083748 0.028370 0.020653
0.114662 0.029936 0.020499
0.149356 0.031697 0.020210
0.184050 0.033457 0.019921
0.218744 0.035218 0.019632
0.253437 0.036978 0.019343
0.295693 0.040263 0.018471
0.341730 0.044312 0.017306
0.387767 0.048360 0.016142
0.433804 0.052408 0.014977
0.479842 0.056456 0.013813
0.523495 0.061584 0.012560
0.564766 0.067792 0.011220
0.606037 0.074000 0.009880
0.647307 0.080208 0.008540
0.688578 0.086416 0.007200
0.724586 0.092665 0.006067
0.750072 0.098997 0.005348
0.775557 0.105329 0.004629
0.801043 0.111660 0.003910
0.826528 0.117992 0.003191
0.849403 0.123764 0.002632
0.859229 0.126737 0.002871
0.869055 0.129710 0.003110
0.878881 0.132683 0.003349
0.888707 0.135656 0.003588
0.898532 0.138629 0.003828
0.024942 0.027515 0.017967
0.036340 0.028251 0.018460
0.047738 0.028988 0.018953
0.059135 0.029724 0.019447
0.070533 0.030461 0.019940
0.081931 0.031197 0.020434
0.111882 0.033225 0.020295
0.145544 0.035510 0.020029
0.179206 0.037795 0.019764
0.212868 0.040081 0.019498
0.246529 0.042366 0.019233
0.288280 0.046635 0.018394
0.334075 0.051897 0.017268
0.379869 0.057158 0.016142
0.425664 0.062419 0.015017
0.471459 0.067681 0.013891
0.515423 0.074350 0.012673
0.557557 0.082426 0.011365
0.599691 0.090502 0.010056
0.641824 0.098579 0.008747
0.683958 0.106655 0.007438
0.720977 0.114817 0.006340
0.747764 0.123151 0.005665
0.774552 0.131486 0.004989
0.801339 0.139820 0.004313
0.828127 0.148154 0.003637
0.852187 0.155786 0.003134
0.862611 0.159905 0.003497
0.873035 0.164025 0.003859
0.883459 0.168145 0.004222
0.893884 0.172264 0.004584
0.904308 0.176384 0.004947
0.026217 0.029656 0.017875
0.036996 0.030530 0.018343
0.047775 0.031404 0.018810
0.058555 0.032278 0.019278
0.069334 0.033151 0.019746
0.080113 0.034025 0.020214
0.109101 0.036513 0.020091
0.141731 0.039323 0.019849
0.174361 0.042133 0.019607
0.206991 0.044944 0.019364
0.239621 0.047754 0.019122
0.280866 0.053007 0.018317
0.326419 0.059482 0.017230
0.371971 0.065957 0.016143
0.417523 0.072431 0.015056
0.463076 0.078906 0.013969
0.507350 0.087116 0.012786
0.550348 0.097060 0.011509
0.593345 0.107005 0.010231
0.636342 0.116949 0.008954
0.679339 0.126894 0.007676
0.717367 0.136969 0.006613
0.745456 0.147306 0.005981
0.773546 0.157642 0.005348
0.801635 0.167979 0.004716
0.829725 0.178316 0.004083
0.854970 0.187808 0.003637
0.865993 0.193074 0.004123
0.877015 0.198340 0.004609
0.888038 0.203606 0.005094
0.899061 0.208873 0.005580
0.910083 0.214139 0.006066
0.027491 0.031797 0.017783
0.037652 0.032808 0.018225
0.047813 0.033820 0.018668
0.057974 0.034831 0.019110
0.068135 0.035842 0.019552
0.078296 0.036853 0.019995
0.106321 0.039801 0.019886
0.137919 0.043136 0.019668
0.169517 0.046472 0.019449
0.201115 0.049807 0.019231
0.232714 0.053142 0.019012
0.273453 0.059379 0.018240
0.318763 0.067067 0.017192
0.364073 0.074755 0.016144
0.409383 0.082443 0.015095
0.454693 0.090131 0.014047
0.499278 0.099881 0.012899
0.543138 0.111694 0.011653
0.586999 0.123507 0.010407
0.630859 0.135320 0.009160
0.674720 0.147132 0.007914
0.713757 0.159121 0.006886
0.743149 0.171460 0.006297
0.772540 0.183799 0.005708
0.801932 0.196139 0.005119
0.831323 0.208478 0.004529
0.857753 0.219830 0.004140
0.869374 0.226242 0.004749
0.880996 0.232655 0.005358
0.892617 0.239068 0.005967
0.904238 0.245481 0.006576
0.915859 0.251894 0.007185
0.029096 0.035120 0.017445
0.038596 0.036290 0.017878
0.048095 0.037461 0.018312
0.057594 0.038631 0.018745
0.067094 0.039802 0.019179
0.076593 0.040972 0.019613
0.103283 0.044285 0.019538
0.133411 0.048027 0.019361
0.163539 0.051769 0.019185
0.193668 0.055511 0.019008
0.223796 0.059252 0.018831
0.263486 0.066312 0.018114
0.307958 0.075030 0.017126
0.352429 0.083748 0.016137
0.396900 0.092466 0.015149
0.441372 0.101184 0.014161
0.485847 0.112366 0.013067
0.530325 0.126012 0.011866
0.574803 0.139659 0.010665
0.619281 0.153305 0.009464
0.663759 0.166951 0.008264
0.703780 0.180947 0.007285
0.734886 0.195640 0.006751
0.765992 0.210334 0.006218
0.797099 0.225028 0.005684
0.828205 0.239722 0.005150
0.856293 0.253357 0.004836
0.869289 0.261701 0.005617
0.882286 0.270044 0.006397
0.895282 0.278388 0.007178
0.908278 0.286731 0.007959
0.921274 0.295075 0.008740
0.030867 0.039033 0.016983
0.039683 0.040374 0.017416
0.048499 0.041714 0.017850
0.057315 0.043055 0.018283
0.066131 0.044396 0.018716
0.074947 0.045737 0.019149
0.100116 0.049368 0.019117
0.128555 0.053457 0.018991
0.156995 0.057546 0.018866
0.185434 0.061635 0.018741
0.213873 0.065724 0.018615
0.252243 0.073525 0.017962
0.295578 0.083181 0.017045
0.338913 0.092838 0.016128
0.382247 0.102494 0.015211
0.425582 0.112150 0.014294
0.469736 0.124710 0.013261
0.514709 0.140172 0.012113
0.559681 0.155635 0.010965
0.604654 0.171097 0.009817
0.649627 0.186560 0.008669
0.690618 0.202610 0.007747
0.723646 0.219834 0.007275
0.756673 0.237058 0.006803
0.789701 0.254282 0.006331
0.822729 0.271506 0.005859
0.852712 0.287637 0.005628
0.867471 0.298304 0.006605
0.882230 0.308970 0.007582
0.896990 0.319636 0.008559
0.911749 0.330303 0.009536
0.926508 0.340969 0.010513
0.032638 0.042946 0.016522
0.040770 0.044457 0.016955
0.048903 0.045968 0.017387
0.057036 0.047479 0.017820
0.065169 0.048990 0.018253
0.073302 0.050501 0.018685
0.096949 0.054450 0.018696
0.123700 0.058887 0.018622
0.150450 0.063323 0.018548
0.177201 0.067760 0.018474
0.203951 0.072196 0.018400
0.241000 0.080738 0.017811
0.283198 0.091333 0.016965
0.325396 0.101928 0.016119
0.367594 0.112522 0.015273
0.409792 0.123117 0.014427
0.453625 0.137054 0.013456
0.499093 0.154333 0.012361
0.544560 0.171611 0.011266
0.590028 0.188890 0.010171
0.635495 0.206169 0.009075
0.677456 0.224273 0.008208
0.712405 0.244027 0.007798
0.747354 0.263782 0.007388
0.782303 0.283536 0.006978
0.817252 0.303291 0.006567
0.849130 0.321918 0.006421
0.865653 0.334907 0.007594
0.882175 0.347896 0.008767
0.898698 0.360885 0.009940
0.915220 0.373874 0.011113
0.931743 0.386863 0.012286
0.034408 0.046859 0.016061
0.041858 0.048541 0.016493
0.049307 0.050222 0.016925
0.056757 0.051903 0.017357
0.064207 0.053584 0.017789
0.071656 0.055266 0.018222
0.093783 0.059532 0.018275
0.118844 0.064316 0.018252
0.143905 0.069100 0.018229
0.168967 0.073884 0.018206
0.194028 0.078668 0.018184
0.229757 0.087951 0.017659
0.270818 0.099484 0.016884
0.311879 0.111018 0.016109
0.352941 0.122551 0.015334
0.394002 0.134084 0.014559
0.437514 0.149398 0.013651
0.483477 0.168493 0.012608
0.529439 0.187588 0.011566
0.575401 0.206683 0.010524
0.621363 0.225778 0.009481
0.664295 0.245936 0.008670
0.701165 0.268221 0.008322
0.738035 0.290506 0.007973
0.774906 0.312791 0.007624
0.811776 0.335075 0.007276
0.845549 0.356198 0.007213
0.863834 0.371510 0.008582
0.882120 0.386822 0.009951
0.900406 0.402133 0.011321
0.918692 0.417445 0.012690
0.936977 0.432757 0.014059
0.036179 0.050772 0.015600
0.042945 0.052624 0.016031
0.049712 0.054475 0.016463
0.056478 0.056327 0.016895
0.063244 0.058178 0.017326
0.070011 0.060030 0.017758
0.090616 0.064615 0.017854
0.113988 0.069746 0.017882
0.137361 0.074877 0.017911
0.160733 0.080008 0.017939
0.184106 0.085140 0.017968
0.218513 0.095165 0.017508
0.258438 0.107636 0.016804
0.298363 0.120107 0.016100
0.338288 0.132579 0.015396
0.378213 0.145050 0.014692
0.421404 0.161742 0.013845
0.467861 0.182653 0.012856
0.514318 0.203564 0.011866
0.560775 0.224475 0.010877
0.607232 0.245386 0.009887
0.651133 0.267599 0.009132
0.689925 0.292414 0.008845
0.728716 0.317229 0.008558
0.767508 0.342045 0.008271
0.806299 0.366860 0.007984
0.841967 0.390478 0.008006
0.862016 0.408113 0.009571
0.882065 0.425747 0.011136
0.902114 0.443382 0.012701
0.922163 0.461016 0.014266
0.942212 0.478651 0.015832
0.038209 0.055907 0.015045
0.044398 0.057929 0.015472
0.050588 0.059952 0.015899
0.056777 0.061975 0.016326
0.062966 0.063997 0.016753
0.069156 0.066020 0.017180
0.088266 0.070796 0.017312
0.109960 0.076123 0.017386
0.131654 0.081450 0.017459
0.153347 0.086777 0.017532
0.175041 0.092104 0.017606
0.207900 0.102552 0.017210
0.246340 0.115562 0.016580
0.284780 0.128571 0.015949
0.323220 0.141580 0.015319
0.361660 0.154590 0.014688
0.404099 0.172178 0.013909
0.450537 0.194345 0.012982
0.496974 0.216512 0.012054
0.543412 0.238679 0.011126
0.589850 0.260845 0.010198
0.634309 0.284595 0.009504
0.674813 0.311509 0.009277
0.715317 0.338424 0.009050
0.755821 0.365338 0.008823
0.796325 0.392252 0.008596
0.833788 0.418027 0.008695
0.856048 0.438101 0.010430
0.878307 0.458175 0.012164
0.900566 0.478249 0.013898
0.922825 0.498323 0.015632
0.945084 0.518397 0.017366
0.040499 0.062262 0.014398
0.046217 0.064457 0.014816
0.051935 0.066651 0.015234
0.057654 0.068846 0.015652
0.063372 0.071041 0.016070
0.069091 0.073236 0.016488
0.086732 0.078077 0.016650
0.106758 0.083448 0.016762
0.126783 0.088818 0.016874
0.146809 0.094189 0.016986
0.166835 0.099560 0.017098
0.197915 0.110114 0.016766
0.234523 0.123261 0.016211
0.271130 0.136408 0.015657
0.307738 0.149555 0.015103
0.344345 0.162702 0.014549
0.385601 0.180707 0.013843
0.431505 0.203569 0.012986
0.477409 0.226431 0.012129
0.523313 0.249293 0.011272
0.569218 0.272155 0.010415
0.613823 0.296924 0.009787
0.655830 0.325506 0.009618
0.697838 0.354088 0.009449
0.739846 0.382670 0.009280
0.781853 0.411253 0.009110
0.821013 0.438843 0.009282
0.845929 0.461473 0.011158
0.870846 0.484104 0.013034
0.895762 0.506734 0.014910
0.920679 0.529365 0.016786
0.945595 0.551995 0.018662
0.042788 0.068617 0.013751
0.048036 0.070984 0.014160
0.053283 0.073351 0.014569
0.058531 0.075718 0.014978
0.063778 0.078085 0.015386
0.069026 0.080451 0.015795
0.085198 0.085358 0.015989
0.103556 0.090772 0.016139
0.121913 0.096187 0.016289
0.140271 0.101601 0.016439
0.158629 0.107016 0.016590
0.187931 0.117677 0.016321
0.222706 0.130961 0.015843
0.257480 0.144246 0.015365
0.292255 0.157530 0.014887
0.327030 0.170815 0.014409
0.367103 0.189235 0.013777
0.412473 0.212793 0.012991
0.457844 0.236350 0.012205
0.503215 0.259907 0.011418
0.548585 0.283464 0.010632
0.593336 0.309252 0.010070
0.636848 0.339502 0.009959
0.680359 0.369753 0.009848
0.723870 0.400003 0.009736
0.767382 0.430253 0.009625
0.808237 0.459659 0.009868
0.835811 0.484846 0.011886
0.863385 0.510033 0.013904
0.890959 0.535220 0.015922
0.918532 0.560406 0.017940
0.946106 0.585593 0.019958
0.045078 0.074973 0.013104
0.049854 0.077512 0.013504
0.054631 0.080050 0.013904
0.059408 0.082589 0.014303
0.064184 0.085128 0.014703
0.068961 0.087667 0.015103
0.083665 0.092639 0.015327
0.100354 0.098097 0.015515
0.117043 0.103555 0.015704
0.133733 0.109013 0.015893
0.150422 0.114472 0.016082
0.177947 0.125239 0.015877
0.210889 0.138661 0.015475
0.243831 0.152083 0.015073
0.276773 0.165505 0.014672
0.309715 0.178927 0.014270
0.348604 0.197764 0.013711
0.393442 0.222016 0.012996
0.438279 0.246269 0.012280
0.483116 0.270521 0.011564
0.527953 0.294773 0.010848
0.572850 0.321581 0.010353
0.617865 0.353499 0.010300
0.662880 0.385417 0.010247
0.707895 0.417335 0.010193
0.752910 0.449253 0.010140
0.795461 0.480475 0.010455
0.825692 0.508218 0.012615
0.855923 0.535962 0.014774
0.886155 0.563705 0.016934
0.916386 0.591448 0.019094
0.946617 0.619191 0.021253
0.047368 0.081328 0.012457
0.051673 0.084039 0.012848
0.055979 0.086750 0.013239
0.060285 0.089461 0.013629
0.064590 0.092172 0.014020
0.068896 0.094883 0.014410
0.082131 0.099919 0.014665
0.097152 0.105422 0.014892
0.112173 0.110924 0.015119
0.127195 0.116426 0.015346
0.142216 0.121928 0.015573
0.167962 0.132801 0.015432
0.199072 0.146361 0.015107
0.230181 0.159920 0.014781
0.261290 0.173480 0.014456
0.292400 0.187039 0.014130
0.330106 0.206293 0.013645
0.374410 0.231240 0.013000
0.418714 0.256188 0.012355
0.463017 0.281135 0.011710
0.507321 0.306083 0.011065
0.552363 0.333910 0.010637
0.598882 0.367496 0.010641
0.645401 0.401082 0.010645
0.691919 0.434667 0.010650
0.738438 0.468253 0.010654
0.782685 0.501292 0.011041
0.815574 0.531591 0.013343
0.848462 0.561891 0.015644
0.881351 0.592190 0.017946
0.914240 0.622490 0.020248
0.947128 0.652789 0.022549
0.049837 0.088726 0.011781
0.053737 0.091580 0.012156
0.057637 0.094435 0.012531
0.061537 0.097290 0.012906
0.065437 0.100144 0.013281
0.069337 0.102999 0.013656
0.081219 0.108029 0.013930
0.094699 0.113495 0.014185
0.108178 0.118960 0.014439
0.121657 0.124425 0.014693
0.135136 0.129891 0.014948
0.159077 0.140675 0.014862
0.188248 0.154119 0.014607
0.217420 0.167562 0.014351
0.246591 0.181006 0.014095
0.275762 0.194449 0.013840
0.312038 0.213759 0.013425
0.355418 0.238935 0.012851
0.398798 0.264111 0.012277
0.442178 0.289287 0.011704
0.485558 0.314463 0.011130
0.530356 0.342810 0.010764
0.577993 0.377497 0.010812
0.625630 0.412184 0.010861
0.673266 0.446871 0.010909
0.720903 0.481559 0.010958
0.766546 0.515884 0.011393
0.802223 0.548402 0.013760
0.837901 0.580919 0.016127
0.873578 0.613437 0.018494
0.909256 0.645954 0.020861
0.944933 0.678471 0.023228
0.052667 0.098208 0.011046
0.056292 0.101150 0.011392
0.059916 0.104092 0.011738
0.063540 0.107033 0.012084
0.067164 0.109975 0.012431
0.070789 0.112917 0.012777
0.081551 0.117797 0.013050
0.093741 0.123065 0.013310
0.105931 0.128333 0.013569
0.118121 0.133600 0.013828
0.130311 0.138868 0.014087
0.152390 0.149171 0.014041
0.179412 0.161992 0.013842
0.206435 0.174813 0.013644
0.233458 0.187635 0.013445
0.260481 0.200456 0.013247
0.294830 0.219102 0.012897
0.336505 0.243573 0.012395
0.378181 0.268044 0.011894
0.419856 0.292515 0.011393
0.461532 0.316986 0.010891
0.505310 0.344852 0.010579
0.553292 0.379507 0.010644
0.601275 0.414163 0.010709
0.649258 0.448819 0.010774
0.697240 0.483474 0.010840
0.743681 0.518030 0.011274
0.782410 0.552089 0.013554
0.821139 0.586147 0.015834
0.859868 0.620205 0.018114
0.898597 0.654264 0.020394
0.937326 0.688322 0.022674
0.055497 0.107690 0.010311
0.058846 0.110719 0.010628
0.062195 0.113748 0.010946
0.065543 0.116777 0.011263
0.068892 0.119806 0.011580
0.072240 0.122835 0.011898
0.081883 0.127565 0.012170
0.092783 0.132635 0.012434
0.103684 0.137705 0.012698
0.114585 0.142775 0.012962
0.125486 0.147845 0.013226
0.145702 0.157668 0.013220
0.170576 0.169866 0.013078
0.195451 0.182065 0.012937
0.220325 0.194263 0.012795
0.245199 0.206462 0.012654
0.277622 0.224444 0.012369
0.317593 0.248210 0.011939
0.357564 0.271977 0.011510
0.397535 0.295743 0.011081
0.437506 0.319509 0.010652
0.480263 0.346894 0.010393
0.528591 0.381518 0.010475
0.576920 0.416142 0.010557
0.625249 0.450766 0.010639
0.673578 0.485390 0.010721
0.720815 0.520176 0.011155
0.762596 0.555776 0.013348
0.804377 0.591375 0.015541
0.846157 0.626974 0.017734
0.887938 0.662573 0.019927
0.929718 0.698172 0.022120
0.058328 0.117173 0.009576
0.061400 0.120289 0.009864
0.064473 0.123405 0.010153
0.067546 0.126521 0.010441
0.070619 0.129637 0.010730
0.073692 0.132753 0.011018
0.082214 0.137333 0.011291
0.091826 0.142205 0.011559
0.101437 0.147078 0.011828
0.111049 0.151950 0.012097
0.120660 0.156822 0.012366
0.139015 0.166164 0.012399
0.161740 0.177740 0.012314
0.184466 0.189316 0.012230
0.207192 0.200892 0.012145
0.229918 0.212468 0.012061
0.260414 0.229787 0.011840
0.298680 0.252848 0.011484
0.336947 0.275909 0.011127
0.375213 0.298970 0.010770
0.413480 0.322031 0.010413
0.455216 0.348936 0.010208
0.503891 0.383529 0.010307
0.552566 0.418121 0.010406
0.601241 0.452713 0.010504
0.649916 0.487306 0.010603
0.697950 0.522322 0.011036
0.742782 0.559463 0.013142
0.787614 0.596603 0.015248
0.832447 0.633743 0.017354
0.877279 0.670883 0.019460
0.922111 0.708023 0.021567
0.061158 0.126655 0.008841
0.063955 0.129858 0.009100
0.066752 0.133061 0.009360
0.069550 0.136265 0.009620
0.072347 0.139468 0.009880
0.075144 0.142671 0.010139
0.082546 0.147101 0.010411
0.090868 0.151775 0.010684
0.099190 0.156450 0.010958
0.107513 0.161125 0.011231
0.115835 0.165800 0.011505
0.132327 0.174660 0.011578
0.152905 0.185614 0.011550
0.173482 0.196567 0.011523
0.194059 0.207521 0.011495
0.214636 0.218474 0.011468
0.243206 0.235129 0.011312
0.279768 0.257486 0.011028
0.316330 0.279842 0.010743
0.352892 0.302198 0.010459
0.389454 0.324554 0.010174
0.430169 0.350979 0.010023
0.479190 0.385539 0.010139
0.528211 0.420100 0.010254
0.577232 0.454660 0.010369
0.626253 0.489221 0.010485
0.675085 0.524468 0.010917
0.722969 0.563149 0.012936
0.770852 0.601830 0.014956
0.818736 0.640511 0.016975
0.866620 0.679192 0.018994
0.914504 0.717873 0.021013
0.064124 0.136795 0.008089
0.066640 0.140018 0.008319
0.069155 0.143242 0.008549
0.071671 0.146466 0.008779
0.074187 0.149689 0.009008
0.076703 0.152913 0.009238
0.083036 0.157155 0.009504
0.090132 0.161600 0.009777
0.097228 0.166046 0.010051
0.104324 0.170491 0.010324
0.111420 0.174937 0.010597
0.126082 0.183272 0.010704
0.144526 0.193552 0.010729
0.162969 0.203832 0.010753
0.181413 0.214112 0.010778
0.199857 0.224392 0.010802
0.226439 0.240292 0.010708
0.261157 0.261812 0.010494
0.295876 0.283332 0.010281
0.330595 0.304851 0.010068
0.365314 0.326371 0.009854
0.404835 0.352150 0.009754
0.453962 0.386448 0.009882
0.503088 0.420746 0.010009
0.552214 0.455045 0.010137
0.601340 0.489343 0.010264
0.650759 0.524586 0.010685
0.701644 0.564552 0.012577
0.752528 0.604519 0.014468
0.803412 0.644485 0.016359
0.854297 0.684452 0.018250
0.905181 0.724418 0.020141
0.067770 0.150220 0.007256
0.069975 0.153131 0.007450
0.072181 0.156042 0.007644
0.074387 0.158954 0.007838
0.076592 0.161865 0.008033
0.078798 0.164776 0.008227
0.084320 0.168642 0.008465
0.090504 0.172700 0.008712
0.096689 0.176758 0.008959
0.102874 0.180815 0.009206
0.109058 0.184873 0.009453
0.122044 0.192460 0.009570
0.138431 0.201812 0.009620
0.154817 0.211165 0.009671
0.171204 0.220517 0.009722
0.187590 0.229869 0.009773
0.211875 0.244558 0.009724
0.244057 0.264583 0.009574
0.276240 0.284608 0.009425
0.308422 0.304634 0.009276
0.340605 0.324659 0.009127
0.378069 0.348969 0.009066
0.426095 0.381851 0.009182
