assets/luts/darjeeling-01-b068203a.cube
# Enhanced with VOXCOLOR algorithms
LUT_3D_SIZE 5
DOMAIN_MIN 0.000000 0.000000 0.000000
DOMAIN_MAX 0.903226 0.903226 0.903226
0.015686 0.015686 0.015686
0.144558 0.015211 0.020783
0.421656 0.008278 0.016380
0.697238 0.001911 0.006403
0.840597 0.000129 0.000771
0.023668 0.025374 0.018058
0.149356 0.031697 0.020210
0.433804 0.052408 0.014977
0.724586 0.092665 0.006067
0.869055 0.129710 0.003110
0.034408 0.046859 0.016061
0.118844 0.064316 0.018252
0.352941 0.122551 0.015334
0.664295 0.245936 0.008670
0.882120 0.386822 0.009951
0.049837 0.088726 0.011781
0.094699 0.113495 0.014185
0.246591 0.181006 0.014095
0.530356 0.342810 0.010764
0.837901 0.580919 0.016127
0.071415 0.163646 0.006422
0.090876 0.183800 0.007647
0.160994 0.226921 0.008666
0.351302 0.345789 0.008378
0.700257 0.584500 0.011543
0.020916 0.019956 0.021680
0.141526 0.020137 0.027667
0.419893 0.013800 0.023953
0.714899 0.010085 0.015159
0.860764 0.020180 0.012664
0.037103 0.040775 0.025316
0.206353 0.057687 0.033913
0.496390 0.077913 0.031863
0.764210 0.110068 0.025240
0.887649 0.149646 0.024410
0.077930 0.109913 0.028834
0.265826 0.155329 0.039170
0.523535 0.211783 0.039078
0.770109 0.298543 0.036852
0.911738 0.394148 0.045579
0.151129 0.244736 0.031575
0.326811 0.307501 0.040329
0.524534 0.377648 0.044180
0.735786 0.487329 0.049718
0.909877 0.630309 0.072287
0.229289 0.403069 0.035255
0.371253 0.460645 0.041558
0.513061 0.518966 0.051834
0.670322 0.597208 0.063645
0.858222 0.721895 0.082636
0.028450 0.024901 0.032186
0.143504 0.024080 0.038248
0.422439 0.020996 0.041383
0.726693 0.028052 0.047572
0.874281 0.059168 0.067060
0.058213 0.060740 0.044589
0.267867 0.086029 0.065065
0.552833 0.111159 0.072713
0.794505 0.151943 0.080283
0.904663 0.213430 0.101044
0.145880 0.187796 0.072291
0.403811 0.248367 0.097892
0.654936 0.302220 0.109699
0.841361 0.371822 0.125860
0.934785 0.454561 0.162767
0.295087 0.416128 0.103490
0.535338 0.483112 0.125749
0.726180 0.540186 0.146603
0.863483 0.610005 0.178020
0.951138 0.695584 0.234738
0.442972 0.643981 0.135777
0.623033 0.680133 0.152257
0.762202 0.721900 0.189572
0.862070 0.767018 0.231532
0.942694 0.822643 0.267693
0.034467 0.026897 0.050113
0.146538 0.026006 0.057176
0.423556 0.028988 0.077265
0.728878 0.053604 0.123541
0.876632 0.111328 0.196257
0.081979 0.079304 0.087834
0.313955 0.106791 0.126674
0.587125 0.140616 0.153231
0.808372 0.202438 0.195161
0.911727 0.294594 0.262018
0.214559 0.252167 0.170865
0.488011 0.311527 0.218941
0.718429 0.367687 0.253444
0.870867 0.443468 0.303089
0.944092 0.537677 0.380015
0.411950 0.530158 0.255998
0.647435 0.588232 0.298375
0.813291 0.637814 0.347737
0.912918 0.695395 0.414904
0.965089 0.762129 0.503456
0.586764 0.776719 0.319446
0.750964 0.797886 0.348959
0.866022 0.828573 0.423873
0.935138 0.860228 0.503328
0.973139 0.887888 0.553431
0.038249 0.025157 0.083523
0.144420 0.025763 0.091395
0.411761 0.035208 0.137380
0.713557 0.079427 0.248295
0.863483 0.168672 0.399399
0.101636 0.093126 0.167529
0.333376 0.116508 0.228119
0.590659 0.157722 0.275519
0.799129 0.240895 0.362884
0.900717 0.363442 0.487044
0.263885 0.296062 0.338193
0.515119 0.339307 0.403871
0.722557 0.398284 0.456057
0.862385 0.489269 0.531530
0.933210 0.602793 0.630688
0.474133 0.587986 0.496742
0.671170 0.624950 0.544935
0.815153 0.672274 0.607493
0.906488 0.735675 0.685577
0.955692 0.805922 0.766652
0.627288 0.816610 0.563441
0.765225 0.830389 0.600639
0.868054 0.859392 0.690426
0.933887 0.892293 0.780039
0.969285 0.916836 0.827996
