assets/luts/french-dispatch-01-7daf961f.cube
# Enhanced with VOXCOLOR algorithms
LUT_3D_SIZE 8
DOMAIN_MIN 0.000000 0.000000 0.000000
DOMAIN_MAX 0.903226 0.903226 0.903226
0.011765 0.015686 0.027451
0.082306 0.040208 0.036796
0.197908 0.079226 0.043410
0.341540 0.127257 0.046599
0.496012 0.178757 0.046052
0.633500 0.224708 0.041904
0.734227 0.258087 0.037105
0.804748 0.279766 0.033389
0.027906 0.066749 0.059499
0.093121 0.093480 0.061170
0.204489 0.130978 0.058971
0.345160 0.175055 0.054086
0.497777 0.221430 0.047657
0.633082 0.262849 0.041126
0.729561 0.293887 0.036157
0.795069 0.315848 0.032938
0.047783 0.133576 0.102029
0.105693 0.159770 0.094922
0.210236 0.195386 0.082472
0.345969 0.236784 0.068006
0.496324 0.280238 0.054348
0.631551 0.319455 0.044557
0.727723 0.349923 0.039094
0.792509 0.373106 0.036499
0.069233 0.212456 0.152521
0.118809 0.236390 0.136827
0.214140 0.269864 0.113715
0.342740 0.309523 0.088783
0.490091 0.351880 0.066703
0.627304 0.390996 0.052486
0.727095 0.422362 0.045824
0.795155 0.447381 0.043701
0.090416 0.298933 0.207694
0.131373 0.319702 0.184801
0.215320 0.350795 0.151673
0.334395 0.389287 0.116151
0.477551 0.431930 0.084814
0.618495 0.472787 0.064929
0.725637 0.506281 0.056101
0.800627 0.533453 0.054001
0.109378 0.384073 0.259922
0.141831 0.401137 0.233188
0.212133 0.429288 0.192812
0.318471 0.466519 0.148415
0.454715 0.510163 0.108228
0.599887 0.554456 0.081867
0.717917 0.591474 0.069731
0.803597 0.620805 0.066476
0.124254 0.455344 0.298139
0.148523 0.468575 0.271675
0.204155 0.492967 0.228459
0.295188 0.527897 0.178990
0.420760 0.571757 0.132492
0.567737 0.619876 0.100487
0.697700 0.661789 0.084674
0.796691 0.694065 0.078834
0.133448 0.509567 0.319034
0.150278 0.519347 0.296468
0.191523 0.539455 0.254735
0.266023 0.570900 0.204316
0.377777 0.613481 0.154704
0.522934 0.664606 0.118548
0.663790 0.712348 0.099081
0.777520 0.749769 0.089445
0.014656 0.050578 0.126985
0.082454 0.069299 0.119247
0.197527 0.098613 0.110083
0.343573 0.135517 0.099838
0.503334 0.176639 0.089122
0.646307 0.215670 0.079957
0.749107 0.246592 0.074649
0.819694 0.269793 0.073344
0.029729 0.101107 0.135637
0.096340 0.123888 0.132889
0.209328 0.155212 0.125373
0.352594 0.192377 0.114977
0.509054 0.232394 0.103544
0.648295 0.269594 0.093842
0.747005 0.299083 0.087832
0.813521 0.322009 0.085062
0.046673 0.164638 0.161840
0.110872 0.190096 0.159508
0.219813 0.222907 0.149530
0.358722 0.260498 0.135506
0.511555 0.300070 0.120691
0.648718 0.336334 0.109132
0.746308 0.365256 0.102546
0.812093 0.388515 0.099650
0.064852 0.238755 0.201482
0.125420 0.265297 0.196696
0.228139 0.298878 0.181553
0.360857 0.337016 0.161437
0.509587 0.376992 0.141124
0.646522 0.413596 0.126373
0.746150 0.442936 0.118913
0.814345 0.466895 0.116529
0.083577 0.320079 0.249974
0.139285 0.345973 0.241406
0.233463 0.379398 0.219775
0.357900 0.418061 0.192181
0.501753 0.459313 0.164925
0.640229 0.497757 0.145773
0.745087 0.528613 0.136819
0.818652 0.553483 0.134903
0.101560 0.400592 0.299557
0.150827 0.423714 0.287543
0.233611 0.455428 0.260054
0.346753 0.493948 0.225409
0.483650 0.536897 0.191100
0.624579 0.578810 0.166842
0.738079 0.612733 0.155466
0.820435 0.638809 0.152864
0.116937 0.468172 0.338584
0.158435 0.487248 0.324915
0.227762 0.515658 0.294174
0.326706 0.552501 0.255060
0.453220 0.596068 0.215588
0.594771 0.641706 0.186786
0.718370 0.680177 0.172307
0.812462 0.708827 0.167111
0.128602 0.519530 0.363037
0.161803 0.534536 0.349947
0.216849 0.558799 0.318867
0.299626 0.592483 0.278174
0.412336 0.634855 0.235809
0.550958 0.683087 0.203335
0.683902 0.726923 0.185229
0.791692 0.760560 0.175673
0.016190 0.078926 0.229996
0.081797 0.091449 0.213618
0.197443 0.112198 0.193756
0.346737 0.139318 0.171182
0.511846 0.170596 0.147339
0.659812 0.201717 0.127133
0.764573 0.228132 0.115768
0.835289 0.250198 0.112713
0.030022 0.132698 0.224625
0.098214 0.152181 0.221009
0.213547 0.177649 0.210344
0.359973 0.207602 0.194494
0.520239 0.240198 0.175686
0.662889 0.271489 0.158562
0.763525 0.297672 0.147948
0.830998 0.319736 0.143576
0.044410 0.198597 0.238765
0.114132 0.223205 0.241457
0.227808 0.252418 0.234811
0.370520 0.284837 0.221679
0.526148 0.318758 0.205045
0.665003 0.350349 0.189774
0.763659 0.376458 0.180382
0.830257 0.398629 0.176551
0.059688 0.273799 0.267909
0.129491 0.301342 0.272507
0.239681 0.333132 0.266103
0.377408 0.367712 0.252516
0.528377 0.403318 0.235519
0.665163 0.435926 0.220653
0.764285 0.462472 0.212275
0.832320 0.484800 0.209774
0.075926 0.354630 0.307307
0.144031 0.382698 0.311166
0.248525 0.415720 0.302555
0.379601 0.452116 0.286232
0.525551 0.489941 0.266794
0.661964 0.524692 0.250810
0.764169 0.552500 0.242696
0.835934 0.575056 0.241345
0.092405 0.432636 0.350177
0.156310 0.458417 0.351896
0.252132 0.490738 0.340021
0.373936 0.528061 0.319923
0.513383 0.568333 0.296810
0.650510 0.606627 0.278329
0.758819 0.637129 0.269154
0.837242 0.660330 0.267468
0.107346 0.496643 0.385902
0.164822 0.518498 0.385506
0.249402 0.548315 0.371101
0.359019 0.584925 0.348064
0.488998 0.626515 0.321728
0.625521 0.668529 0.300364
0.741522 0.703153 0.288908
0.829553 0.728577 0.284733
0.119815 0.544446 0.410317
0.169607 0.562259 0.408745
0.241317 0.588589 0.393127
0.336248 0.622857 0.368413
0.453298 0.663836 0.339695
0.586057 0.708374 0.315383
0.709413 0.747881 0.300688
0.809403 0.777938 0.292201
0.016400 0.101414 0.327519
0.080487 0.108745 0.311004
0.197504 0.123391 0.287410
0.350581 0.143648 0.256749
0.521077 0.167614 0.220545
0.673694 0.192079 0.186229
0.780210 0.213818 0.164571
0.850864 0.233452 0.155829
0.029208 0.161465 0.318188
0.099080 0.178731 0.317261
0.217083 0.199605 0.306659
0.366916 0.223439 0.287208
0.530950 0.249262 0.260825
0.676692 0.274575 0.233604
0.778960 0.296742 0.215085
0.847169 0.316645 0.206369
0.041682 0.233716 0.325977
0.115943 0.257499 0.333711
0.234104 0.283078 0.331198
0.380737 0.310131 0.319633
0.539339 0.337986 0.301016
0.679851 0.364271 0.280398
0.779344 0.386816 0.266050
0.846539 0.406883 0.259529
0.054703 0.313955 0.346837
0.131615 0.341127 0.358601
0.248493 0.369937 0.360451
0.391326 0.399895 0.353793
0.545064 0.430167 0.340639
0.682055 0.458004 0.325372
0.780601 0.481210 0.315109
0.848313 0.501337 0.311507
0.068783 0.397418 0.376639
0.146322 0.425188 0.389679
0.259996 0.455797 0.393229
0.397872 0.488323 0.388920
0.546818 0.521486 0.378845
0.681894 0.551776 0.367129
0.781552 0.576234 0.359941
0.851432 0.596391 0.358738
0.083568 0.474407 0.410012
0.158986 0.500085 0.422488
0.266765 0.530769 0.425817
0.397630 0.565130 0.421728
0.540882 0.601414 0.412362
0.675173 0.635315 0.401849
0.778419 0.662186 0.395710
0.852783 0.682740 0.394909
0.097359 0.535178 0.438657
0.168219 0.557339 0.449655
0.267564 0.586528 0.452063
0.388846 0.621303 0.447364
0.524050 0.659736 0.437501
0.656672 0.697402 0.426501
0.764973 0.727928 0.419461
0.846478 0.750346 0.416726
0.109235 0.579521 0.459171
0.174057 0.598067 0.468673
0.262990 0.624745 0.470089
0.372049 0.658302 0.464464
0.496012 0.697035 0.453414
0.624377 0.737382 0.440777
0.737740 0.772284 0.431448
0.828889 0.798797 0.425116
0.015432 0.118842 0.412459
0.078694 0.123041 0.403511
0.197556 0.134933 0.384058
0.354631 0.152302 0.351879
0.530463 0.172937 0.307386
0.687470 0.193787 0.259025
0.795461 0.212314 0.224565
0.865700 0.229441 0.206762
0.027603 0.187106 0.408630
0.099166 0.203656 0.413675
0.219813 0.221970 0.406990
0.373004 0.241901 0.387272
0.540743 0.263016 0.355209
0.689430 0.283700 0.317117
0.793045 0.302160 0.288113
0.861634 0.319197 0.272007
0.038977 0.267965 0.416417
0.116661 0.291223 0.429073
0.238569 0.313876 0.431466
0.388798 0.336434 0.422430
0.550421 0.359034 0.402329
0.692732 0.380421 0.375373
0.792945 0.399227 0.353850
0.860489 0.416423 0.342092
0.050646 0.355412 0.432650
0.132329 0.381239 0.449020
0.254402 0.406636 0.457714
0.401743 0.431869 0.457375
0.558464 0.456841 0.447836
0.696195 0.479860 0.431453
0.794336 0.499472 0.417748
0.861666 0.516894 0.411143
0.063276 0.443264 0.454173
0.146903 0.468850 0.472328
0.267608 0.495819 0.485312
0.411445 0.523728 0.491570
0.563776 0.551801 0.490472
0.698483 0.577399 0.482921
0.796117 0.598349 0.475952
0.864282 0.615969 0.473744
0.076554 0.520202 0.476833
0.159704 0.543698 0.495688
0.276965 0.571243 0.511207
0.415953 0.601620 0.521632
0.563574 0.633276 0.525963
0.696376 0.662484 0.524091
0.795383 0.685645 0.521153
0.866007 0.703643 0.520861
0.088770 0.578250 0.495443
0.169404 0.598874 0.514118
0.281236 0.626008 0.530869
0.413502 0.657919 0.543558
0.554824 0.692534 0.550757
0.685202 0.725551 0.551578
0.786715 0.751896 0.549903
0.861907 0.771380 0.548959
0.098998 0.619793 0.508388
0.175849 0.637444 0.526434
0.280466 0.663196 0.543493
0.403733 0.695160 0.556995
0.536181 0.731149 0.565115
0.662172 0.767132 0.566435
0.766343 0.797332 0.564163
0.848464 0.820221 0.561046
0.013715 0.131870 0.477130
0.076664 0.135916 0.480419
0.197316 0.148921 0.472460
0.358016 0.168051 0.447635
0.538700 0.190555 0.403900
0.699641 0.212819 0.347706
0.808682 0.231717 0.302006
0.878191 0.247830 0.273328
0.025130 0.207392 0.484245
0.098259 0.225762 0.497700
0.221072 0.244662 0.499189
0.377161 0.264282 0.484613
0.548385 0.284490 0.452547
0.699956 0.303885 0.407198
0.804578 0.320638 0.367632
0.873043 0.335205 0.341403
0.036360 0.296452 0.497689
0.116179 0.320581 0.515280
0.240497 0.342393 0.523617
0.393431 0.362959 0.519024
0.557915 0.382923 0.499836
0.702378 0.401525 0.467836
0.803300 0.417611 0.437864
0.870826 0.431838 0.417687
0.048184 0.391179 0.514611
0.132009 0.415774 0.533263
0.256840 0.438736 0.546807
0.407148 0.460732 0.551497
0.566602 0.482053 0.545080
0.705874 0.501521 0.527051
0.804118 0.518013 0.507999
0.871060 0.532505 0.495307
0.060955 0.483878 0.532272
0.146808 0.506417 0.551229
0.270967 0.529802 0.569100
0.418465 0.553731 0.582013
0.573749 0.577611 0.587154
0.709365 0.599238 0.582088
0.806132 0.616902 0.573433
0.873066 0.631817 0.567797
0.073799 0.561485 0.546572
0.160039 0.581617 0.566335
0.282298 0.605578 0.587968
0.426408 0.632050 0.607474
0.577733 0.659478 0.621600
0.710783 0.684449 0.626463
0.807405 0.704084 0.625512
0.875278 0.719455 0.624439
0.084685 0.617570 0.554889
0.170186 0.635618 0.575583
0.289616 0.660124 0.600277
0.429521 0.688997 0.624649
0.576187 0.719943 0.644972
0.706434 0.748685 0.656242
0.803585 0.771098 0.659759
0.873798 0.787622 0.660465
0.092811 0.657229 0.557950
0.176887 0.673153 0.579414
0.292472 0.697483 0.606370
0.426809 0.727678 0.634048
0.567192 0.761044 0.658247
0.693298 0.793069 0.673170
0.791064 0.818881 0.678878
0.865542 0.838080 0.679771
0.011909 0.142313 0.525394
0.074792 0.148054 0.539187
0.196964 0.163997 0.544009
0.360667 0.187145 0.531441
0.545362 0.214482 0.496869
0.709260 0.241702 0.442469
0.818412 0.263845 0.391507
0.886767 0.280122 0.353565
0.021706 0.220630 0.540381
0.096288 0.243188 0.562075
0.220700 0.265092 0.573270
0.379057 0.287068 0.567784
0.553342 0.309362 0.542169
0.707560 0.330553 0.496751
0.812683 0.347891 0.450607
0.880433 0.360922 0.414488
0.033308 0.314894 0.560186
0.114520 0.342026 0.582753
0.240061 0.365370 0.597639
0.394686 0.386524 0.599454
0.561606 0.406550 0.584794
0.708440 0.424871 0.551902
0.810046 0.439937 0.515231
0.877075 0.451843 0.485532
0.046679 0.415325 0.581103
0.131102 0.440147 0.601434
0.256640 0.462575 0.618774
0.408226 0.483493 0.627901
0.569702 0.503382 0.625004
0.711028 0.521214 0.606357
0.809898 0.535764 0.581652
0.876334 0.547703 0.560771
0.061402 0.512625 0.599740
0.147055 0.532743 0.617818
0.271589 0.553750 0.637543
0.420188 0.575252 0.653817
0.577237 0.596607 0.662461
0.714503 0.615678 0.658146
0.811563 0.630844 0.645971
0.877713 0.643221 0.634364
0.075516 0.591901 0.610955
0.161610 0.608639 0.628792
0.284735 0.629541 0.651687
0.430428 0.653030 0.674722
0.583653 0.677378 0.693508
0.717865 0.699196 0.701600
0.813989 0.715928 0.700251
0.880293 0.728776 0.696164
0.086170 0.647054 0.612891
0.172692 0.662322 0.631950
0.294730 0.684388 0.658563
0.437872 0.710747 0.687727
0.587455 0.738813 0.714754
0.718615 0.764199 0.732333
0.814050 0.783329 0.738969
0.881235 0.797071 0.739839
0.092698 0.684902 0.607581
0.179674 0.699242 0.628531
0.300667 0.722487 0.658939
0.441099 0.751438 0.693457
0.586563 0.782890 0.726995
0.714007 0.811871 0.751568
0.808756 0.834066 0.763981
0.878210 0.849838 0.768275
0.009718 0.151056 0.563718
0.073139 0.158533 0.585196
0.197070 0.177314 0.600913
0.363579 0.204646 0.601010
0.551611 0.237497 0.579044
0.717224 0.270800 0.532459
0.825034 0.296939 0.481358
0.891252 0.313153 0.437070
0.017294 0.227597 0.582145
0.093469 0.255308 0.610821
0.219286 0.281030 0.631064
0.379533 0.306220 0.635684
0.556437 0.331649 0.619817
0.712844 0.355925 0.579590
0.817834 0.374943 0.531279
0.884158 0.386922 0.487655
0.029485 0.324241 0.606687
0.111985 0.355775 0.633893
0.238203 0.381899 0.655121
0.393845 0.404806 0.664117
0.562658 0.426049 0.656255
0.711722 0.445345 0.626145
0.813877 0.460562 0.585764
0.879908 0.470891 0.547788
0.045296 0.429114 0.632245
0.129904 0.455474 0.654266
0.255164 0.478614 0.675034
0.406907 0.499622 0.688518
0.569531 0.519185 0.689820
0.712829 0.536534 0.672173
0.812569 0.550257 0.643022
0.878292 0.560418 0.613821
0.063354 0.531101 0.654288
0.147849 0.549554 0.671376
0.271138 0.569061 0.691962
0.419099 0.589079 0.710273
0.576571 0.608882 0.721227
0.715366 0.626451 0.717084
0.813361 0.640150 0.700781
0.878998 0.650730 0.681795
0.080281 0.613381 0.666464
0.164527 0.626733 0.681777
0.286066 0.644867 0.704003
0.430825 0.665899 0.727812
0.584022 0.687888 0.748198
0.719208 0.707463 0.756992
0.815955 0.722206 0.753276
0.881651 0.733241 0.744060
0.091729 0.668773 0.666321
0.176970 0.680994 0.682736
0.298376 0.700551 0.708449
0.441456 0.724567 0.738356
0.591439 0.750188 0.767470
0.723276 0.772943 0.787459
0.818653 0.789581 0.794646
0.884547 0.801202 0.793619
0.097097 0.704339 0.655702
0.184164 0.717284 0.675097
0.306715 0.739566 0.705499
0.449373 0.767487 0.741800
0.597011 0.797451 0.778938
0.725639 0.824133 0.808553
0.819626 0.843536 0.825267
0.886535 0.856487 0.831617
