assets/luts/french-dispatch-01-7daf961f.cube
# Enhanced with VOXCOLOR algorithms
LUT_3D_SIZE 32
0.011765 0.015686 0.027451
0.029400 0.021816 0.029787
0.047035 0.027947 0.032123
0.064670 0.034077 0.034459
0.082306 0.040208 0.036796
0.099941 0.046338 0.039132
0.130829 0.056732 0.040665
0.164369 0.067979 0.042038
0.197908 0.079226 0.043410
0.231447 0.090472 0.044783
0.264986 0.101719 0.046155
0.302316 0.114183 0.046608
0.341540 0.127257 0.046599
0.380765 0.140330 0.046591
0.419989 0.153403 0.046583
0.459214 0.166476 0.046575
0.496012 0.178757 0.046052
0.530384 0.190245 0.045015
0.564756 0.201732 0.043978
0.599128 0.213220 0.042941
0.633500 0.224708 0.041904
0.664196 0.234938 0.040802
0.687540 0.242655 0.039570
0.710883 0.250371 0.038337
0.734227 0.258087 0.037105
0.757570 0.265804 0.035872
0.779156 0.272813 0.034733
0.791952 0.276290 0.034061
0.804748 0.279766 0.033389
0.817544 0.283243 0.032717
0.830341 0.286719 0.032045
0.843137 0.290196 0.031373
0.015800 0.028452 0.035463
0.033103 0.034720 0.037319
0.050405 0.040989 0.039176
0.067707 0.047257 0.041033
0.085010 0.053526 0.042889
0.102312 0.059794 0.044746
0.132948 0.070052 0.045716
0.166250 0.081108 0.046508
0.199553 0.092164 0.047300
0.232856 0.103219 0.048093
0.266158 0.114275 0.048885
0.303334 0.126459 0.048878
0.342445 0.139206 0.048471
0.381557 0.151954 0.048064
0.420668 0.164702 0.047657
0.459780 0.177449 0.047250
0.496453 0.189425 0.046454
0.530689 0.200630 0.045268
0.564924 0.211834 0.044082
0.599160 0.223039 0.042896
0.633396 0.234243 0.041710
0.663903 0.244245 0.040514
0.686956 0.251842 0.039299
0.710008 0.259440 0.038083
0.733060 0.267037 0.036868
0.756113 0.274635 0.035652
0.777400 0.281567 0.034534
0.789864 0.285177 0.033905
0.802328 0.288787 0.033276
0.814792 0.292396 0.032647
0.827257 0.296006 0.032018
0.839721 0.299616 0.031389
0.019836 0.041218 0.043475
0.036805 0.047624 0.044852
0.053775 0.054031 0.046229
0.070744 0.060437 0.047606
0.087713 0.066844 0.048983
0.104683 0.073250 0.050360
0.135066 0.083372 0.050766
0.168132 0.094237 0.050978
0.201198 0.105102 0.051191
0.234265 0.115966 0.051403
0.267331 0.126831 0.051615
0.304352 0.138734 0.051149
0.343350 0.151156 0.050343
0.382349 0.163578 0.049537
0.421347 0.176000 0.048731
0.460346 0.188422 0.047925
0.496894 0.200093 0.046855
0.530994 0.211015 0.045520
0.565093 0.221936 0.044185
0.599192 0.232857 0.042850
0.633291 0.243778 0.041515
0.663611 0.253552 0.040226
0.686372 0.261030 0.039027
0.709133 0.268509 0.037829
0.731894 0.275987 0.036631
0.754655 0.283466 0.035432
0.775645 0.290321 0.034336
0.787777 0.294064 0.033750
0.799909 0.297807 0.033164
0.812041 0.301550 0.032578
0.824172 0.305293 0.031992
0.836304 0.309036 0.031406
0.023871 0.053984 0.051487
0.040508 0.060528 0.052384
0.057144 0.067073 0.053282
0.073781 0.073617 0.054179
0.090417 0.080162 0.055076
0.107054 0.086707 0.055974
0.137185 0.096692 0.055817
0.170014 0.107366 0.055449
0.202844 0.118040 0.055081
0.235673 0.128713 0.054713
0.268503 0.139387 0.054345
0.305370 0.151009 0.053419
0.344255 0.163106 0.052214
0.383141 0.175202 0.051010
0.422026 0.187298 0.049805
0.460912 0.199394 0.048600
0.497336 0.210762 0.047256
0.531298 0.221400 0.045772
0.565261 0.232038 0.044288
0.599224 0.242676 0.042805
0.633186 0.253314 0.041321
0.663318 0.262859 0.039938
0.685788 0.270218 0.038756
0.708258 0.277578 0.037575
0.730728 0.284937 0.036394
0.753198 0.292296 0.035212
0.773889 0.299075 0.034137
0.785689 0.302951 0.033594
0.797489 0.306827 0.033051
0.809289 0.310703 0.032508
0.821088 0.314579 0.031965
0.832888 0.318455 0.031422
0.027906 0.066749 0.059499
0.044210 0.073432 0.059917
0.060514 0.080115 0.060334
0.076818 0.086797 0.060752
0.093121 0.093480 0.061170
0.109425 0.100163 0.061588
0.139303 0.110012 0.060867
0.171896 0.120495 0.059919
0.204489 0.130978 0.058971
0.237082 0.141460 0.058023
0.269675 0.151943 0.057075
0.306388 0.163285 0.055690
0.345160 0.175055 0.054086
0.383933 0.186826 0.052482
0.422705 0.198597 0.050879
0.461477 0.210367 0.049275
0.497777 0.221430 0.047657
0.531603 0.231785 0.046024
0.565429 0.242140 0.044392
0.599255 0.252494 0.042759
0.633082 0.262849 0.041126
0.663025 0.272166 0.039650
0.685204 0.279406 0.038485
0.707383 0.286647 0.037321
0.729561 0.293887 0.036157
0.751740 0.301127 0.034992
0.772134 0.307829 0.033939
0.783601 0.311838 0.033439
0.795069 0.315848 0.032938
0.806537 0.319857 0.032438
0.818004 0.323866 0.031938
0.829472 0.327875 0.031438
0.031941 0.079515 0.067511
0.047912 0.086336 0.067449
0.063883 0.093157 0.067387
0.079854 0.099977 0.067325
0.095825 0.106798 0.067264
0.111796 0.113619 0.067202
0.141422 0.123332 0.065918
0.173778 0.133624 0.064390
0.206135 0.143916 0.062861
0.238491 0.154207 0.061333
0.270847 0.164499 0.059805
0.307406 0.175560 0.057960
0.346065 0.187005 0.055958
0.384725 0.198450 0.053955
0.423384 0.209895 0.051953
0.462043 0.221340 0.049950
0.498218 0.232098 0.048058
0.531908 0.242170 0.046276
0.565597 0.252241 0.044495
0.599287 0.262313 0.042713
0.632977 0.272385 0.040932
0.662732 0.281473 0.039362
0.684620 0.288594 0.038214
0.706508 0.295716 0.037067
0.728395 0.302837 0.035920
0.750283 0.309958 0.034772
0.770378 0.316583 0.033740
0.781514 0.320725 0.033283
0.792649 0.324868 0.032826
0.803785 0.329010 0.032369
0.814920 0.333153 0.031911
0.826055 0.337295 0.031454
0.037075 0.096917 0.078606
0.052568 0.103674 0.077983
0.068061 0.110431 0.077361
0.083553 0.117188 0.076738
0.099046 0.123945 0.076115
0.114538 0.130702 0.075493
0.143713 0.140283 0.073535
0.175624 0.150430 0.071311
0.207534 0.160576 0.069087
0.239445 0.170723 0.066863
0.271356 0.180869 0.064639
0.307653 0.191771 0.062227
0.346143 0.203052 0.059721
0.384633 0.214332 0.057216
0.423123 0.225612 0.054711
0.461614 0.236892 0.052205
0.497713 0.247512 0.049955
0.531421 0.257472 0.047960
0.565129 0.267431 0.045965
0.598837 0.277391 0.043970
0.632545 0.287351 0.041975
0.662321 0.296365 0.040263
0.684234 0.303490 0.039117
0.706147 0.310614 0.037971
0.728060 0.317739 0.036825
0.749973 0.324863 0.035680
0.770087 0.331517 0.034661
0.781205 0.335817 0.034277
0.792323 0.340117 0.033893
0.803441 0.344417 0.033509
0.814560 0.348717 0.033125
0.825678 0.353017 0.032741
0.042429 0.115247 0.090318
0.057414 0.121899 0.089118
0.072399 0.128552 0.087918
0.087384 0.135205 0.086718
0.102370 0.141857 0.085518
0.117355 0.148510 0.084319
0.146038 0.157961 0.081666
0.177462 0.167971 0.078723
0.208885 0.177981 0.075780
0.240309 0.187991 0.072836
0.271732 0.198001 0.069893
0.307746 0.208770 0.066893
0.346056 0.219918 0.063864
0.384366 0.231065 0.060835
0.422675 0.242213 0.057806
0.460985 0.253360 0.054776
0.497018 0.263875 0.052151
0.530776 0.273757 0.049930
0.564533 0.283639 0.047709
0.598290 0.293521 0.045487
0.632048 0.303403 0.043266
0.661887 0.312375 0.041402
0.683888 0.319527 0.040255
0.705890 0.326679 0.039107
0.727892 0.333831 0.037960
0.749894 0.340983 0.036812
0.770089 0.347686 0.035805
0.781253 0.352149 0.035501
0.792416 0.356612 0.035196
0.803580 0.361074 0.034891
0.814744 0.365537 0.034587
0.825908 0.370000 0.034282
0.047783 0.133576 0.102029
0.062261 0.140124 0.100252
0.076738 0.146673 0.098476
0.091216 0.153221 0.096699
0.105693 0.159770 0.094922
0.120171 0.166318 0.093145
0.148364 0.175638 0.089797
0.179300 0.185512 0.086134
0.210236 0.195386 0.082472
0.241172 0.205260 0.078810
0.272108 0.215134 0.075148
0.307840 0.225769 0.071559
0.345969 0.236784 0.068006
0.384098 0.247799 0.064453
0.422227 0.258814 0.060900
0.460356 0.269828 0.057348
0.496324 0.280238 0.054348
0.530130 0.290042 0.051900
0.563937 0.299846 0.049452
0.597744 0.309651 0.047004
0.631551 0.319455 0.044557
0.661452 0.328384 0.042542
0.683542 0.335564 0.041393
0.705633 0.342743 0.040243
0.727723 0.349923 0.039094
0.749814 0.357102 0.037945
0.770091 0.363856 0.036950
0.781300 0.368481 0.036724
0.792509 0.373106 0.036499
0.803719 0.377732 0.036274
0.814928 0.382357 0.036048
0.826137 0.386982 0.035823
0.053137 0.151905 0.113741
0.067107 0.158349 0.111387
0.081077 0.164794 0.109033
0.095047 0.171238 0.106679
0.109017 0.177682 0.104325
0.122987 0.184127 0.101971
0.150690 0.193315 0.097927
0.181138 0.203053 0.093546
0.211587 0.212791 0.089165
0.242036 0.222529 0.084784
0.272485 0.232266 0.080403
0.307933 0.242767 0.076225
0.345881 0.253650 0.072148
0.383830 0.264532 0.068072
0.421778 0.275414 0.063995
0.459727 0.286297 0.059919
0.495629 0.296601 0.056544
0.529485 0.306328 0.053870
0.563341 0.316054 0.051196
0.597197 0.325781 0.048522
0.631053 0.335507 0.045848
0.661017 0.344394 0.043681
0.683196 0.351601 0.042530
0.705376 0.358808 0.041380
0.727555 0.366015 0.040229
0.749734 0.373222 0.039078
0.770093 0.380026 0.038094
0.781348 0.384813 0.037948
0.792603 0.389601 0.037802
0.803857 0.394389 0.037656
0.815112 0.399177 0.037510
0.826367 0.403965 0.037364
0.058490 0.170234 0.125453
0.071953 0.176574 0.122522
0.085416 0.182915 0.119590
0.098878 0.189255 0.116659
0.112341 0.195595 0.113728
0.125804 0.201935 0.110797
0.153015 0.210993 0.106058
0.182977 0.220594 0.100958
0.212938 0.230196 0.095858
0.242899 0.239797 0.090758
0.272861 0.249399 0.085657
0.308026 0.259766 0.080891
0.345794 0.270516 0.076291
0.383562 0.281265 0.071690
0.421330 0.292015 0.067090
0.459098 0.302765 0.062490
0.494934 0.312964 0.058740
0.528840 0.322613 0.055840
0.562745 0.332262 0.052939
0.596651 0.341910 0.050039
0.630556 0.351559 0.047139
0.660582 0.360403 0.044821
0.682850 0.367638 0.043668
0.705118 0.374872 0.042516
0.727386 0.382107 0.041363
0.749654 0.389341 0.040210
0.770094 0.396195 0.039239
0.781395 0.401146 0.039172
0.792696 0.406096 0.039105
0.803996 0.411046 0.039038
0.815297 0.415997 0.038971
0.826597 0.420947 0.038904
0.063858 0.190789 0.138623
0.076792 0.196965 0.135179
0.089726 0.203142 0.131735
0.102659 0.209319 0.128292
0.115593 0.215496 0.124848
0.128527 0.221672 0.121405
0.155096 0.230597 0.115980
0.184393 0.240070 0.110160
0.213689 0.249544 0.104339
0.242985 0.259018 0.098519
0.272282 0.268492 0.092698
0.307050 0.278786 0.087301
0.344555 0.289492 0.082116
0.382059 0.300197 0.076931
0.419564 0.310903 0.071746
0.457069 0.321608 0.066561
0.492858 0.331803 0.062364
0.526933 0.341488 0.059157
0.561007 0.351174 0.055950
0.595081 0.360859 0.052743
0.629156 0.370544 0.049536
0.659408 0.379444 0.046995
0.682018 0.386772 0.045788
0.704627 0.394099 0.044581
0.727236 0.401427 0.043374
0.749845 0.408755 0.042167
0.770611 0.415711 0.041164
0.782154 0.420810 0.041184
0.793698 0.425909 0.041204
0.805242 0.431008 0.041224
0.816786 0.436107 0.041244
0.828329 0.441206 0.041264
0.069233 0.212456 0.152521
0.081627 0.218439 0.148598
0.094021 0.224423 0.144674
0.106415 0.230407 0.140751
0.118809 0.236390 0.136827
0.131203 0.242374 0.132904
0.157055 0.251163 0.126798
0.185597 0.260514 0.120257
0.214140 0.269864 0.113715
0.242683 0.279214 0.107173
0.271225 0.288565 0.100632
0.305540 0.298818 0.094584
0.342740 0.309523 0.088783
0.379940 0.320228 0.082982
0.417139 0.330933 0.077181
0.454339 0.341638 0.071380
0.490091 0.351880 0.066703
0.524394 0.361659 0.063149
0.558697 0.371438 0.059594
0.593000 0.381217 0.056040
0.627304 0.390996 0.052486
0.657865 0.400000 0.049687
0.680942 0.407454 0.048399
0.704018 0.414908 0.047112
0.727095 0.422362 0.045824
0.750172 0.429815 0.044536
0.771384 0.436900 0.043481
0.783270 0.442141 0.043591
0.795155 0.447381 0.043701
0.807041 0.452622 0.043812
0.818927 0.457862 0.043922
0.830813 0.463103 0.044032
0.074608 0.234123 0.166420
0.086463 0.239913 0.162016
0.098317 0.245704 0.157613
0.110171 0.251495 0.153209
0.122026 0.257285 0.148806
0.133880 0.263076 0.144402
0.159013 0.271730 0.137616
0.186802 0.280957 0.130354
0.214591 0.290184 0.123091
0.242380 0.299411 0.115828
0.270169 0.308638 0.108566
0.304029 0.318850 0.101867
0.340924 0.329555 0.095450
0.377820 0.340259 0.089034
0.414715 0.350964 0.082617
0.451610 0.361669 0.076200
0.487324 0.371958 0.071041
0.521856 0.381830 0.067140
0.556388 0.391703 0.063239
0.590920 0.401576 0.059338
0.625452 0.411448 0.055436
0.656321 0.420557 0.052379
0.679865 0.428136 0.051011
0.703410 0.435716 0.049642
0.726954 0.443296 0.048273
0.750499 0.450876 0.046904
0.772157 0.458089 0.045797
0.784385 0.463471 0.045998
0.796613 0.468853 0.046199
0.808840 0.474235 0.046399
0.821068 0.479617 0.046600
0.833296 0.484999 0.046801
0.079983 0.255790 0.180318
0.091298 0.261387 0.175435
0.102613 0.266985 0.170552
0.113927 0.272582 0.165668
0.125242 0.278180 0.160785
0.136556 0.283778 0.155901
0.160972 0.292297 0.148434
0.188007 0.301400 0.140451
0.215042 0.310504 0.132467
0.242077 0.319607 0.124483
0.269113 0.328711 0.116499
0.302518 0.338881 0.109150
0.339109 0.349586 0.102117
0.375700 0.360290 0.095085
0.412290 0.370995 0.088053
0.448881 0.381699 0.081020
0.484557 0.392035 0.075380
0.519317 0.402001 0.071132
0.554078 0.411967 0.066883
0.588839 0.421934 0.062635
0.623600 0.431900 0.058387
0.654777 0.441113 0.055071
0.678789 0.448819 0.053622
0.702801 0.456525 0.052172
0.726813 0.464230 0.050723
0.750825 0.471936 0.049273
0.772930 0.479278 0.048114
0.785500 0.484802 0.048405
0.798070 0.490325 0.048696
0.810640 0.495849 0.048987
0.823209 0.501372 0.049278
0.835779 0.506896 0.049569
0.085358 0.277457 0.194217
0.096133 0.282861 0.188853
0.106908 0.288266 0.183490
0.117683 0.293670 0.178127
0.128458 0.299075 0.172764
0.139233 0.304479 0.167400
0.162930 0.312864 0.159252
0.189212 0.321844 0.150548
0.215493 0.330824 0.141843
0.241775 0.339804 0.133138
0.268056 0.348784 0.124433
0.301008 0.358913 0.116433
0.337294 0.369617 0.108784
0.373580 0.380321 0.101136
0.409866 0.391026 0.093488
0.446152 0.401730 0.085840
0.481790 0.412112 0.079718
0.516779 0.422172 0.075123
0.551768 0.432232 0.070528
0.586758 0.442292 0.065932
0.621747 0.452352 0.061337
0.653234 0.461669 0.057763
0.677713 0.469501 0.056233
0.702193 0.477333 0.054703
0.726673 0.485165 0.053172
0.751152 0.492997 0.051642
0.773704 0.500467 0.050430
0.786616 0.506132 0.050812
0.799527 0.511798 0.051193
0.812439 0.517463 0.051575
0.825351 0.523128 0.051956
0.838262 0.528793 0.052338
0.090416 0.298933 0.207694
0.100655 0.304125 0.201971
0.110895 0.309317 0.196248
0.121134 0.314509 0.190525
0.131373 0.319702 0.184801
0.141613 0.324894 0.179078
0.164496 0.333123 0.170344
0.189908 0.341959 0.161009
0.215320 0.350795 0.151673
0.240732 0.359631 0.142337
0.266145 0.368468 0.133002
0.298527 0.378563 0.124394
0.334395 0.389287 0.116151
0.370263 0.400011 0.107908
0.406131 0.410736 0.099665
0.441999 0.421460 0.091421
0.477551 0.431930 0.084814
0.512787 0.442144 0.079843
0.548023 0.452358 0.074872
0.583259 0.462572 0.069901
0.618495 0.472787 0.064929
0.650351 0.482265 0.061064
0.675446 0.490270 0.059409
0.700542 0.498276 0.057755
0.725637 0.506281 0.056101
0.750732 0.514287 0.054446
0.773875 0.521919 0.053139
0.787251 0.527686 0.053570
0.800627 0.533453 0.054001
0.814003 0.539219 0.054432
0.827380 0.544986 0.054863
0.840756 0.550753 0.055294
0.095157 0.320218 0.220751
0.104864 0.325178 0.214788
0.114572 0.330139 0.208825
0.124280 0.335100 0.202861
0.133988 0.340060 0.196898
0.143696 0.345021 0.190935
0.165669 0.353074 0.181711
0.190096 0.361746 0.171834
0.214523 0.370418 0.161958
0.238950 0.379090 0.152082
0.263378 0.387762 0.142205
0.295078 0.397830 0.133035
0.330414 0.408595 0.124217
0.365751 0.419360 0.115400
0.401087 0.430126 0.106582
0.436424 0.440891 0.097764
0.471842 0.451488 0.090668
0.507342 0.461917 0.085292
0.542843 0.472346 0.079916
0.578343 0.482775 0.074540
0.613843 0.493204 0.069164
0.646130 0.502899 0.064973
0.671989 0.511126 0.063151
0.697848 0.519353 0.061330
0.723707 0.527579 0.059508
0.749566 0.535806 0.057687
0.773443 0.543633 0.056242
0.787406 0.549462 0.056681
0.801369 0.555291 0.057120
0.815333 0.561119 0.057559
0.829296 0.566948 0.057998
0.843260 0.572777 0.058437
0.099897 0.341503 0.233808
0.109073 0.346232 0.227605
0.118250 0.350961 0.221402
0.127426 0.355690 0.215198
0.136602 0.360419 0.208995
0.145778 0.365148 0.202791
0.166843 0.373026 0.193077
0.190285 0.381534 0.182660
0.213727 0.390041 0.172243
0.237169 0.398549 0.161826
0.260610 0.407057 0.151409
0.291628 0.417097 0.141675
0.326433 0.427903 0.132283
0.361238 0.438709 0.122891
0.396043 0.449515 0.113499
0.430848 0.460321 0.104107
0.466133 0.471046 0.096521
0.501898 0.481690 0.090740
0.537662 0.492334 0.084960
0.573427 0.502978 0.079179
0.609191 0.513621 0.073398
0.641908 0.523533 0.068882
0.668531 0.531981 0.066893
0.695154 0.540429 0.064904
0.721777 0.548878 0.062916
0.748400 0.557326 0.060927
0.773011 0.565348 0.059344
0.787561 0.571238 0.059791
0.802112 0.577129 0.060238
0.816662 0.583019 0.060685
0.831213 0.588910 0.061132
0.845763 0.594800 0.061580
0.104637 0.362788 0.246865
0.113282 0.367285 0.240422
0.121927 0.371783 0.233978
0.130572 0.376280 0.227535
0.139217 0.380778 0.221091
0.147861 0.385275 0.214648
0.168016 0.392978 0.204443
0.190473 0.401321 0.193485
0.212930 0.409665 0.182528
0.235387 0.418008 0.171570
0.257843 0.426351 0.160612
0.288178 0.436364 0.150316
0.322452 0.447211 0.140349
0.356725 0.458058 0.130383
0.390999 0.468905 0.120417
0.425273 0.479752 0.110450
0.460424 0.490605 0.102374
0.496453 0.501463 0.096189
0.532481 0.512322 0.090004
0.568510 0.523180 0.083818
0.604539 0.534039 0.077633
0.637687 0.544167 0.072791
0.665074 0.552837 0.070635
0.692460 0.561506 0.068479
0.719847 0.570176 0.066323
0.747234 0.578845 0.064167
0.772579 0.587062 0.062446
0.787716 0.593014 0.062902
0.802854 0.598967 0.063357
0.817992 0.604919 0.063812
0.833129 0.610871 0.064267
0.848267 0.616824 0.064723
0.109378 0.384073 0.259922
0.117491 0.388339 0.253239
0.125604 0.392605 0.246555
0.133718 0.396871 0.239871
0.141831 0.401137 0.233188
0.149944 0.405403 0.226504
0.169190 0.412930 0.215809
0.190661 0.421109 0.204310
0.212133 0.429288 0.192812
0.233605 0.437467 0.181314
0.255076 0.445646 0.169816
0.284728 0.455631 0.158956
0.318471 0.466519 0.148415
0.352213 0.477407 0.137875
0.385955 0.488295 0.127334
0.419697 0.499183 0.116793
0.454715 0.510163 0.108228
0.491008 0.521236 0.101638
0.527301 0.532310 0.095048
0.563594 0.543383 0.088457
0.599887 0.554456 0.081867
0.633465 0.564802 0.076700
0.661616 0.573692 0.074377
0.689766 0.582583 0.072054
0.717917 0.591474 0.069731
0.746067 0.600365 0.067407
0.772147 0.608776 0.065549
0.787872 0.614790 0.066012
0.803597 0.620805 0.066476
0.819321 0.626819 0.066939
0.835046 0.632833 0.067402
0.850771 0.638848 0.067866
0.113710 0.403971 0.271578
0.121299 0.408002 0.264757
0.128889 0.412033 0.257936
0.136479 0.416065 0.251115
0.144069 0.420096 0.244295
0.151659 0.424127 0.237474
0.169963 0.431455 0.226399
0.190410 0.439442 0.214473
0.210857 0.447430 0.202548
0.231304 0.455417 0.190622
0.251751 0.463404 0.178697
0.280642 0.473337 0.167358
0.313754 0.484242 0.156313
0.346866 0.495147 0.145267
0.379978 0.506051 0.134222
0.413089 0.516956 0.123176
0.447894 0.528058 0.114166
0.484390 0.539355 0.107192
0.520887 0.550653 0.100218
0.557384 0.561951 0.093244
0.593880 0.573248 0.086270
0.627864 0.583831 0.080785
0.656822 0.592982 0.078280
0.685779 0.602133 0.075775
0.714737 0.611284 0.073269
0.743695 0.620436 0.070764
0.770559 0.629075 0.068746
0.786955 0.635154 0.069164
0.803351 0.641233 0.069583
0.819748 0.647313 0.070001
0.836144 0.653392 0.070419
0.852540 0.659471 0.070838
0.117224 0.421095 0.280432
0.124307 0.424885 0.273679
0.131389 0.428675 0.266927
0.138471 0.432465 0.260174
0.145553 0.436255 0.253421
0.152636 0.440045 0.246669
0.169936 0.447128 0.235438
0.189279 0.454868 0.223312
0.208623 0.462609 0.211185
0.227967 0.470349 0.199059
0.247310 0.478090 0.186932
0.275281 0.487919 0.175283
0.307565 0.498794 0.163872
0.339849 0.509668 0.152461
0.372133 0.520542 0.141050
0.404418 0.531416 0.129638
0.438849 0.542624 0.120275
0.475428 0.554166 0.112958
0.512008 0.565707 0.105642
0.548587 0.577249 0.098325
0.585166 0.588791 0.091009
0.619503 0.599649 0.085225
0.649354 0.609139 0.082507
0.679206 0.618629 0.079789
0.709058 0.628119 0.077071
0.738910 0.637609 0.074353
0.766659 0.646543 0.072132
0.783895 0.652693 0.072400
0.801131 0.658844 0.072667
0.818367 0.664994 0.072934
0.835604 0.671145 0.073201
0.852840 0.677296 0.073468
0.120739 0.438219 0.289286
0.127314 0.441768 0.282601
0.133889 0.445317 0.275917
0.140463 0.448866 0.269233
0.147038 0.452415 0.262548
0.153613 0.455964 0.255864
0.169909 0.462800 0.244477
0.188149 0.470294 0.232150
0.206389 0.477788 0.219822
0.224629 0.485282 0.207495
0.242869 0.492775 0.195168
0.269920 0.502502 0.183207
0.301377 0.513346 0.171431
0.332833 0.524189 0.159654
0.364289 0.535032 0.147878
0.395746 0.545876 0.136101
0.429805 0.557190 0.126383
0.466466 0.568976 0.118724
0.503128 0.580762 0.111065
0.539790 0.592548 0.103407
0.576451 0.604333 0.095748
0.611141 0.615467 0.089665
0.641887 0.625296 0.086734
0.672633 0.635125 0.083803
0.703379 0.644954 0.080873
0.734125 0.654783 0.077942
0.762759 0.664010 0.075519
0.780835 0.670232 0.075635
0.798911 0.676454 0.075751
0.816987 0.682676 0.075866
0.835063 0.688898 0.075982
0.853140 0.695120 0.076098
0.124254 0.455344 0.298139
0.130321 0.458651 0.291523
0.136388 0.461959 0.284907
0.142455 0.465267 0.278291
0.148523 0.468575 0.271675
0.154590 0.471882 0.265059
0.169881 0.478473 0.253516
0.187018 0.485720 0.240988
0.204155 0.492967 0.228459
0.221291 0.500214 0.215931
0.238428 0.507461 0.203403
0.264559 0.517085 0.191132
0.295188 0.527897 0.178990
0.325817 0.538710 0.166848
0.356445 0.549523 0.154705
0.387074 0.560335 0.142563
0.420760 0.571757 0.132492
0.457504 0.583787 0.124490
0.494249 0.595816 0.116489
0.530993 0.607846 0.108488
0.567737 0.619876 0.100487
0.602780 0.631285 0.094105
0.634420 0.641453 0.090961
0.666060 0.651621 0.087818
0.697700 0.661789 0.084674
0.729340 0.671956 0.081531
0.758859 0.681478 0.078905
0.777775 0.687771 0.078870
0.796691 0.694065 0.078834
0.815607 0.700358 0.078799
0.834523 0.706651 0.078764
0.853439 0.712944 0.078728
0.127769 0.472468 0.306993
0.133329 0.475534 0.300445
0.138888 0.478601 0.293897
0.144448 0.481668 0.287350
0.150007 0.484734 0.280802
0.155567 0.487801 0.274254
0.169854 0.494146 0.262555
0.185887 0.501146 0.249826
0.201921 0.508146 0.237097
0.217954 0.515146 0.224367
0.233987 0.522146 0.211638
0.259199 0.531668 0.199057
0.288999 0.542449 0.186549
0.318800 0.553231 0.174041
0.348601 0.564013 0.161533
0.378402 0.574795 0.149026
0.411716 0.586323 0.138600
0.448542 0.598597 0.130256
0.485369 0.610871 0.121913
0.522196 0.623145 0.113569
0.559022 0.635419 0.105226
0.594418 0.647103 0.098544
0.626952 0.657610 0.095188
0.659486 0.668117 0.091832
0.692021 0.678623 0.088476
0.724555 0.689130 0.085120
0.754959 0.698946 0.082292
0.774715 0.705311 0.082105
0.794471 0.711675 0.081918
0.814227 0.718040 0.081732
0.833983 0.724404 0.081545
0.853739 0.730768 0.081358
0.130910 0.488494 0.314730
0.135975 0.491327 0.308304
0.141040 0.494161 0.301879
0.146105 0.496994 0.295453
0.151170 0.499827 0.289028
0.156235 0.502661 0.282602
0.169527 0.508750 0.270815
0.184465 0.515490 0.257956
0.199402 0.522231 0.245097
0.214340 0.528971 0.232239
0.229277 0.535711 0.219380
0.253543 0.545107 0.206548
0.282472 0.555832 0.193730
0.311401 0.566556 0.180912
0.340330 0.577280 0.168095
0.369259 0.588005 0.155277
0.402148 0.599617 0.144538
0.438997 0.612118 0.135877
0.475845 0.624618 0.127217
0.512694 0.637119 0.118556
0.549543 0.649620 0.109896
0.585246 0.661575 0.102931
0.618657 0.672439 0.099360
0.652069 0.683303 0.095788
0.685480 0.694167 0.092216
0.718892 0.705031 0.088644
0.750175 0.715167 0.085606
0.770817 0.721659 0.085238
0.791460 0.728152 0.084870
0.812102 0.734644 0.084501
0.832744 0.741137 0.084133
0.853386 0.747629 0.083764
0.132179 0.499030 0.316882
0.136815 0.501670 0.310848
0.141451 0.504309 0.304815
0.146088 0.506948 0.298781
0.150724 0.509587 0.292748
0.155361 0.512227 0.286714
0.167701 0.518013 0.275181
0.181582 0.524428 0.262549
0.195463 0.530843 0.249916
0.209343 0.537258 0.237284
0.223224 0.543673 0.224651
0.246410 0.552833 0.211874
0.274247 0.563366 0.199023
0.302085 0.573898 0.186172
0.329922 0.584430 0.173322
0.357759 0.594963 0.160471
0.389963 0.606549 0.149621
0.426532 0.619190 0.140771
0.463101 0.631831 0.131921
0.499670 0.644472 0.123072
0.536239 0.657113 0.114222
0.572020 0.669312 0.107054
0.606225 0.680627 0.103253
