assets/luts/french-dispatch-01-7daf961f.cube
# Enhanced with VOXCOLOR algorithms
LUT_3D_SIZE 5
DOMAIN_MIN 0.000000 0.000000 0.000000
DOMAIN_MAX 0.903226 0.903226 0.903226
0.011765 0.015686 0.027451
0.164369 0.067979 0.042038
0.419989 0.153403 0.046583
0.664196 0.234938 0.040802
0.804748 0.279766 0.033389
0.042429 0.115247 0.090318
0.177462 0.167971 0.078723
0.422675 0.242213 0.057806
0.661887 0.312375 0.041402
0.792416 0.356612 0.035196
0.079983 0.255790 0.180318
0.188007 0.301400 0.140451
0.412290 0.370995 0.088053
0.654777 0.441113 0.055071
0.798070 0.490325 0.048696
0.113710 0.403971 0.271578
0.190410 0.439442 0.214473
0.379978 0.506051 0.134222
0.627864 0.583831 0.080785
0.803351 0.641233 0.069583
0.133448 0.509567 0.319034
0.178698 0.533365 0.267141
0.319514 0.591580 0.178549
0.558793 0.677049 0.111178
0.777520 0.749769 0.089445
0.015946 0.072513 0.203886
0.163512 0.102814 0.175786
0.428927 0.155703 0.141109
0.688808 0.213467 0.110948
0.831323 0.256087 0.102931
0.041262 0.172377 0.211581
0.189891 0.217734 0.207439
0.444774 0.276845 0.183284
0.691454 0.334857 0.158252
0.825695 0.376708 0.148773
0.069487 0.304522 0.270246
0.211127 0.356615 0.265522
0.449225 0.421092 0.234123
0.689763 0.482467 0.205422
0.829991 0.525278 0.198514
0.098883 0.441278 0.346834
0.222204 0.489279 0.333428
0.432757 0.556825 0.288165
0.671239 0.627007 0.249518
0.832456 0.674204 0.241123
0.122417 0.536678 0.398160
0.216249 0.572667 0.380091
0.383266 0.634791 0.327346
0.609270 0.712247 0.278967
0.804611 0.772916 0.259950
0.015970 0.110442 0.371437
0.162475 0.124973 0.342760
0.440564 0.158406 0.283828
0.714652 0.197028 0.212408
0.858449 0.229846 0.180179
0.037425 0.230834 0.368529
0.197696 0.270211 0.377008
0.463590 0.312274 0.352214
0.717066 0.353420 0.308924
0.853677 0.386928 0.285336
0.059130 0.378524 0.402514
0.224579 0.426186 0.423874
0.479156 0.476859 0.420153
0.720636 0.523900 0.400531
0.856806 0.558509 0.391053
0.083148 0.515099 0.449756
0.242487 0.560448 0.473913
0.479911 0.618552 0.479252
0.714254 0.675626 0.471505
0.859383 0.713386 0.468229
0.103828 0.599859 0.483755
0.245171 0.636873 0.505594
0.452717 0.695661 0.511527
0.673658 0.761502 0.503526
0.838855 0.809764 0.494310
0.013277 0.134868 0.491658
0.160987 0.148206 0.495261
0.451123 0.183978 0.450061
0.737623 0.223936 0.357115
0.880922 0.253818 0.291337
0.032840 0.278434 0.511843
0.200511 0.319006 0.537949
0.475202 0.354118 0.523432
0.735849 0.386299 0.465912
0.873322 0.411168 0.415721
0.054164 0.447045 0.542461
0.229172 0.487148 0.574261
0.494514 0.525925 0.589518
0.740186 0.560916 0.574538
0.873888 0.586675 0.552627
0.076560 0.587969 0.565996
0.251566 0.623667 0.603244
0.506977 0.670037 0.642115
0.743184 0.714095 0.660463
0.877434 0.742697 0.659734
0.091871 0.665612 0.570348
0.262323 0.698250 0.613155
0.503870 0.751440 0.666006
0.728627 0.805987 0.700467
0.869371 0.841934 0.706430
0.009718 0.151056 0.563718
0.159859 0.171455 0.597577
0.459196 0.221039 0.591786
0.752847 0.278410 0.520361
0.891252 0.313153 0.437070
0.025962 0.298011 0.599922
0.197645 0.350874 0.645130
0.477113 0.391576 0.654262
0.744560 0.427149 0.605322
0.880678 0.448849 0.531772
0.054406 0.481515 0.643971
0.228075 0.519700 0.678585
0.494386 0.555183 0.703983
0.745035 0.586092 0.691087
0.878506 0.606132 0.648216
0.083965 0.631263 0.668276
0.255416 0.656712 0.699760
0.511045 0.694807 0.743607
0.749980 0.730700 0.767729
0.882339 0.752413 0.758356
0.097097 0.704339 0.655702
0.272425 0.733035 0.696765
0.524550 0.782703 0.760906
0.754332 0.830075 0.814667
0.886535 0.856487 0.831617
