assets/luts/impulz-fuji-superior-200-fpe-log-ef6ee857.cube
# (C) 2014 VisionColor & Patchflyer [www.vision-color.com]
# Generator: VC Patchmatch v.2.1.1 [64/53]
# All work and no play makes Jack a dull boy.
# LUT generated from: Fuji Superior 200_FPE
LUT_3D_SIZE 17
0.033509 0.036683 0.037079
0.037537 0.038849 0.038880
0.055085 0.039826 0.036774
0.081971 0.043122 0.037110
0.118410 0.047211 0.038148
0.161837 0.050507 0.038697
0.213321 0.050111 0.038941
0.258640 0.048310 0.039948
0.297093 0.046784 0.041077
0.326787 0.045624 0.042145
0.352026 0.045533 0.043153
0.373297 0.045747 0.044099
0.393347 0.046143 0.045045
0.412146 0.046662 0.045960
0.432746 0.047883 0.047181
0.456123 0.049897 0.048798
0.498177 0.059358 0.054475
0.034882 0.041199 0.039368
0.039368 0.041382 0.038605
0.056886 0.042664 0.036835
0.094728 0.051942 0.037385
0.143618 0.061524 0.038605
0.193240 0.065614 0.039216
0.246769 0.064698 0.039826
0.299657 0.066865 0.041352
0.348669 0.067567 0.043336
0.385870 0.069398 0.044984
0.411627 0.068055 0.046174
0.432410 0.067933 0.047242
0.453620 0.069429 0.048310
0.471443 0.069551 0.049195
0.491829 0.070680 0.050385
0.512993 0.072480 0.051942
0.555596 0.096162 0.058625
0.035828 0.053407 0.039338
0.041535 0.054078 0.038758
0.072480 0.062593 0.039246
0.108644 0.068818 0.038972
0.161471 0.076326 0.039002
0.229648 0.092073 0.040681
0.296056 0.097902 0.042206
0.352285 0.097902 0.043824
0.402869 0.098726 0.045808
0.445624 0.104280 0.047944
0.478523 0.108248 0.049805
0.499794 0.106783 0.050874
0.516747 0.105013 0.051728
0.536309 0.107790 0.052949
0.556725 0.114260 0.054444
0.580377 0.124880 0.056580
0.617304 0.156832 0.064393
0.039490 0.075319 0.041047
0.058198 0.082155 0.040986
0.089784 0.091157 0.041230
0.136904 0.102113 0.041413
0.198856 0.120302 0.041840
0.266972 0.130251 0.042725
0.333333 0.136324 0.044739
0.399527 0.150149 0.047364
0.457298 0.161715 0.049561
0.503807 0.169833 0.051728
0.533867 0.168032 0.052888
0.562432 0.176059 0.054994
0.587732 0.183200 0.056764
0.609583 0.188571 0.058259
0.628809 0.192966 0.059602
0.649439 0.203861 0.062776
0.682368 0.237308 0.072236
0.048493 0.105592 0.043091
0.083650 0.122347 0.043427
0.116121 0.133730 0.043580
0.181888 0.149020 0.044495
0.237812 0.162844 0.045014
0.312612 0.182589 0.046723
0.381979 0.198550 0.048646
0.447654 0.209842 0.051057
0.505104 0.221195 0.053437
0.558007 0.238102 0.057588
0.596582 0.248447 0.060304
0.624384 0.254154 0.061738
0.649439 0.259678 0.063294
0.675746 0.270817 0.067170
0.697292 0.280583 0.070649
0.718807 0.294072 0.074311
0.744686 0.320378 0.083467
0.068177 0.151308 0.044526
0.119295 0.175357 0.045014
0.173266 0.196139 0.046021
0.242390 0.216587 0.048951
0.306355 0.231754 0.050599
0.371481 0.247105 0.052155
0.437064 0.263767 0.055787
0.499657 0.280018 0.059174
0.564126 0.300786 0.063447
0.615808 0.315648 0.066529
0.653590 0.325017 0.069276
0.684901 0.337163 0.074006
0.712367 0.346685 0.077546
0.738796 0.357916 0.081361
0.760525 0.367041 0.084443
0.777249 0.376928 0.089143
0.794858 0.394415 0.099733
0.118120 0.215946 0.045136
0.184680 0.244511 0.047700
0.256977 0.271748 0.051392
0.324514 0.292592 0.055360
0.389792 0.309468 0.061128
0.450736 0.323476 0.063996
0.501045 0.336263 0.067109
0.557168 0.348226 0.068696
0.612100 0.364858 0.072938
0.664118 0.381445 0.079957
0.704494 0.395636 0.084840
0.735103 0.407538 0.088716
0.762417 0.417151 0.092378
0.785702 0.427771 0.097322
0.806455 0.437812 0.102083
0.822934 0.447242 0.106264
0.837613 0.460487 0.115816
0.211627 0.296895 0.048920
0.277302 0.322133 0.051789
0.354879 0.350851 0.061158
0.424033 0.373159 0.068910
0.484855 0.389914 0.077760
0.535958 0.401236 0.084138
0.582620 0.412680 0.087892
0.624643 0.424430 0.092103
0.678080 0.441688 0.097658
0.716335 0.449653 0.098329
0.752590 0.461585 0.102022
0.782010 0.474342 0.107820
0.806516 0.483772 0.112032
0.829465 0.494301 0.116518
0.847807 0.503563 0.119936
0.859953 0.511772 0.124483
0.868864 0.519982 0.133364
0.325582 0.378927 0.058991
0.388388 0.401022 0.064210
0.451072 0.424430 0.074952
0.514626 0.445823 0.086915
0.574563 0.463615 0.096925
0.623545 0.476097 0.107637
0.662425 0.484276 0.112123
0.701244 0.495232 0.117556
0.733318 0.504433 0.119966
0.769680 0.513054 0.123934
0.794980 0.518059 0.124544
0.821714 0.528069 0.127474
0.843809 0.537377 0.130739
0.859739 0.547265 0.134096
0.873259 0.556115 0.137545
0.885893 0.565637 0.141634
0.893339 0.572686 0.149386
0.442374 0.456718 0.071778
0.487053 0.472663 0.081758
0.543465 0.493355 0.093507
0.598810 0.512016 0.108492
0.652827 0.529229 0.120882
0.701442 0.542535 0.133303
0.735348 0.550469 0.140291
0.767300 0.557763 0.146609
0.795071 0.565148 0.148775
0.821607 0.573144 0.150546
0.839567 0.575799 0.150942
0.852934 0.579492 0.150240
0.868101 0.584772 0.150179
0.884611 0.594903 0.152438
0.895842 0.602747 0.154177
0.904204 0.610437 0.157412
0.907347 0.616053 0.164126
0.550118 0.523827 0.091218
0.583963 0.537316 0.103822
0.622003 0.551995 0.117220
0.669093 0.568689 0.132784
0.713924 0.583032 0.145480
0.756985 0.595850 0.157229
0.788083 0.602991 0.165377
0.817166 0.609583 0.172152
0.839475 0.615656 0.175357
0.860563 0.622126 0.176913
0.875029 0.627253 0.177218
0.885801 0.629694 0.175265
0.891142 0.629908 0.172396
0.901457 0.635096 0.172061
0.910246 0.641535 0.171847
0.918181 0.649195 0.172335
0.920653 0.653742 0.178775
0.634974 0.575097 0.112184
0.659297 0.586023 0.126833
0.689113 0.599359 0.142519
0.723568 0.613611 0.158175
0.760433 0.625208 0.169009
0.798703 0.636866 0.179507
0.828489 0.644709 0.186465
0.851987 0.650690 0.193484
0.870665 0.655116 0.197696
0.885527 0.661158 0.200443
0.899657 0.666682 0.201419
0.905394 0.669886 0.201694
0.910674 0.670069 0.197269
0.919158 0.674403 0.193423
0.923156 0.676265 0.190463
0.926421 0.678950 0.187686
0.929107 0.681422 0.190829
0.698207 0.612207 0.130037
0.716823 0.622705 0.143526
0.741115 0.637293 0.162081
0.771695 0.651392 0.179538
0.801846 0.661768 0.191348
0.832609 0.671473 0.200473
0.861051 0.679347 0.207523
0.877684 0.684413 0.212894
0.894621 0.688777 0.217716
0.903746 0.692653 0.219699
0.914214 0.698421 0.222477
0.919615 0.701595 0.223484
0.923827 0.703792 0.221561
0.928130 0.705409 0.216648
0.932494 0.707912 0.212222
0.934264 0.708400 0.205631
0.934936 0.707393 0.204654
0.745754 0.640436 0.140749
0.763241 0.652247 0.155001
0.787839 0.668879 0.174380
0.812406 0.683528 0.196445
0.840604 0.694301 0.209659
0.862455 0.702419 0.219821
0.886320 0.709926 0.226932
0.900664 0.715023 0.232425
0.909636 0.718227 0.236851
0.918242 0.721675 0.238743
0.923858 0.725093 0.241184
0.929473 0.729793 0.242924
0.932769 0.731746 0.240665
0.935546 0.731929 0.236973
0.937896 0.732082 0.230198
0.939605 0.734432 0.223667
0.939757 0.731807 0.220432
0.785092 0.663417 0.147829
0.804471 0.678279 0.163333
0.827634 0.694759 0.182803
0.847562 0.711971 0.209812
0.871092 0.722683 0.225925
0.890410 0.730770 0.237461
0.904753 0.736599 0.244480
0.917845 0.741817 0.249516
0.923003 0.744228 0.253269
0.927825 0.746914 0.256352
0.930541 0.749142 0.259495
0.933959 0.751614 0.260807
0.936767 0.753597 0.260746
0.939239 0.753872 0.254429
0.941344 0.753353 0.246250
0.942718 0.755550 0.239872
0.942657 0.754757 0.238163
0.814328 0.681178 0.151431
0.836637 0.696803 0.165682
0.858885 0.714534 0.185702
0.876738 0.733669 0.214908
0.893706 0.745571 0.234440
0.911040 0.753841 0.248508
0.920317 0.759121 0.258183
0.927581 0.763058 0.265110
0.930571 0.764858 0.269383
0.933501 0.766659 0.273075
0.935424 0.768002 0.276677
0.937407 0.770260 0.279637
0.939513 0.772549 0.281590
0.941253 0.771908 0.275547
0.942931 0.771237 0.266239
0.944060 0.770871 0.254185
0.944152 0.771481 0.252720
0.831052 0.693812 0.153292
0.853819 0.707301 0.163577
0.874571 0.723781 0.180758
0.890929 0.744472 0.208072
0.906798 0.758144 0.230350
0.920348 0.768093 0.250217
0.926726 0.773312 0.265354
0.932311 0.777462 0.276219
0.935637 0.779843 0.282597
0.937682 0.781430 0.287907
0.939208 0.782467 0.291936
0.939971 0.783505 0.295720
0.940887 0.785183 0.298985
0.941955 0.785458 0.296696
0.942962 0.783963 0.289921
0.943908 0.782864 0.278416
0.944549 0.782559 0.268009
0.033295 0.038148 0.042145
0.035584 0.038331 0.041291
0.052064 0.039338 0.039734
0.076631 0.042298 0.043397
0.111086 0.046448 0.047181
0.154391 0.050050 0.047517
0.206058 0.050477 0.046326
0.252415 0.049256 0.047944
0.294987 0.048188 0.047822
0.326940 0.046998 0.049012
0.353857 0.046601 0.048890
0.376226 0.046510 0.049348
0.397986 0.046662 0.050507
0.418647 0.046998 0.051423
0.439643 0.048219 0.052674
0.462959 0.050233 0.054414
0.501762 0.058625 0.066407
0.033539 0.040711 0.042542
0.039765 0.044831 0.045380
0.062531 0.049836 0.046998
0.101991 0.051911 0.043214
0.148104 0.054505 0.042634
0.200229 0.053895 0.040436
0.255589 0.053498 0.041779
0.298985 0.051606 0.042603
0.330358 0.048280 0.042695
0.355352 0.047181 0.043580
0.375738 0.046204 0.044282
0.397070 0.047120 0.045472
0.413336 0.046876 0.046021
0.430182 0.047425 0.046876
0.454536 0.049439 0.048524
0.495705 0.062531 0.056733
0.548363 0.085817 0.071138
0.034455 0.053223 0.042298
0.043854 0.063539 0.048005
0.084504 0.074739 0.049256
0.125521 0.075105 0.045045
0.188510 0.083162 0.044373
0.256016 0.090730 0.043458
0.316533 0.089754 0.044587
0.357885 0.082307 0.045136
0.395239 0.084016 0.045747
0.427131 0.082429 0.047364
0.451392 0.083864 0.048432
0.468421 0.079194 0.049348
0.481666 0.077394 0.049775
0.499977 0.080476 0.050782
0.523339 0.090974 0.052735
0.563592 0.108064 0.061219
0.609735 0.142428 0.076936
0.037079 0.079805 0.050263
0.053895 0.096468 0.049561
0.096010 0.109987 0.050324
0.171969 0.128786 0.049409
0.235584 0.132479 0.048035
0.306020 0.132692 0.046632
0.381842 0.144808 0.047791
0.430915 0.145602 0.049226
0.471000 0.141329 0.050172
0.502953 0.138399 0.051667
0.529503 0.138491 0.053285
0.549401 0.140047 0.054475
0.562036 0.133761 0.054749
0.576410 0.132692 0.055512
0.598810 0.143954 0.058167
0.632990 0.176547 0.068544
0.675746 0.223667 0.086213
0.045350 0.116732 0.059754
0.076600 0.144045 0.049805
0.135561 0.167666 0.051209
0.213336 0.187289 0.052522
0.299886 0.207523 0.053742
0.374105 0.217960 0.053071
0.449271 0.224796 0.052644
0.495933 0.221592 0.054414
0.540566 0.225925 0.057313
0.576410 0.230076 0.058778
0.605707 0.232517 0.060334
0.623560 0.227543 0.060456
0.642267 0.229679 0.062806
0.662165 0.235630 0.064973
0.681331 0.246036 0.068421
0.711177 0.274388 0.078645
0.737575 0.306859 0.096376
0.064393 0.167330 0.068116
0.119814 0.205112 0.049683
0.201770 0.237964 0.053040
0.280690 0.263264 0.056245
0.367819 0.282612 0.059815
0.448020 0.302235 0.062348
0.520943 0.313176 0.066041
0.565682 0.314427 0.066560
0.610086 0.315923 0.067842
0.643610 0.317174 0.068544
0.673976 0.322972 0.072206
0.696468 0.326452 0.075532
0.716579 0.328069 0.076143
0.735683 0.331762 0.077729
0.752926 0.341466 0.082490
0.770687 0.359228 0.093507
0.791897 0.386389 0.112001
0.116869 0.233463 0.072328
0.198840 0.286610 0.049500
0.297505 0.323934 0.056092
0.389609 0.355337 0.063294
0.471702 0.378408 0.073640
0.540810 0.394614 0.079835
0.605539 0.411246 0.085756
0.640909 0.406882 0.086458
0.675334 0.405264 0.086946
0.710292 0.410040 0.089815
0.740353 0.415839 0.091615
0.762356 0.418311 0.092927
0.781765 0.422797 0.096559
0.797665 0.426093 0.098695
0.812772 0.432593 0.102724
0.827024 0.443183 0.110384
0.836332 0.455695 0.127413
0.204273 0.309224 0.076265
0.307973 0.368643 0.055787
0.395407 0.400839 0.067475
0.483543 0.431449 0.080568
0.558114 0.453178 0.093599
0.615396 0.465995 0.104372
0.671183 0.479057 0.110903
0.714488 0.491295 0.116152
0.743450 0.486412 0.113344
0.763912 0.482750 0.110933
0.790463 0.488228 0.113954
0.812680 0.492927 0.116457
0.830198 0.496406 0.117678
0.845029 0.499458 0.119356
0.853727 0.503471 0.122621
0.861601 0.508293 0.128817
0.869383 0.516930 0.144015
0.307179 0.385946 0.090333
0.426749 0.447227 0.071412
0.495995 0.472740 0.083742
0.562020 0.496208 0.100649
0.633982 0.518654 0.116670
0.688518 0.533181 0.129824
0.732311 0.542550 0.139406
0.772686 0.553506 0.145449
0.803571 0.562875 0.147738
0.819760 0.557900 0.144717
0.838315 0.557946 0.140993
0.856931 0.561090 0.140597
0.867185 0.562646 0.140719
0.876860 0.563897 0.140475
0.885649 0.567803 0.143374
0.892882 0.571832 0.148592
0.894377 0.573327 0.162081
0.408896 0.457618 0.106538
0.537453 0.516014 0.091859
0.587991 0.535088 0.105898
0.637079 0.553643 0.123598
0.692073 0.571313 0.139681
0.745113 0.586480 0.153811
0.787442 0.597559 0.165164
0.817777 0.604212 0.171756
0.844480 0.612848 0.174746
0.865385 0.619348 0.175113
0.874174 0.615106 0.170596
0.884672 0.614160 0.165072
0.893156 0.614313 0.162112
0.900603 0.614862 0.160189
0.905333 0.616663 0.160525
0.908934 0.618891 0.164889
0.908873 0.620691 0.176699
0.507057 0.524163 0.129976
0.629145 0.571771 0.112978
0.658991 0.586145 0.129488
0.699001 0.602045 0.147005
0.745205 0.618097 0.163424
0.789639 0.632105 0.176455
0.832486 0.644648 0.188052
0.858000 0.651698 0.194949
0.879942 0.658686 0.200229
0.894591 0.664179 0.200656
0.907286 0.669215 0.200320
0.910094 0.664576 0.194003
0.911986 0.659998 0.186892
0.915434 0.657282 0.180545
0.920714 0.659571 0.178775
0.923430 0.659998 0.180056
0.921569 0.659144 0.191989
0.584344 0.575372 0.151675
0.701350 0.613642 0.132204
0.724910 0.628443 0.151461
0.752285 0.643458 0.170687
0.792111 0.658289 0.186496
0.828794 0.670436 0.198245
0.864683 0.681544 0.208865
0.883085 0.687343 0.215213
0.900145 0.692958 0.220371
0.910765 0.697780 0.222599
0.920195 0.702602 0.223178
0.926238 0.706844 0.223362
0.927886 0.701991 0.214633
0.928527 0.696498 0.204013
0.930449 0.694270 0.198062
0.931731 0.692317 0.195651
0.932616 0.691859 0.207065
0.644617 0.611902 0.165713
0.750393 0.641932 0.143160
0.772885 0.659388 0.164492
0.799344 0.676387 0.186465
0.829160 0.691066 0.207004
0.857572 0.700923 0.217929
0.885679 0.710292 0.227024
0.901976 0.715663 0.232334
0.913146 0.720272 0.237675
0.920775 0.723568 0.239780
0.926970 0.727321 0.242405
0.932616 0.731502 0.243229
0.935943 0.733364 0.238956
0.937041 0.728542 0.227817
0.939483 0.726986 0.220279
0.938140 0.721279 0.213169
0.938170 0.718044 0.219638
0.689052 0.640406 0.175692
0.785336 0.663172 0.147799
0.809415 0.681758 0.168399
0.835874 0.701930 0.193576
0.861662 0.717861 0.218357
0.882292 0.727626 0.232792
0.902068 0.735439 0.243137
0.917052 0.740658 0.248447
0.922698 0.743679 0.254154
0.928954 0.746700 0.256657
0.932219 0.749325 0.260105
0.936004 0.752041 0.261784
0.938994 0.753384 0.259281
0.941131 0.753750 0.248844
0.941772 0.750698 0.239902
0.942016 0.748745 0.233127
0.942565 0.743923 0.235630
0.724483 0.664942 0.179782
0.807340 0.678981 0.150546
0.832700 0.698024 0.170047
0.859159 0.717067 0.191379
0.880735 0.734951 0.219608
0.900359 0.745296 0.234714
0.914244 0.754849 0.254459
0.925719 0.760403 0.261723
0.930449 0.763973 0.269322
0.933562 0.766171 0.273716
0.936370 0.769162 0.277897
0.938354 0.770504 0.279942
0.940917 0.771847 0.279759
0.942168 0.771267 0.268559
0.943847 0.770321 0.256596
0.943938 0.767575 0.250645
0.943511 0.765560 0.255100
0.749355 0.682979 0.178897
0.821683 0.691157 0.152193
0.848814 0.706661 0.165164
0.873930 0.725490 0.186221
0.892912 0.745785 0.213443
0.910552 0.758633 0.236057
0.923674 0.769680 0.259892
0.930571 0.775479 0.273899
0.935088 0.779477 0.283024
0.937530 0.781796 0.288609
0.939422 0.783719 0.293065
0.940490 0.785306 0.297642
0.941741 0.786313 0.299016
0.942382 0.785275 0.296239
0.943603 0.784054 0.283177
0.944579 0.782834 0.267430
0.943999 0.781247 0.272557
0.762142 0.693690 0.172610
0.821927 0.697658 0.151766
0.850095 0.709285 0.159792
0.875853 0.725093 0.174655
0.895201 0.746120 0.199222
0.911803 0.762600 0.227481
0.925078 0.775937 0.256260
0.931182 0.783108 0.277256
0.935821 0.787961 0.292088
0.938567 0.790249 0.299992
0.940551 0.792203 0.305943
0.941863 0.793790 0.311131
0.942107 0.795285 0.315404
0.942290 0.795529 0.316716
0.942840 0.794247 0.312047
0.943572 0.792813 0.299779
0.944121 0.791257 0.287694
0.030518 0.037232 0.056947
0.032410 0.037385 0.056001
0.043763 0.039307 0.056428
0.068910 0.041810 0.056519
0.102541 0.045502 0.057984
0.147189 0.049592 0.062348
0.198032 0.051148 0.062928
0.247471 0.050538 0.060822
0.290745 0.049470 0.060395
0.328161 0.048035 0.062013
0.357519 0.047333 0.063233
0.381933 0.047028 0.062196
0.403967 0.047059 0.062135
0.425422 0.047395 0.063508
0.446723 0.048432 0.066773
0.469001 0.050172 0.071717
0.503075 0.056733 0.088594
0.030640 0.039887 0.057160
0.038148 0.046174 0.066072
0.052888 0.048707 0.067079
0.092348 0.051026 0.061128
0.139132 0.053742 0.060609
0.191623 0.054383 0.061006
0.248356 0.054688 0.059358
0.294194 0.053193 0.054841
0.327337 0.049714 0.056062
0.357580 0.048371 0.054383
0.380011 0.047120 0.055482
0.402838 0.047791 0.054170
0.419837 0.047425 0.054200
0.437842 0.047852 0.055695
0.461036 0.049622 0.060883
0.500969 0.062379 0.070985
0.548058 0.083284 0.091920
0.030549 0.057984 0.062593
0.038392 0.069825 0.073854
0.061952 0.072847 0.073579
0.109590 0.078279 0.070344
0.176028 0.079469 0.062684
0.237308 0.076875 0.057771
0.294408 0.069947 0.052125
0.341100 0.066285 0.051514
0.376165 0.063478 0.050690
0.398962 0.056092 0.048371
0.415595 0.053864 0.048463
0.427222 0.050690 0.047791
0.445777 0.052430 0.049134
0.463905 0.052583 0.050111
0.493965 0.058930 0.053925
0.542626 0.082795 0.068788
0.605951 0.139467 0.108217
0.033478 0.087556 0.069917
0.048768 0.105776 0.074769
0.078126 0.113985 0.074861
0.159487 0.134432 0.074098
0.229297 0.132601 0.066133
0.305623 0.135225 0.061585
0.372580 0.137301 0.056519
0.423285 0.132753 0.055879
0.457649 0.119326 0.055085
0.483833 0.117739 0.053315
0.502281 0.110445 0.053529
0.515221 0.109163 0.053010
0.527947 0.098848 0.053895
0.542901 0.099062 0.054902
0.573419 0.119661 0.060273
0.613489 0.161624 0.077607
0.672938 0.220859 0.117678
0.042145 0.128115 0.080446
0.067262 0.159121 0.083223
0.112551 0.173648 0.074403
0.198718 0.198367 0.075227
0.304280 0.222965 0.073732
0.381399 0.220737 0.067323
0.447745 0.214145 0.060792
0.505531 0.215518 0.061585
0.544503 0.214023 0.062257
0.574121 0.206394 0.060365
0.592706 0.197665 0.060090
0.606287 0.188876 0.060395
0.617853 0.185702 0.062196
0.632593 0.186923 0.062959
0.659449 0.207706 0.068940
0.692134 0.244511 0.087068
0.730159 0.298283 0.128878
0.057923 0.180911 0.097169
0.104677 0.221958 0.092622
0.171603 0.244694 0.068086
0.271412 0.280324 0.073335
0.371847 0.303609 0.077241
0.464042 0.323873 0.081453
0.527596 0.320333 0.077180
0.589029 0.321996 0.073152
0.626047 0.316716 0.073396
0.654566 0.312001 0.074403
0.675715 0.309041 0.074647
0.692042 0.303181 0.075074
0.706569 0.297932 0.073884
0.720668 0.300603 0.077333
0.739986 0.315801 0.085756
0.759457 0.339544 0.103151
0.789578 0.384039 0.143282
0.103578 0.246098 0.110140
0.177234 0.302907 0.101534
0.262806 0.327169 0.066865
0.367605 0.365408 0.077943
0.461814 0.392599 0.086275
0.539986 0.407126 0.093721
0.613779 0.424857 0.099794
0.665751 0.421897 0.099306
0.698558 0.417624 0.097932
0.729519 0.414389 0.095583
0.748928 0.409873 0.094026
0.765377 0.407065 0.094972
0.779141 0.403555 0.097078
0.792630 0.404715 0.097353
0.808591 0.415137 0.104921
0.818540 0.427283 0.120821
0.828916 0.450019 0.157076
0.182513 0.320363 0.123598
0.281544 0.380392 0.107576
0.380697 0.415061 0.070161
0.477226 0.450828 0.087190
0.565682 0.479606 0.103426
0.638254 0.496300 0.119112
0.695933 0.508247 0.127840
0.748577 0.522286 0.135134
0.771740 0.512108 0.130739
0.792264 0.504799 0.125704
0.811612 0.502663 0.124636
0.830320 0.502602 0.123262
0.843473 0.501015 0.121553
0.850309 0.498924 0.122957
0.856901 0.499062 0.128206
0.862852 0.504204 0.141695
0.868681 0.516381 0.170657
0.275380 0.391501 0.136172
0.392447 0.453849 0.119539
0.498283 0.494041 0.090578
0.563241 0.518502 0.109163
0.640574 0.544503 0.128267
0.707195 0.562234 0.145724
0.755749 0.572091 0.158083
0.800641 0.582193 0.165835
0.830915 0.591226 0.168460
0.848600 0.582559 0.160769
0.857694 0.574594 0.153475
0.869169 0.572183 0.149783
0.877470 0.570993 0.146120
0.885740 0.569406 0.145174
0.891295 0.568170 0.149508
0.891569 0.567193 0.163088
0.890806 0.568627 0.187900
0.374807 0.462928 0.154330
0.490379 0.518090 0.142092
0.595804 0.556451 0.113832
0.643915 0.575494 0.132296
0.697505 0.594049 0.150301
0.760708 0.613275 0.167849
0.806882 0.625391 0.180117
0.842313 0.633143 0.191409
0.870634 0.641840 0.195315
0.887877 0.648707 0.198032
0.891905 0.638941 0.188724
0.899596 0.634638 0.178561
0.906126 0.633417 0.171817
0.909270 0.629145 0.168185
0.909880 0.624475 0.169100
0.910552 0.622950 0.182498
0.910063 0.621942 0.207950
0.465110 0.526604 0.182162
0.568994 0.571710 0.164492
0.676051 0.604791 0.132479
0.711147 0.620478 0.151858
0.755734 0.639490 0.172885
0.801175 0.653529 0.188540
0.845914 0.666194 0.200839
0.874571 0.675105 0.212161
0.894255 0.680293 0.217777
0.907958 0.686397 0.221225
0.917571 0.690913 0.220951
0.918456 0.682460 0.209293
0.921874 0.678614 0.198367
0.924712 0.674525 0.190158
0.925078 0.669490 0.188174
0.923796 0.664302 0.198825
0.921538 0.660395 0.224796
0.533227 0.576989 0.208896
0.631189 0.613672 0.186313
0.735225 0.638148 0.145754
0.762020 0.657221 0.169741
0.799832 0.674708 0.190188
0.838407 0.689296 0.208713
0.872160 0.699977 0.219608
0.897093 0.709499 0.230472
0.909728 0.713954 0.235843
0.920745 0.718227 0.239506
0.927855 0.722347 0.240513
0.933806 0.726223 0.240482
0.934264 0.719539 0.226596
0.935210 0.713314 0.215183
0.935088 0.705531 0.208927
0.934173 0.700221 0.215091
0.931853 0.694514 0.238315
0.584772 0.614282 0.224002
0.676997 0.642695 0.192630
0.783200 0.663081 0.150332
0.811429 0.685481 0.176852
0.839536 0.705867 0.203738
0.871977 0.721157 0.226108
0.896178 0.731319 0.238376
0.916442 0.739345 0.246281
0.922698 0.743282 0.253239
0.929076 0.746639 0.258488
0.933379 0.748196 0.260716
0.937896 0.750881 0.258946
0.940978 0.752743 0.252079
0.942290 0.746975 0.240085
0.941619 0.738643 0.231662
0.939727 0.729854 0.231937
0.938201 0.722713 0.251957
0.626947 0.643214 0.229221
0.714748 0.664637 0.190646
0.812772 0.680751 0.151858
0.843565 0.705379 0.177157
0.871397 0.727016 0.204471
0.893523 0.744076 0.233677
0.910826 0.752773 0.249119
0.925322 0.760189 0.261265
0.929808 0.763302 0.268162
0.933898 0.766690 0.275395
0.936828 0.768154 0.278721
0.939513 0.769070 0.280552
0.942260 0.770382 0.275364
0.943603 0.770047 0.261418
0.943664 0.763088 0.252049
0.943420 0.757992 0.252476
0.941894 0.747921 0.269078
0.660792 0.667170 0.230503
0.736049 0.680659 0.188663
0.822263 0.691249 0.152132
0.852171 0.712703 0.171695
0.880735 0.733577 0.194705
0.902708 0.752590 0.225559
0.918486 0.764920 0.249973
0.929198 0.773770 0.270756
0.933898 0.777462 0.279301
0.937041 0.780636 0.288792
0.939300 0.783200 0.293950
0.940764 0.784146 0.297581
0.942077 0.783902 0.297734
0.943114 0.783383 0.287694
0.944274 0.782132 0.272831
0.943725 0.776944 0.274205
0.942504 0.770932 0.291569
0.682887 0.684016 0.221469
0.750118 0.692073 0.178805
0.816312 0.694759 0.149935
0.846952 0.713252 0.165225
0.877073 0.729305 0.181827
0.900481 0.751705 0.213321
0.916747 0.765652 0.239292
0.928252 0.779812 0.275456
0.933410 0.785092 0.289006
0.937011 0.789364 0.301244
0.939757 0.791867 0.308171
0.941131 0.794308 0.314122
0.941863 0.795071 0.317937
0.942351 0.794125 0.316411
0.943145 0.792935 0.305791
0.943938 0.791562 0.291051
0.942626 0.786435 0.307774
0.693416 0.693660 0.208927
0.750912 0.697627 0.171054
0.803433 0.694484 0.146242
0.837156 0.707332 0.155184
0.867002 0.723751 0.170565
0.895171 0.749538 0.202396
0.912535 0.767178 0.237675
0.924743 0.782528 0.278172
0.930083 0.789059 0.298955
0.934142 0.793881 0.313298
0.937652 0.796719 0.322179
0.939941 0.798733 0.328618
0.940887 0.800015 0.336095
0.941314 0.800656 0.339483
0.941497 0.800809 0.340337
0.942016 0.799741 0.332006
0.942504 0.798611 0.322393
0.029969 0.037232 0.077668
0.032471 0.037720 0.077241
0.040162 0.039155 0.077790
0.065919 0.042023 0.080873
0.099275 0.045594 0.084474
0.145113 0.049531 0.083345
0.192569 0.051087 0.083925
0.243412 0.050141 0.087526
0.290867 0.049012 0.090364
0.330907 0.047578 0.092714
0.361761 0.047211 0.090822
0.388647 0.047028 0.092653
0.413062 0.047181 0.094087
0.435187 0.047517 0.095491
