assets/luts/impulz-fuji-pro-400-fpe-rec709-5827f41e.cube
# (C) 2014 VisionColor & Patchflyer [www.vision-color.com]
# Generator: VC Patchmatch v.2.1.1 [64/53]
# All work and no play makes Jack a dull boy.
# LUT generated from: Fuji Pro 400_FPE
LUT_3D_SIZE 9
0.037720 0.043946 0.044038
0.104219 0.055665 0.045380
0.224491 0.072755 0.050538
0.339025 0.092653 0.063478
0.411078 0.112764 0.075288
0.459907 0.132296 0.084810
0.503471 0.155581 0.096742
0.543938 0.180087 0.108339
0.572534 0.193118 0.116304
0.053773 0.105440 0.055848
0.171389 0.149050 0.066499
0.314427 0.194553 0.084504
0.437263 0.238773 0.105074
0.526757 0.281163 0.128908
0.583215 0.306676 0.142153
0.618616 0.316503 0.150057
0.640742 0.314122 0.151949
0.658900 0.310002 0.151949
0.108217 0.230625 0.095033
0.266758 0.295628 0.112856
0.412848 0.356451 0.138674
0.527398 0.402777 0.170413
0.622889 0.449378 0.202823
0.682460 0.469734 0.221256
0.714076 0.470405 0.226413
0.726986 0.454047 0.221256
0.735683 0.433570 0.211460
0.195010 0.357946 0.144869
0.376776 0.425452 0.170321
0.508690 0.483680 0.203006
0.596048 0.522423 0.232090
0.685573 0.550744 0.259525
0.744717 0.566766 0.277317
0.776852 0.566522 0.282933
0.790921 0.555535 0.279911
0.797574 0.537346 0.269230
0.306493 0.465950 0.191775
0.480873 0.529717 0.222843
0.588830 0.573297 0.253330
0.673274 0.609033 0.284245
0.738613 0.630732 0.307286
0.792447 0.639796 0.322393
0.821042 0.639277 0.329686
0.835264 0.632288 0.328954
0.845518 0.618830 0.321416
0.403052 0.542260 0.233951
0.546899 0.591882 0.262791
0.637781 0.624689 0.288701
0.715908 0.655085 0.315373
0.784451 0.679225 0.340002
0.824308 0.691646 0.354986
0.850523 0.689174 0.361364
0.862547 0.685481 0.364355
0.877256 0.681697 0.363745
0.468666 0.598108 0.268406
0.598413 0.640497 0.295018
0.681270 0.667170 0.318090
0.749508 0.689998 0.341466
0.805081 0.710781 0.362524
0.844968 0.724269 0.378058
0.873777 0.735073 0.390509
0.884611 0.731289 0.393835
0.895659 0.727199 0.396765
0.503014 0.632807 0.290898
0.627680 0.671046 0.317815
0.712520 0.696437 0.341222
0.775235 0.715114 0.362066
0.819059 0.731014 0.379309
0.853910 0.745205 0.394568
0.880888 0.756313 0.407202
0.897307 0.764065 0.415656
0.906615 0.764553 0.424170
0.534478 0.662257 0.309209
0.657435 0.698512 0.339391
0.738674 0.721736 0.361700
0.802304 0.740932 0.384344
0.836210 0.753017 0.399084
0.865690 0.765560 0.415137
0.887663 0.776608 0.428229
0.901579 0.784115 0.437568
0.912261 0.790890 0.444190
0.032136 0.041169 0.062348
0.076814 0.047974 0.075441
0.168338 0.061006 0.080140
0.285863 0.076081 0.091646
0.372778 0.088136 0.097841
0.432197 0.099123 0.104372
0.474708 0.114687 0.111513
0.505730 0.124056 0.118410
0.531395 0.134646 0.124636
0.035096 0.086885 0.099306
0.122591 0.116396 0.115785
0.247959 0.142275 0.118868
0.373053 0.171725 0.130892
0.468116 0.193240 0.140871
0.524041 0.208530 0.150271
0.557183 0.210025 0.157778
0.586389 0.216403 0.160067
0.611292 0.222171 0.159335
0.060334 0.197787 0.128603
0.188266 0.244419 0.150515
0.347967 0.300084 0.167452
0.476570 0.334874 0.183566
0.569879 0.362585 0.201114
0.628534 0.374182 0.211490
0.661067 0.370825 0.219272
0.682948 0.357153 0.209018
0.699825 0.350591 0.204105
0.116518 0.322057 0.171176
0.271244 0.375250 0.192020
0.423957 0.431312 0.217319
0.560479 0.480476 0.244694
0.643275 0.490883 0.262058
0.700038 0.500389 0.278172
0.734829 0.495674 0.282902
0.756374 0.486152 0.277989
0.773678 0.471351 0.261234
0.193637 0.435889 0.216709
0.359716 0.483528 0.239628
0.496040 0.528893 0.265324
0.615747 0.571099 0.294713
0.708003 0.598108 0.317784
0.751919 0.597772 0.332555
0.789029 0.599084 0.340795
0.810330 0.590631 0.339269
0.827390 0.579095 0.329046
0.259525 0.511467 0.266606
0.439673 0.558312 0.284825
0.556359 0.594568 0.306676
0.655146 0.627894 0.334478
0.739467 0.654932 0.359594
0.793362 0.669764 0.376654
0.819883 0.661830 0.381048
0.841886 0.660121 0.387213
0.867247 0.658442 0.383795
0.312505 0.567071 0.301457
0.500053 0.615259 0.320348
0.603998 0.646021 0.340368
0.690730 0.673396 0.362768
0.758724 0.693446 0.385657
0.809171 0.710170 0.404456
0.847196 0.722591 0.418677
0.867063 0.719905 0.426825
0.886290 0.717647 0.430304
0.352026 0.604578 0.329473
0.539696 0.653559 0.345403
0.637873 0.680964 0.365850
0.714473 0.702510 0.385748
0.777310 0.720882 0.407202
0.818418 0.736538 0.427008
0.856657 0.750820 0.444160
0.879820 0.761868 0.457740
0.900114 0.764950 0.466926
0.377935 0.631891 0.343023
0.569299 0.684749 0.361700
0.664118 0.711116 0.382147
0.737026 0.730312 0.400153
0.792752 0.746914 0.422126
0.834623 0.761990 0.443336
0.867674 0.777096 0.466163
0.889494 0.788052 0.482124
0.905821 0.797421 0.496223
0.031464 0.041932 0.088319
0.056794 0.045777 0.095583
0.144564 0.058228 0.112001
0.244358 0.073854 0.128542
0.339635 0.086763 0.141176
0.405585 0.096101 0.150240
0.450446 0.104128 0.155642
0.483925 0.110689 0.159091
0.511711 0.114290 0.158175
0.035859 0.079805 0.143069
0.090425 0.096895 0.151003
0.202365 0.113802 0.166567
0.322301 0.138766 0.175357
0.418128 0.154086 0.182467
0.477729 0.161746 0.186160
0.515221 0.164096 0.188998
0.547997 0.165988 0.188083
0.575586 0.170230 0.178470
0.047883 0.167819 0.203342
0.120821 0.201022 0.218540
0.262272 0.235599 0.234348
0.396094 0.268956 0.246616
0.496406 0.285313 0.254215
0.565820 0.291936 0.259403
0.607416 0.289921 0.261753
0.638209 0.276951 0.250370
0.663874 0.278813 0.231052
0.076448 0.294408 0.248661
0.176608 0.332189 0.261570
0.335821 0.377997 0.285374
0.486244 0.428107 0.309758
0.580041 0.441474 0.323186
0.646357 0.446662 0.329686
0.690455 0.443854 0.331884
0.725521 0.428504 0.317113
0.747158 0.412757 0.287633
0.122194 0.406287 0.298711
0.251469 0.449714 0.310674
0.413611 0.493050 0.338628
0.537865 0.529534 0.360418
0.641596 0.559167 0.380743
0.698756 0.558618 0.390295
0.745663 0.561517 0.396338
0.781735 0.547967 0.382757
0.810178 0.535088 0.355352
0.173251 0.492195 0.339025
0.325872 0.536278 0.353460
0.483894 0.574670 0.379431
0.585748 0.603235 0.400458
0.676051 0.630426 0.422248
0.741848 0.647211 0.438788
0.778927 0.640375 0.443488
0.820737 0.641810 0.440497
0.852842 0.639307 0.427680
0.225071 0.551965 0.369940
0.386084 0.596582 0.384710
0.533288 0.632074 0.410986
0.621027 0.655421 0.430518
0.701991 0.679683 0.452399
0.763272 0.697536 0.469795
0.809995 0.710811 0.484840
0.843381 0.707332 0.485664
0.878264 0.714717 0.484077
0.263157 0.591485 0.387518
0.421912 0.634913 0.403815
0.570855 0.674891 0.428931
0.648676 0.693996 0.446082
0.723110 0.716243 0.466224
0.778653 0.733852 0.486183
0.826108 0.750668 0.505516
0.863767 0.764981 0.525170
0.892088 0.769711 0.532189
0.283452 0.618097 0.400916
0.450324 0.666377 0.415747
0.589349 0.705013 0.433875
0.666957 0.724971 0.451331
0.742092 0.745937 0.472969
0.794766 0.762753 0.495399
0.842741 0.780484 0.518730
0.877562 0.796933 0.546014
0.899718 0.808072 0.567163
0.032685 0.044312 0.122530
0.049958 0.044770 0.117067
0.123445 0.056855 0.133333
0.225376 0.072602 0.155428
0.312810 0.084108 0.172824
0.377905 0.093202 0.184848
0.425361 0.101930 0.194369
0.460792 0.108034 0.197726
0.493446 0.112123 0.194797
0.039612 0.082612 0.179690
0.076265 0.089998 0.179477
0.153658 0.097414 0.186282
0.278447 0.122652 0.211673
0.373297 0.138216 0.223667
0.439063 0.145327 0.229892
0.484627 0.149172 0.234012
0.523003 0.150546 0.230259
0.558801 0.152377 0.222507
0.050385 0.154330 0.240482
0.100191 0.177279 0.249393
0.217716 0.214389 0.271641
0.343572 0.232486 0.289799
0.443854 0.245121 0.294041
0.518791 0.251926 0.295689
0.568017 0.252384 0.293126
0.603143 0.238224 0.277592
0.633417 0.233860 0.256413
0.064942 0.258122 0.308507
0.128359 0.302647 0.328588
0.259861 0.347112 0.348730
0.420142 0.388647 0.375921
0.519036 0.401617 0.381964
0.589654 0.406622 0.384131
0.644495 0.398047 0.376471
0.687678 0.380468 0.358526
0.718837 0.357519 0.320592
0.093935 0.382300 0.364080
0.182101 0.425605 0.376440
0.326177 0.468605 0.395972
0.484169 0.501823 0.428717
0.580926 0.529870 0.447700
0.650568 0.533867 0.449836
0.704158 0.531701 0.447883
0.753994 0.520317 0.429816
0.789883 0.492103 0.387762
0.132845 0.473426 0.402991
0.241245 0.518425 0.414038
0.390143 0.555016 0.439216
0.530938 0.585748 0.470771
0.620081 0.610346 0.488350
0.693812 0.631952 0.506249
0.745388 0.630762 0.505913
0.795529 0.627436 0.496681
0.840024 0.620478 0.470527
0.171542 0.543664 0.431891
0.297246 0.580530 0.441230
0.438941 0.615106 0.463142
0.567956 0.642786 0.494270
0.645045 0.664637 0.514763
0.720607 0.689021 0.534386
0.774350 0.704860 0.551080
0.823423 0.706416 0.549401
0.871061 0.711818 0.538750
0.202090 0.586450 0.448432
0.328923 0.622644 0.460395
0.462013 0.657069 0.480964
0.591913 0.690700 0.508812
0.665888 0.710597 0.529168
0.740749 0.734432 0.550195
0.798703 0.754177 0.570733
0.845304 0.770047 0.593774
0.887541 0.777096 0.595941
0.210910 0.610101 0.457282
0.343725 0.651545 0.470405
0.471962 0.686885 0.485390
0.594507 0.719997 0.500816
0.670314 0.739742 0.521202
0.757046 0.766140 0.546258
0.816678 0.786984 0.573663
0.866636 0.808225 0.606439
0.897887 0.823178 0.635950
0.031861 0.042664 0.149905
0.043580 0.042084 0.137514
0.100740 0.052949 0.149020
0.196048 0.069520 0.174319
0.284459 0.081941 0.192630
0.349401 0.090364 0.208408
0.398871 0.098390 0.220401
0.440742 0.106508 0.224430
0.478096 0.112123 0.220951
0.038941 0.077790 0.205814
0.065553 0.083528 0.203098
0.122591 0.089326 0.204959
0.226627 0.110567 0.229465
0.333257 0.128511 0.251469
0.401312 0.136324 0.260380
0.457191 0.141817 0.265690
0.499855 0.145418 0.261906
0.541131 0.147982 0.250736
0.048768 0.143374 0.267643
0.087770 0.174014 0.281682
0.174105 0.193362 0.295659
0.273991 0.203250 0.307378
0.396551 0.223697 0.327733
0.475868 0.232883 0.331456
0.533928 0.235050 0.330205
0.581292 0.225711 0.316960
0.619257 0.216892 0.294743
0.064576 0.244358 0.338628
0.111788 0.281102 0.354101
0.216098 0.325383 0.376440
0.355871 0.358862 0.399359
0.475502 0.374762 0.416663
0.548211 0.376745 0.414466
0.610224 0.368475 0.402045
0.662745 0.351080 0.380926
0.696223 0.319463 0.342992
0.087587 0.364202 0.411658
0.141939 0.408179 0.428626
0.255955 0.447791 0.444160
0.407843 0.483040 0.465217
0.540246 0.513939 0.493080
0.607233 0.512383 0.489815
0.669367 0.508385 0.483925
0.729183 0.489021 0.462043
0.770657 0.451606 0.415747
0.118593 0.466041 0.454566
0.184207 0.503960 0.464698
0.312566 0.539025 0.480751
0.456672 0.567742 0.506218
0.578302 0.594751 0.531853
0.653803 0.618067 0.550225
0.714321 0.614466 0.546593
0.776822 0.608484 0.536156
0.831052 0.600351 0.506310
0.150423 0.538842 0.484108
0.223606 0.568963 0.491035
0.355993 0.602106 0.509270
0.487800 0.628931 0.533623
0.605493 0.658839 0.563195
0.677852 0.681697 0.582238
0.751492 0.705959 0.603510
0.811612 0.705745 0.599970
0.866819 0.713069 0.592157
0.183932 0.588373 0.502434
0.256779 0.613367 0.509331
0.376654 0.643763 0.523278
0.508568 0.677241 0.548424
0.622889 0.709468 0.577935
0.697627 0.731807 0.598901
0.776669 0.760555 0.624262
0.839872 0.781765 0.651362
0.886198 0.785733 0.653925
0.211307 0.626001 0.520012
0.274754 0.645838 0.520989
0.379644 0.674586 0.531731
0.498085 0.706386 0.547204
0.617243 0.739712 0.567376
0.708553 0.765805 0.594049
0.794217 0.793912 0.623438
0.861357 0.821012 0.665187
0.898009 0.838529 0.698146
0.033417 0.044160 0.173342
0.038575 0.041382 0.156497
0.079500 0.049989 0.164004
0.154757 0.064027 0.185519
0.242649 0.078157 0.208316
0.318944 0.088502 0.221195
0.370581 0.096071 0.233982
0.418708 0.102876 0.241398
0.465858 0.110994 0.240513
0.040009 0.079133 0.227085
0.055879 0.086366 0.224765
0.089631 0.080842 0.219211
0.174044 0.099947 0.241886
0.277424 0.119448 0.265415
0.370001 0.133150 0.281224
0.429725 0.138888 0.287297
0.479896 0.140444 0.282963
0.525933 0.145022 0.272282
0.049592 0.147768 0.294957
0.072297 0.165042 0.301885
0.140322 0.190433 0.316838
0.211109 0.186343 0.320256
0.330709 0.206394 0.342626
0.439063 0.220829 0.357580
0.503105 0.223850 0.357305
0.559136 0.216983 0.343420
0.601312 0.208591 0.317418
0.064363 0.243198 0.365148
0.098024 0.277195 0.380926
0.173541 0.307713 0.399481
0.294820 0.335760 0.417304
0.396506 0.342580 0.427558
0.516930 0.364385 0.446448
0.579400 0.355077 0.435645
0.638422 0.339025 0.415747
0.682582 0.314366 0.380438
0.087404 0.356603 0.434852
0.127016 0.386038 0.446357
0.216388 0.419730 0.461341
0.344503 0.455039 0.482063
0.464775 0.479973 0.504448
0.576318 0.496574 0.520684
0.639307 0.488853 0.510460
0.708125 0.472099 0.488472
0.752804 0.429175 0.439948
0.115908 0.462104 0.493874
0.160800 0.494972 0.505974
0.251225 0.524285 0.518822
0.390845 0.553582 0.535088
0.515236 0.581415 0.558740
0.621668 0.609461 0.585382
0.688869 0.608087 0.581781
0.760433 0.601617 0.569146
0.816678 0.574060 0.535576
0.145571 0.539025 0.525872
0.195377 0.561273 0.532372
0.288640 0.588952 0.544244
0.419791 0.615900 0.562036
0.546334 0.647425 0.590112
0.648859 0.676478 0.618219
0.726833 0.703731 0.642359
0.798581 0.708736 0.644221
0.865110 0.716854 0.641535
0.174807 0.591119 0.550439
0.221286 0.607996 0.552239
0.313420 0.635248 0.564416
0.431754 0.665187 0.582361
0.559152 0.699489 0.609918
0.664790 0.729854 0.638911
0.747311 0.756405 0.664515
0.823819 0.784939 0.697597
0.884062 0.794461 0.706691
0.203952 0.631403 0.568536
0.239170 0.644282 0.568383
0.319036 0.668910 0.576959
0.416281 0.698482 0.591485
0.534432 0.732052 0.615290
0.665187 0.768246 0.640284
0.769162 0.799130 0.671382
0.850858 0.829496 0.715633
0.895232 0.849180 0.750820
0.034058 0.045686 0.191257
0.038087 0.040986 0.172702
0.060670 0.046540 0.175692
0.112062 0.057771 0.193790
0.196201 0.073121 0.217929
0.273686 0.084962 0.234501
0.345159 0.094667 0.244724
0.395514 0.100832 0.253971
0.449226 0.107607 0.256565
0.040040 0.081514 0.245945
0.047883 0.085176 0.243687
0.071412 0.079713 0.235050
0.125307 0.093690 0.255344
0.217624 0.109407 0.276158
0.315221 0.124849 0.293858
0.404089 0.136904 0.304448
0.457893 0.137789 0.303380
0.510582 0.140780 0.296605
0.049500 0.153780 0.318029
0.062654 0.168551 0.322759
0.108888 0.181521 0.335149
0.158083 0.174563 0.332738
0.261738 0.190982 0.352667
0.375311 0.206149 0.370459
0.476875 0.218814 0.380591
0.537530 0.210971 0.369543
0.583551 0.200229 0.342809
0.064302 0.252995 0.390936
0.081727 0.268437 0.397925
0.142824 0.294957 0.413153
0.224170 0.307774 0.426978
0.312337 0.304891 0.431037
0.438148 0.325872 0.452033
0.556207 0.347265 0.470192
0.615381 0.328161 0.448249
0.663142 0.302007 0.410163
0.083101 0.355840 0.458351
0.108583 0.373358 0.464759
0.177310 0.400793 0.479469
0.276570 0.425681 0.496040
0.390372 0.445426 0.510857
0.489265 0.453483 0.522545
0.611627 0.479942 0.545800
0.686275 0.465660 0.531670
0.739742 0.427482 0.486671
0.111604 0.451606 0.511315
0.138460 0.468086 0.517449
0.211154 0.487831 0.527367
0.323827 0.520378 0.546868
0.442267 0.545129 0.566339
0.544884 0.571313 0.590875
0.657740 0.595483 0.613245
0.738766 0.593500 0.606806
0.803616 0.564782 0.574731
0.139376 0.535332 0.557855
0.169162 0.550805 0.564569
0.244419 0.576104 0.576806
0.360937 0.602991 0.592859
0.490562 0.637049 0.618708
0.599176 0.668788 0.647669
0.702632 0.704067 0.679805
0.791836 0.716487 0.687007
0.855711 0.709957 0.682185
0.163272 0.585992 0.582116
0.191959 0.598413 0.587243
0.261204 0.623377 0.596735
0.368612 0.653864 0.615595
0.495171 0.690242 0.641505
0.616510 0.725063 0.673243
0.728298 0.761532 0.705440
0.819364 0.795987 0.739834
0.885893 0.801846 0.751949
0.198062 0.633631 0.609644
0.215885 0.639948 0.606500
0.269871 0.661006 0.613489
0.355230 0.689570 0.630335
0.473045 0.726894 0.655055
0.608698 0.766659 0.689540
0.745205 0.805508 0.722774
0.841581 0.838163 0.760739
0.893767 0.859220 0.797574
0.035309 0.047639 0.204685
0.034913 0.042115 0.185916
0.046937 0.045655 0.188602
0.082918 0.054261 0.204746
0.141970 0.065003 0.223484
0.220706 0.078431 0.242863
0.298222 0.089570 0.254704
0.374456 0.099336 0.265538
0.434913 0.106081 0.272068
0.041169 0.089784 0.265385
0.045747 0.087984 0.260533
0.051148 0.073487 0.245731
0.088899 0.082704 0.261601
0.151217 0.093874 0.282475
0.245121 0.110018 0.300664
0.343572 0.125521 0.314916
0.436652 0.137148 0.323125
0.495949 0.139834 0.320439
0.050141 0.164401 0.339452
0.056764 0.163912 0.337255
0.074342 0.165896 0.341863
0.109071 0.148226 0.335271
0.177630 0.161105 0.354955
0.282139 0.174594 0.374548
0.400916 0.192691 0.391546
0.515190 0.209812 0.400946
0.565026 0.194980 0.378820
0.061646 0.253697 0.408942
0.071901 0.258335 0.408972
0.091951 0.263706 0.416968
0.143587 0.260929 0.424109
0.200793 0.251835 0.425757
0.329137 0.273320 0.448157
0.468086 0.299229 0.475074
0.593072 0.326452 0.491554
0.642359 0.293278 0.452583
0.082704 0.352605 0.471748
0.095460 0.356756 0.473457
0.124819 0.361669 0.479652
0.186328 0.371695 0.492500
0.257160 0.372152 0.503990
0.363073 0.378912 0.515648
0.515557 0.414221 0.547417
0.658412 0.456077 0.577935
0.717220 0.415824 0.538781
0.105013 0.441596 0.524468
0.120607 0.441535 0.524193
0.159548 0.456428 0.536309
0.240299 0.478004 0.552666
0.331487 0.495491 0.571984
0.425574 0.506828 0.586999
0.561425 0.534966 0.611414
0.702449 0.581018 0.648341
0.782681 0.557794 0.632227
0.131228 0.515984 0.567285
0.150027 0.523033 0.571008
0.192844 0.533318 0.580835
0.280919 0.561852 0.599939
0.392859 0.596399 0.627619
0.511254 0.629694 0.655116
0.622248 0.658167 0.681147
0.757473 0.703426 0.718837
0.839170 0.695979 0.715297
0.155581 0.579339 0.604456
0.177371 0.587701 0.610224
0.224857 0.608667 0.625605
0.321019 0.641108 0.644648
0.440208 0.680781 0.674342
0.568780 0.720302 0.706752
0.688991 0.759030 0.741024
0.798123 0.796262 0.776364
0.888670 0.816617 0.799252
0.186526 0.624689 0.629816
0.198032 0.630854 0.633021
0.238376 0.652033 0.645106
0.310063 0.680781 0.663050
0.414084 0.720546 0.691585
0.556939 0.763394 0.726040
0.709255 0.805417 0.762020
0.833188 0.844572 0.805661
0.907378 0.873686 0.839323
0.035554 0.052338 0.219577
0.034516 0.040986 0.197452
0.038239 0.042756 0.199466
0.051514 0.047456 0.211337
0.089631 0.054810 0.226322
0.144717 0.063752 0.242557
0.230381 0.078401 0.260899
0.318273 0.091676 0.275639
0.414862 0.103853 0.289738
0.040345 0.088777 0.276951
0.041260 0.083619 0.271702
0.042145 0.067842 0.253300
0.053956 0.072053 0.264012
0.094575 0.080507 0.283146
0.155734 0.089662 0.302098
0.262547 0.108064 0.319707
0.366247 0.125277 0.334661
0.474800 0.140291 0.347845
0.048768 0.166323 0.354620
0.049592 0.150912 0.342870
0.054994 0.140505 0.339574
0.060151 0.120851 0.325536
0.100740 0.127413 0.340917
0.168307 0.135409 0.363592
0.284581 0.153964 0.387732
0.422461 0.178775 0.408087
0.545281 0.206363 0.424292
0.060548 0.248936 0.418860
0.060914 0.235233 0.411872
0.066255 0.216922 0.406683
0.074067 0.196475 0.400458
0.096651 0.182650 0.396307
0.188357 0.203769 0.424506
0.314916 0.228397 0.457221
0.480751 0.264744 0.487648
0.620264 0.305821 0.512139
0.075288 0.338262 0.478767
0.077607 0.322515 0.471595
0.089815 0.311070 0.469612
0.099123 0.291844 0.467536
0.113863 0.271122 0.465950
0.186954 0.268284 0.475563
0.332128 0.308751 0.516381
0.537682 0.371527 0.565179
0.690059 0.419379 0.599145
0.096468 0.416022 0.526390
0.098787 0.404089 0.521324
0.115419 0.400580 0.526055
0.138094 0.399176 0.534295
0.165621 0.397803 0.545739
0.234073 0.393469 0.553246
0.356878 0.413153 0.578027
0.585290 0.496788 0.635981
0.751919 0.545037 0.677791
0.120729 0.490761 0.570306
0.124727 0.483436 0.568048
0.151186 0.489815 0.577722
0.186648 0.504021 0.594202
0.249851 0.527276 0.617670
0.343847 0.557366 0.646052
0.460395 0.582818 0.670619
0.631464 0.631525 0.705257
0.815061 0.679957 0.749660
0.146395 0.553491 0.608057
0.152865 0.554742 0.610773
0.183902 0.569238 0.623743
0.237675 0.599908 0.647639
0.328710 0.640772 0.678767
0.456123 0.684810 0.713649
0.595209 0.722713 0.746548
0.740871 0.766079 0.782437
0.875456 0.809293 0.822934
0.173861 0.611841 0.643732
0.184237 0.618982 0.650263
0.219760 0.640223 0.666438
0.282933 0.673426 0.689113
0.383108 0.714992 0.718807
0.520745 0.760159 0.752743
0.669734 0.805692 0.791867
0.807980 0.845792 0.831724
0.929107 0.894743 0.888395
