assets/luts/impulz-kodak-ultramax-400-fpe-log-0cf8f1a9.cube
# (C) 2014 VisionColor & Patchflyer [www.vision-color.com]
# Generator: VC Patchmatch v.2.1.1 [64/53]
# All work and no play makes Jack a dull boy.
# LUT generated from: Kodak Ultramax 400_FPE
LUT_3D_SIZE 17
0.032502 0.036225 0.035950
0.035981 0.038361 0.039185
0.047395 0.038331 0.037079
0.062837 0.039979 0.036530
0.084504 0.042390 0.036408
0.116426 0.046632 0.038911
0.152895 0.048737 0.039246
0.194034 0.048646 0.039521
0.236179 0.048310 0.040162
0.279728 0.046815 0.041047
0.320806 0.045319 0.042420
0.358770 0.044709 0.043702
0.394263 0.045228 0.045411
0.426520 0.046113 0.046998
0.453712 0.047456 0.048798
0.477974 0.049073 0.050996
0.504784 0.051575 0.057282
0.034394 0.041688 0.039826
0.037995 0.040894 0.038575
0.050385 0.041535 0.036927
0.082429 0.050202 0.037140
0.119844 0.058106 0.037201
0.157473 0.062654 0.039277
0.195773 0.063630 0.039765
0.244236 0.066072 0.040375
0.289799 0.065766 0.041779
0.334783 0.064912 0.043214
0.371160 0.061158 0.044831
0.405280 0.058900 0.046265
0.436835 0.056458 0.047913
0.459632 0.052216 0.048981
0.483803 0.052216 0.050507
0.500023 0.051545 0.052003
0.529564 0.056275 0.057862
0.037354 0.050904 0.038911
0.042725 0.051148 0.038056
0.073793 0.060487 0.038209
0.105592 0.067048 0.038209
0.148653 0.073854 0.038117
0.203586 0.087007 0.039551
0.257969 0.092775 0.040986
0.306279 0.092226 0.042054
0.352514 0.091554 0.043549
0.393103 0.091035 0.045350
0.430213 0.088655 0.047486
0.460029 0.081392 0.049226
0.484077 0.074708 0.050416
0.505486 0.068544 0.051453
0.521752 0.064240 0.052155
0.537194 0.062165 0.053162
0.565637 0.069368 0.058473
0.043824 0.067292 0.039338
0.063813 0.075441 0.039155
0.096101 0.086091 0.039216
0.138064 0.095338 0.039094
0.191043 0.110445 0.039063
0.249607 0.118898 0.040284
0.306172 0.125032 0.042329
0.364797 0.135348 0.044434
0.414878 0.141268 0.046235
0.457496 0.142275 0.047974
0.487404 0.132479 0.049470
0.518608 0.128298 0.051392
0.544671 0.120668 0.053071
0.566155 0.109834 0.054139
0.580987 0.100557 0.054749
0.595209 0.094850 0.055665
0.622950 0.112551 0.060731
0.058534 0.091859 0.040314
0.090517 0.107515 0.040070
0.126070 0.121798 0.039826
0.183017 0.135225 0.039948
0.232425 0.145998 0.040040
0.296468 0.161471 0.041413
0.359854 0.174380 0.043977
0.419364 0.183078 0.046601
0.470726 0.189670 0.048890
0.517540 0.199435 0.051759
0.551080 0.198550 0.053681
0.576440 0.187442 0.054444
0.601251 0.176455 0.056153
0.624689 0.168978 0.057710
0.642786 0.160128 0.058900
0.658137 0.154788 0.059876
0.680934 0.172183 0.064332
0.091737 0.135073 0.040650
0.131930 0.154421 0.039979
0.176669 0.172457 0.039704
0.235294 0.192111 0.040620
0.292134 0.203708 0.041627
0.351553 0.213230 0.042908
0.411734 0.228031 0.046510
0.471611 0.241001 0.050507
0.531960 0.258457 0.054688
0.579705 0.267430 0.057496
0.612634 0.266880 0.059236
0.639002 0.261753 0.060975
0.661677 0.251957 0.061677
0.684535 0.244022 0.062989
0.703212 0.233829 0.063935
0.714199 0.224918 0.065034
0.728206 0.237003 0.068818
0.158236 0.199924 0.039216
0.196216 0.218723 0.039796
0.242908 0.239170 0.040986
0.293599 0.257389 0.042542
0.356435 0.274266 0.045899
0.415641 0.284825 0.048219
0.466575 0.290745 0.050996
0.522560 0.298939 0.054383
0.578134 0.312596 0.059022
0.628168 0.327764 0.064851
0.667262 0.335851 0.068940
0.693629 0.331029 0.070314
0.715572 0.320928 0.070741
0.733303 0.310491 0.071412
0.749172 0.299931 0.072328
0.757809 0.288182 0.071962
0.767514 0.294621 0.074403
0.240925 0.270329 0.041230
0.272358 0.286290 0.042267
0.311421 0.306767 0.044770
0.360433 0.325002 0.047486
0.412833 0.339742 0.051087
0.475578 0.354696 0.056519
0.526162 0.361685 0.059846
0.576089 0.370230 0.064942
0.632059 0.385473 0.070619
0.675654 0.391424 0.074037
0.715328 0.399329 0.078553
0.744991 0.400275 0.082307
0.764706 0.390906 0.083131
0.781460 0.379370 0.083223
0.792813 0.364691 0.082185
0.795956 0.349065 0.080690
0.798642 0.346227 0.081422
0.318288 0.332860 0.045563
0.343069 0.347280 0.047242
0.373068 0.366033 0.049897
0.416495 0.383612 0.053712
0.466697 0.399329 0.057557
0.529732 0.416022 0.065064
0.581491 0.426429 0.069825
0.633219 0.436713 0.076234
0.674998 0.444465 0.080934
0.716884 0.447883 0.086061
0.751492 0.451728 0.089326
0.782528 0.454292 0.092866
0.804074 0.447944 0.094484
0.817197 0.436835 0.094667
0.824399 0.421729 0.093538
0.827115 0.405524 0.091463
0.827543 0.397406 0.090486
0.388983 0.388434 0.051209
0.404913 0.401801 0.053376
0.429114 0.418463 0.056153
0.468849 0.434607 0.060731
0.512932 0.449073 0.065553
0.573449 0.465705 0.073335
0.625940 0.478157 0.080415
0.677363 0.488533 0.087739
0.718013 0.495888 0.093141
0.755657 0.503471 0.098268
0.787961 0.501427 0.101381
0.813779 0.499886 0.104128
0.833768 0.495521 0.105837
0.848264 0.487434 0.106477
0.852506 0.472389 0.104311
0.852293 0.455207 0.101930
0.850645 0.444495 0.099947
0.442847 0.432441 0.057496
0.456153 0.445991 0.060212
0.475624 0.460121 0.063416
0.511742 0.475471 0.068055
0.555444 0.489113 0.073823
0.603021 0.501427 0.080323
0.657069 0.514092 0.089021
0.707729 0.524804 0.096925
0.748379 0.531151 0.102937
0.785855 0.537011 0.108186
0.818906 0.541039 0.112703
0.844541 0.539940 0.115358
0.859251 0.534264 0.116152
0.868437 0.526574 0.116243
0.873411 0.514763 0.114809
0.873106 0.498939 0.111849
0.871946 0.488960 0.110048
0.471534 0.466133 0.063478
0.486732 0.478462 0.066346
0.509331 0.491737 0.069978
0.540032 0.504723 0.074250
0.584710 0.517723 0.080568
0.633967 0.530755 0.087831
0.680964 0.541588 0.095766
0.732143 0.552819 0.104616
0.773526 0.560204 0.111421
0.809354 0.564599 0.116640
0.841398 0.568170 0.120943
0.862119 0.568963 0.123781
0.876005 0.563317 0.124331
0.885893 0.558160 0.124849
0.889982 0.549340 0.123690
0.888975 0.536492 0.121248
0.889403 0.526970 0.119478
0.474525 0.492470 0.067445
0.493538 0.502922 0.070375
0.521904 0.515648 0.074464
0.556878 0.529076 0.079438
0.602472 0.541375 0.085756
0.657038 0.555840 0.094179
0.704402 0.566857 0.102205
0.752194 0.576745 0.110780
0.795102 0.585626 0.118624
0.829190 0.590112 0.124514
0.855161 0.591363 0.127840
0.876677 0.592004 0.130678
0.890776 0.592432 0.132692
0.899138 0.588983 0.133486
0.902037 0.581109 0.132174
0.902403 0.570703 0.130098
0.901732 0.562463 0.128542
0.461799 0.512871 0.069490
0.485481 0.522789 0.072694
0.522423 0.535119 0.077516
0.562707 0.548516 0.083070
0.608270 0.560845 0.089357
0.669184 0.576379 0.098726
0.720485 0.588251 0.107546
0.771298 0.598993 0.116670
0.812497 0.606867 0.124483
0.847868 0.612573 0.131136
0.871122 0.613855 0.134920
0.891966 0.614801 0.137728
0.901457 0.613886 0.139071
0.910948 0.614008 0.140627
0.912596 0.607263 0.139467
0.913146 0.601984 0.138582
0.911864 0.595422 0.137301
0.439429 0.528283 0.070436
0.475929 0.538933 0.074586
0.515038 0.551202 0.079530
0.564202 0.564965 0.085908
0.616175 0.578668 0.093263
0.678981 0.594751 0.102907
0.731716 0.607385 0.111971
0.783322 0.618647 0.121279
0.823911 0.626032 0.129244
0.858183 0.632013 0.136110
0.880522 0.633722 0.140230
0.898558 0.633661 0.142947
0.908324 0.630549 0.143862
0.915801 0.631342 0.145296
0.921874 0.632807 0.146700
0.921904 0.628351 0.145846
0.921263 0.623285 0.144839
0.405493 0.536400 0.069642
0.454688 0.549889 0.074952
0.503502 0.563317 0.080598
0.557824 0.577722 0.087465
0.617914 0.593042 0.095979
0.681422 0.609033 0.105562
0.735348 0.621973 0.114900
0.784298 0.632868 0.123659
0.826139 0.640345 0.131685
0.859648 0.646052 0.138338
0.886625 0.650080 0.143709
0.901091 0.650568 0.146761
0.911711 0.649348 0.148623
0.917937 0.645533 0.148775
0.923430 0.646052 0.149874
0.927337 0.649012 0.151308
0.927642 0.645411 0.150759
0.362860 0.535851 0.067597
0.425574 0.553033 0.073793
0.487953 0.569970 0.080598
0.548516 0.586236 0.088167
0.616815 0.604028 0.097932
0.683406 0.620752 0.107973
0.736568 0.633844 0.117006
0.783627 0.644495 0.125399
0.824216 0.652461 0.133059
0.856962 0.657862 0.139590
0.884001 0.661921 0.145083
0.898497 0.663722 0.148318
0.908965 0.663386 0.150729
0.916564 0.661494 0.152010
0.923003 0.657954 0.152438
0.927428 0.659022 0.153475
0.930541 0.661463 0.154635
0.032258 0.037659 0.042542
0.034577 0.038392 0.043397
0.045655 0.038483 0.041962
0.064149 0.040436 0.045808
0.089845 0.043244 0.049500
0.124208 0.047272 0.051820
0.162173 0.049317 0.051942
0.204349 0.049165 0.054353
0.245121 0.048951 0.055787
0.286503 0.047608 0.057099
0.325658 0.046387 0.056794
0.362005 0.045808 0.057282
0.397009 0.046174 0.058930
0.429206 0.046662 0.059266
0.456550 0.047913 0.060670
0.481147 0.049348 0.061799
0.507683 0.051881 0.070954
0.033265 0.041474 0.044648
0.039002 0.046845 0.049470
0.056794 0.050080 0.049500
0.084443 0.050690 0.045960
0.114717 0.052522 0.045319
0.150668 0.053071 0.043763
0.190982 0.055055 0.044068
0.235111 0.054261 0.044831
0.276646 0.049744 0.043427
0.318364 0.047547 0.044038
0.357183 0.045258 0.044373
0.392340 0.045838 0.046174
0.423621 0.046174 0.047242
0.450935 0.047395 0.048585
0.476326 0.048920 0.050721
0.504173 0.052796 0.058320
0.537072 0.059724 0.071321
0.036011 0.051698 0.044312
0.047059 0.060853 0.049439
0.087312 0.073487 0.050355
0.117678 0.073213 0.046784
0.166384 0.080385 0.045930
0.217533 0.086458 0.044617
0.265538 0.086915 0.045472
0.303716 0.080446 0.046448
0.346349 0.078614 0.045319
0.381323 0.071534 0.046815
0.419440 0.068574 0.047547
0.447700 0.062959 0.049500
0.470863 0.058656 0.049958
0.490333 0.054841 0.050538
0.508080 0.053559 0.051698
0.535088 0.057832 0.059022
0.568109 0.069093 0.071595
0.040803 0.073762 0.049805
0.060365 0.087037 0.048096
0.102846 0.102419 0.048371
0.166629 0.118990 0.048737
0.218509 0.122927 0.046876
0.277424 0.123629 0.044953
0.341497 0.132998 0.045869
0.384985 0.132723 0.047547
0.422446 0.123171 0.047852
0.456306 0.114290 0.049348
0.485451 0.103975 0.050477
0.511620 0.098787 0.052308
0.525231 0.081697 0.052399
0.536217 0.072847 0.052491
0.552178 0.069734 0.053620
0.579767 0.085420 0.060578
0.617700 0.111635 0.073365
0.053681 0.104097 0.053559
0.090242 0.128756 0.045686
0.143435 0.152041 0.045808
0.205570 0.168429 0.047333
0.282490 0.185031 0.048280
0.346395 0.193851 0.046571
0.418997 0.197818 0.047272
0.460197 0.194217 0.050233
0.499535 0.192660 0.051759
0.528862 0.184817 0.052766
0.557702 0.174136 0.053742
0.576593 0.156954 0.054810
0.595483 0.144717 0.055909
0.609949 0.131777 0.056611
0.623774 0.125704 0.057588
0.647730 0.137240 0.064179
0.675044 0.168612 0.075532
0.082979 0.149722 0.056153
0.143221 0.186191 0.043275
0.197314 0.210849 0.044038
0.259663 0.232456 0.045045
0.339803 0.249348 0.047364
0.415274 0.264515 0.049500
0.487083 0.274632 0.052796
0.530922 0.272526 0.055390
0.571572 0.268803 0.057313
0.600488 0.259632 0.058350
0.626123 0.250797 0.060029
0.647211 0.239963 0.061646
0.664393 0.221836 0.061158
0.677119 0.202914 0.061738
0.688869 0.194919 0.062806
0.703120 0.205020 0.067597
0.726101 0.237064 0.078157
0.138918 0.208255 0.053132
0.226429 0.261784 0.040528
0.278828 0.287022 0.042878
0.339010 0.310704 0.045991
0.417014 0.333989 0.051362
0.488518 0.348669 0.056001
0.560647 0.362890 0.061341
0.597940 0.354437 0.063966
0.636912 0.350011 0.067384
0.670985 0.348623 0.070558
0.698512 0.340581 0.071839
0.714412 0.323110 0.070771
0.728939 0.307912 0.070924
0.736721 0.286732 0.069520
0.746731 0.276432 0.070069
0.756741 0.277928 0.072541
0.767269 0.296849 0.080995
0.213474 0.273259 0.052644
0.308217 0.328099 0.044831
0.345937 0.350164 0.047669
0.397696 0.372137 0.051789
0.457084 0.390784 0.056672
0.531472 0.408820 0.064729
0.600992 0.422889 0.070954
0.655955 0.433570 0.077211
0.693126 0.426795 0.079835
0.721798 0.418326 0.081483
0.752499 0.413428 0.085115
0.772091 0.402243 0.085847
0.782650 0.383902 0.084016
0.789059 0.361868 0.081880
0.790005 0.343694 0.079835
0.792233 0.335576 0.080049
0.798978 0.347936 0.086030
0.278325 0.330480 0.053864
0.376364 0.382391 0.050446
0.403815 0.401465 0.053223
0.443091 0.421851 0.058076
0.500023 0.440284 0.063905
0.565927 0.457557 0.071809
0.637430 0.474281 0.081483
0.692882 0.485328 0.088594
0.739971 0.492103 0.094850
0.769100 0.483665 0.097108
0.800992 0.481361 0.099825
0.821317 0.472236 0.100191
0.828855 0.455375 0.098970
0.828611 0.430869 0.095125
0.828702 0.410925 0.092317
0.827482 0.396094 0.090028
0.827604 0.397772 0.092653
0.335119 0.383093 0.052918
0.428687 0.427100 0.056855
0.449195 0.443854 0.059907
0.483101 0.461830 0.064576
0.534630 0.479072 0.071229
0.596368 0.496101 0.079042
0.664424 0.512139 0.089723
0.718898 0.522942 0.097932
0.767147 0.530388 0.105074
0.805173 0.535180 0.110140
0.832944 0.527214 0.111849
0.849454 0.518456 0.112154
0.859556 0.506767 0.111299
0.861082 0.487007 0.108217
0.857969 0.467781 0.104494
0.854551 0.451057 0.101717
0.851774 0.444862 0.101076
0.379461 0.424964 0.056184
0.464271 0.463478 0.062776
0.484474 0.478065 0.066316
0.513481 0.494484 0.070710
0.567132 0.511650 0.078187
0.621637 0.526665 0.086091
0.687495 0.542535 0.096834
0.741024 0.553765 0.105837
0.791989 0.563134 0.114290
0.828946 0.566125 0.119265
0.862547 0.568505 0.123629
0.875090 0.559228 0.123537
0.879881 0.547692 0.121950
0.882109 0.532158 0.119234
0.881712 0.516442 0.116274
0.878294 0.500298 0.112886
0.874723 0.491463 0.111330
0.400244 0.454871 0.059205
0.478340 0.492439 0.067659
0.504021 0.506371 0.071595
0.536980 0.520989 0.076448
0.590448 0.537835 0.083986
0.647700 0.553094 0.092927
0.707485 0.567681 0.102785
0.761105 0.578698 0.112367
0.810941 0.588006 0.121004
0.849943 0.592828 0.127169
0.878721 0.594568 0.131289
0.894316 0.593774 0.133577
0.898161 0.582238 0.131746
0.897337 0.569238 0.129000
0.898192 0.558648 0.127108
0.895384 0.543450 0.123842
0.895689 0.535607 0.122164
0.404089 0.479194 0.062440
0.466957 0.514427 0.070192
0.499214 0.527184 0.074495
0.541466 0.541711 0.080201
0.593317 0.556573 0.087312
0.658473 0.573754 0.097353
0.722957 0.589837 0.108003
0.774746 0.600336 0.117342
0.823301 0.609644 0.126589
0.861295 0.615045 0.133455
0.886412 0.616083 0.137301
0.902647 0.615106 0.139559
0.911589 0.614435 0.140871
0.910979 0.603296 0.138491
0.910735 0.593561 0.136355
0.909056 0.580682 0.133516
0.907073 0.573419 0.131960
0.389197 0.497597 0.063844
0.439338 0.528191 0.070344
0.477943 0.540520 0.075166
0.530694 0.555779 0.081575
0.588159 0.571710 0.089326
0.655726 0.588922 0.099336
0.725399 0.606317 0.110842
0.779080 0.617578 0.120455
0.827176 0.626398 0.129702
0.865324 0.633021 0.137392
0.889250 0.634791 0.141756
0.904845 0.633021 0.143771
0.914488 0.632105 0.145235
0.921233 0.632746 0.146578
0.919768 0.624140 0.144594
0.919707 0.616053 0.143130
0.917266 0.609644 0.141634
0.366644 0.510582 0.064454
0.405341 0.534539 0.069459
0.452308 0.547997 0.074922
0.518334 0.565789 0.082277
0.584497 0.583856 0.091035
0.652430 0.601465 0.101076
0.722744 0.618982 0.112520
0.778500 0.631159 0.122530
0.827115 0.640558 0.131838
0.864164 0.646906 0.139345
0.890501 0.650507 0.144747
0.905974 0.650446 0.147738
0.916106 0.647486 0.148867
0.922423 0.647486 0.150118
0.927764 0.649531 0.151553
0.926635 0.641443 0.149813
0.925597 0.634974 0.148318
0.337957 0.519249 0.064546
0.373999 0.538140 0.068513
0.439826 0.555932 0.075349
0.507561 0.574029 0.082795
0.583795 0.594812 0.093080
0.653956 0.613092 0.103517
0.723903 0.630823 0.114961
0.774899 0.642603 0.123964
0.823789 0.652430 0.133028
0.859434 0.658412 0.140108
0.888579 0.662989 0.146090
0.902953 0.663996 0.149630
0.914153 0.663142 0.151888
0.922820 0.660395 0.153079
0.927611 0.660945 0.154086
0.931548 0.663386 0.155428
0.930785 0.656519 0.153750
0.309178 0.522515 0.064210
0.352331 0.539940 0.067933
0.430396 0.561486 0.075898
0.506981 0.582391 0.084443
0.587213 0.604608 0.095613
0.658381 0.623804 0.106874
0.726894 0.641505 0.118166
0.773709 0.652735 0.126375
0.816678 0.662043 0.134127
0.851987 0.667811 0.140719
0.878569 0.671778 0.145846
0.897734 0.674128 0.149691
0.908385 0.674128 0.152316
0.917235 0.672786 0.154086
0.924773 0.669856 0.155184
0.929595 0.670619 0.156374
0.933074 0.672511 0.157412
0.030030 0.036561 0.054597
0.031983 0.037079 0.055329
0.042603 0.039002 0.057618
0.063264 0.040803 0.059449
0.092195 0.044099 0.063447
0.129335 0.047333 0.068666
0.171237 0.049653 0.073152
0.213687 0.049378 0.074037
0.255070 0.049104 0.075257
0.292973 0.047944 0.076173
0.329961 0.046937 0.076905
0.365881 0.046418 0.076753
0.400275 0.046632 0.076478
0.431830 0.047120 0.076875
0.458595 0.048005 0.077455
0.483070 0.049317 0.079774
0.509361 0.052338 0.090455
0.030823 0.040436 0.056916
0.039429 0.047150 0.065492
0.054200 0.049897 0.068971
0.083680 0.051026 0.064485
0.119997 0.053315 0.065980
0.159670 0.053956 0.067994
0.204196 0.055756 0.068757
0.247013 0.054719 0.066072
0.286168 0.050172 0.065583
0.323644 0.048493 0.064179
0.361395 0.046326 0.064851
0.396612 0.046876 0.064149
0.427283 0.046998 0.063813
0.454322 0.047913 0.064271
0.479316 0.049012 0.066468
0.507042 0.052888 0.074617
0.539300 0.060395 0.090181
0.031342 0.057862 0.064454
0.040711 0.070039 0.075593
0.068940 0.075227 0.077546
0.104402 0.078431 0.074189
0.148074 0.079164 0.070069
0.191714 0.077699 0.066835
0.237034 0.073060 0.061982
0.280156 0.069825 0.059632
0.322087 0.065919 0.058503
0.358801 0.056062 0.052735
0.394812 0.052888 0.052216
0.426184 0.049287 0.050996
0.455787 0.050050 0.053162
0.477638 0.049592 0.053010
0.501884 0.051423 0.057099
0.533898 0.057923 0.069551
0.579828 0.089601 0.100649
0.036225 0.082460 0.067475
0.054108 0.098756 0.071778
0.087770 0.108064 0.074189
0.155642 0.126680 0.075654
0.205264 0.125246 0.070558
0.266850 0.128176 0.066804
0.321080 0.129488 0.062837
0.368444 0.125093 0.060243
0.402533 0.109468 0.060517
0.438178 0.102663 0.055238
0.463325 0.086122 0.055055
0.490089 0.078584 0.053590
0.507042 0.064027 0.055482
0.521080 0.059846 0.054688
0.544121 0.063569 0.058045
0.579797 0.090394 0.070710
0.626825 0.129610 0.102296
0.049226 0.116365 0.070741
0.078431 0.143923 0.072541
0.125551 0.158968 0.070283
0.194339 0.180179 0.071778
0.275242 0.199252 0.075410
0.340688 0.198489 0.068605
0.401785 0.192966 0.062684
0.455589 0.194095 0.059663
0.491600 0.186984 0.061097
0.521691 0.170871 0.058259
0.544793 0.151263 0.057984
0.563348 0.128298 0.056825
0.575677 0.115023 0.058503
0.583734 0.094575 0.056825
0.601007 0.094545 0.059693
0.630518 0.121248 0.071565
0.673335 0.182712 0.105318
0.072236 0.162142 0.077760
0.117678 0.197574 0.070924
0.179782 0.221042 0.060853
0.253117 0.249119 0.062776
0.329885 0.266636 0.068452
0.419516 0.286107 0.070863
0.479393 0.283940 0.065431
0.542062 0.282933 0.061006
0.577371 0.271855 0.064210
0.604608 0.258228 0.063172
0.623682 0.239765 0.062654
0.643122 0.218006 0.061524
0.656062 0.193622 0.062837
0.663111 0.174899 0.062135
0.674189 0.174289 0.064607
0.693416 0.198703 0.074372
0.729580 0.255070 0.106538
0.115206 0.216678 0.078614
0.184298 0.266789 0.067994
0.255665 0.292210 0.055055
0.318166 0.319463 0.058747
0.392294 0.341680 0.063600
0.475731 0.358297 0.068086
0.556802 0.375967 0.072450
0.611399 0.369909 0.070588
0.650156 0.363500 0.073823
0.681758 0.350210 0.073182
0.700648 0.330495 0.072084
0.714107 0.307637 0.070588
0.725185 0.283680 0.071473
0.730831 0.262135 0.069154
0.738552 0.256382 0.070985
0.748409 0.270665 0.079225
0.767117 0.311772 0.108003
0.171878 0.275303 0.073793
0.251652 0.325414 0.059236
0.335851 0.361456 0.049378
0.391302 0.387854 0.054505
0.456138 0.411017 0.060761
0.538582 0.429877 0.070130
0.610361 0.443763 0.077546
0.681102 0.459052 0.084932
0.715068 0.448188 0.087251
0.747158 0.437247 0.088045
0.767086 0.420798 0.088167
0.782193 0.400565 0.086519
0.789273 0.371664 0.083192
0.787503 0.345724 0.080201
0.785489 0.329870 0.079103
0.790982 0.337926 0.085878
0.803128 0.367651 0.108095
0.230625 0.329747 0.069490
0.316930 0.377813 0.059236
0.400732 0.413214 0.056306
0.436225 0.435981 0.061372
0.497780 0.458686 0.068879
0.568124 0.476173 0.077394
0.645579 0.493263 0.088991
0.713390 0.506645 0.096712
0.762585 0.513146 0.102815
0.795468 0.504341 0.103731
0.816312 0.491691 0.103700
0.829831 0.473106 0.102358
0.834379 0.445365 0.098970
0.830228 0.417929 0.093660
0.826780 0.399802 0.091493
0.824399 0.395544 0.093996
0.828824 0.413001 0.109102
0.282139 0.379400 0.065675
0.358770 0.419013 0.059815
0.438849 0.451789 0.060456
0.467994 0.471199 0.065034
0.525048 0.492622 0.072847
0.595270 0.511742 0.082002
0.668269 0.529015 0.093172
0.738552 0.543572 0.103975
0.789731 0.551232 0.111391
0.833219 0.556817 0.117952
0.853819 0.545342 0.118257
0.868101 0.533288 0.117830
0.872496 0.511131 0.114107
0.867643 0.486030 0.109102
0.858915 0.462409 0.103975
0.855375 0.454994 0.105074
0.855131 0.461463 0.114900
0.311925 0.417182 0.062135
0.378241 0.449470 0.058839
0.457588 0.483253 0.065187
0.488533 0.500542 0.069947
0.545556 0.520195 0.077485
0.615534 0.539696 0.087922
0.685206 0.556329 0.098940
0.754360 0.570947 0.110506
0.806088 0.579492 0.118990
0.850431 0.585657 0.126101
0.878721 0.586267 0.129854
0.889372 0.574029 0.129091
0.892058 0.556786 0.125856
0.891020 0.536980 0.121553
0.884703 0.517174 0.117128
0.880034 0.505638 0.115358
0.876921 0.505669 0.121492
0.320623 0.442695 0.061494
0.381689 0.473487 0.060975
0.456733 0.507317 0.068452
0.498054 0.523400 0.073976
0.552331 0.541894 0.081147
0.630091 0.562646 0.092592
0.699916 0.579980 0.104036
0.770748 0.595758 0.116579
0.820981 0.604425 0.125582
0.867063 0.610864 0.133364
0.890806 0.611627 0.137057
0.907866 0.610834 0.139590
0.908934 0.596185 0.136690
0.906584 0.582238 0.133486
0.903532 0.565454 0.129488
0.900572 0.554253 0.127504
0.896757 0.548577 0.128481
0.315618 0.461494 0.058412
0.370336 0.492439 0.062440
0.440528 0.527062 0.070161
0.492744 0.543481 0.076570
0.552361 0.561090 0.084291
0.632654 0.581964 0.095705
0.707973 0.600702 0.108034
0.781430 0.618128 0.120882
0.831388 0.627253 0.130861
0.875273 0.634058 0.139254
0.897612 0.634577 0.143160
0.913451 0.633936 0.145663
0.922026 0.632105 0.146731
0.919768 0.619837 0.143801
0.916503 0.606653 0.140444
0.913512 0.594232 0.137667
0.908080 0.588464 0.137270
0.303960 0.478431 0.059266
0.350469 0.506828 0.063203
0.405737 0.535760 0.069520
0.468635 0.553033 0.076509
0.541192 0.572869 0.085389
0.621149 0.593683 0.096132
0.701900 0.613581 0.109285
0.776181 0.631251 0.122164
0.828885 0.641016 0.132296
0.871275 0.648524 0.140932
0.897551 0.651240 0.146181
0.912688 0.650477 0.148989
0.921965 0.648432 0.150210
0.927916 0.648920 0.151461
0.925841 0.638697 0.149020
0.924529 0.630945 0.147646
0.917998 0.621912 0.145602
0.285100 0.491249 0.059052
0.322606 0.513939 0.062989
0.372747 0.537652 0.068360
0.444923 0.557061 0.075929
0.533532 0.581415 0.086213
0.617884 0.603967 0.097902
0.696773 0.624079 0.110506
0.767819 0.641230 0.122805
0.820584 0.651514 0.132845
0.863188 0.659022 0.141024
0.891417 0.663447 0.147127
0.907958 0.663539 0.150271
0.918517 0.661067 0.152041
0.925200 0.661128 0.153536
0.931121 0.663294 0.155123
0.929534 0.654108 0.153017
0.926726 0.646815 0.151400
0.266850 0.500694 0.059785
0.309300 0.521691 0.064057
0.364630 0.542840 0.068910
0.444831 0.564599 0.077302
0.538689 0.591150 0.088716
0.625025 0.615198 0.101717
0.701900 0.635279 0.114260
0.759945 0.649714 0.124514
0.810300 0.660151 0.133516
0.851255 0.667628 0.141085
0.882658 0.672602 0.146914
0.900908 0.674525 0.150973
0.912902 0.673457 0.153414
0.921904 0.670863 0.154879
0.929137 0.672053 0.156558
0.933776 0.674678 0.158022
0.931304 0.665766 0.155764
0.250553 0.507012 0.060822
0.300481 0.527642 0.064973
0.373297 0.552209 0.071412
0.461219 0.576837 0.081910
0.553826 0.603174 0.093599
0.633844 0.626947 0.107729
0.703914 0.646052 0.120058
0.756924 0.659663 0.129885
0.798459 0.668574 0.136782
0.838132 0.675837 0.143130
0.867582 0.680385 0.147311
0.890410 0.682948 0.150637
0.901915 0.681422 0.152499
0.911986 0.679683 0.154269
0.922026 0.676875 0.155856
0.928466 0.678431 0.157412
0.934051 0.681514 0.159060
0.029694 0.036439 0.072602
0.032288 0.036988 0.073091
0.039246 0.038392 0.074220
0.061555 0.040803 0.078309
0.091341 0.044068 0.085115
0.130922 0.047059 0.087922
0.173373 0.049226 0.092256
0.217197 0.048554 0.096132
0.259556 0.047913 0.099825
0.297551 0.046815 0.101472
0.332616 0.046143 0.100862
0.368231 0.045869 0.103944
0.401465 0.046204 0.105440
0.432502 0.046754 0.105470
