assets/luts/impulz-fuji-pro-400-fc-rec-709-f3cf82bb.cube
# (C) 2014 VisionColor & Patchflyer [www.vision-color.com]
# Generator: VC Patchmatch v.2.1.1 [64/53]
# All work and no play makes Jack a dull boy.
# LUT generated from: Fuji Pro 400_FC
LUT_3D_SIZE 5
0.036133 0.037201 0.035523
0.288457 0.055970 0.048798
0.524041 0.101381 0.083467
0.622797 0.142275 0.109071
0.704433 0.177249 0.130129
0.110506 0.269718 0.069490
0.323705 0.331365 0.115053
0.556725 0.424445 0.173800
0.689754 0.448463 0.197391
0.759945 0.405890 0.192996
0.252110 0.547753 0.152010
0.477211 0.618219 0.202426
0.638422 0.665431 0.240848
0.764981 0.667536 0.262547
0.830259 0.639796 0.262364
0.372747 0.731136 0.211765
0.572992 0.766995 0.251041
0.718990 0.801053 0.283909
0.824887 0.820127 0.305364
0.870939 0.804532 0.314336
0.431464 0.845792 0.243687
0.640772 0.858030 0.286381
0.765835 0.870115 0.315038
0.850187 0.886625 0.339147
0.889494 0.898558 0.352514
0.032776 0.035309 0.151156
0.186465 0.038239 0.146334
0.424872 0.070314 0.165347
0.581018 0.094148 0.177646
0.682704 0.108797 0.180941
0.070954 0.187655 0.207645
0.237308 0.205814 0.217319
0.502922 0.243442 0.237827
0.677363 0.251743 0.257572
0.802121 0.252232 0.234348
0.161074 0.498421 0.257206
0.346654 0.514519 0.281743
0.565057 0.552148 0.312993
0.725124 0.547967 0.338933
0.852049 0.520623 0.310887
0.245792 0.728176 0.319371
0.454536 0.728817 0.343633
0.623835 0.748135 0.376287
0.760342 0.766323 0.402716
0.875761 0.769192 0.406561
0.294621 0.860349 0.349310
0.506981 0.868101 0.363378
0.665034 0.870878 0.394110
0.803525 0.886992 0.434485
0.890257 0.903075 0.484627
0.036042 0.041566 0.308598
0.136202 0.038666 0.230564
0.340246 0.062806 0.244419
0.486244 0.084169 0.265751
0.607050 0.101106 0.256474
0.076020 0.156344 0.381842
0.183871 0.175143 0.367224
0.385748 0.179202 0.361273
0.582849 0.193759 0.358984
0.764096 0.188052 0.317571
0.142061 0.410849 0.450141
0.258732 0.456077 0.459297
0.488289 0.485496 0.494789
0.671199 0.477287 0.491524
0.875578 0.425879 0.422492
0.215091 0.689845 0.497414
0.348730 0.704067 0.508354
0.553399 0.714199 0.552666
0.722072 0.748653 0.582544
0.891997 0.751095 0.560113
0.275486 0.854429 0.534295
0.381872 0.865751 0.527337
0.567163 0.884916 0.537224
0.763333 0.898772 0.579492
0.906401 0.924041 0.667567
0.039643 0.048737 0.432532
0.086671 0.039094 0.340764
0.235172 0.056275 0.319341
0.404486 0.077119 0.312688
0.551781 0.095491 0.311803
0.081636 0.168917 0.505119
0.142519 0.175113 0.498909
0.266041 0.162173 0.487373
0.496162 0.175296 0.457710
0.696193 0.171237 0.393225
0.147250 0.398627 0.571984
0.216251 0.410056 0.577996
0.371542 0.421927 0.606653
0.595178 0.428885 0.616907
0.832364 0.380972 0.535607
0.214511 0.662654 0.643549
0.287297 0.664607 0.653925
0.462226 0.688869 0.688167
0.688411 0.749844 0.743832
0.905730 0.745022 0.732631
0.282719 0.838529 0.708125
0.329778 0.852140 0.697536
0.473610 0.881468 0.723781
0.735134 0.914672 0.772122
0.922515 0.940887 0.849851
0.040711 0.058076 0.513359
0.050538 0.042267 0.472663
0.122560 0.048585 0.448737
0.270420 0.064820 0.404242
0.492470 0.090059 0.375372
0.083772 0.185763 0.595789
0.092653 0.152682 0.618402
0.137240 0.126345 0.653956
0.305211 0.134340 0.620264
0.604425 0.170932 0.548882
0.141939 0.381567 0.657282
0.153475 0.335119 0.677150
0.176150 0.272282 0.738064
0.342687 0.279576 0.776791
0.743282 0.360388 0.765743
0.203800 0.591028 0.722652
0.228428 0.567407 0.746090
0.304753 0.581384 0.808591
0.467475 0.608881 0.863493
0.869993 0.686244 0.881468
0.266819 0.787442 0.789792
0.304051 0.814572 0.822232
0.424353 0.873045 0.868193
0.667964 0.920470 0.904509
0.966064 0.966064 0.957580
