assets/luts/impulz-fujicolor-200-fpe-rec709-3d521ee8.cube
# (C) 2014 VisionColor & Patchflyer [www.vision-color.com]
# Generator: VC Patchmatch v.2.1.1 [64/53]
# All work and no play makes Jack a dull boy.
# LUT generated from: FujiColor 200_FPE
LUT_3D_SIZE 17
0.037293 0.045075 0.047242
0.079164 0.060029 0.047517
0.144717 0.085023 0.048829
0.207950 0.106386 0.049042
0.275547 0.123323 0.042329
0.326604 0.138705 0.048188
0.368475 0.147066 0.047333
0.405341 0.154147 0.046082
0.433722 0.162905 0.048920
0.457252 0.169711 0.051392
0.476173 0.172671 0.050202
0.498360 0.180362 0.050477
0.517266 0.184909 0.052552
0.534447 0.190036 0.054780
0.550958 0.193759 0.054475
0.570062 0.204196 0.056275
0.584802 0.209781 0.057221
0.038788 0.068635 0.068666
0.079164 0.082429 0.056275
0.146670 0.109499 0.057160
0.218814 0.132937 0.051637
0.290745 0.153475 0.043946
0.347387 0.167117 0.049531
0.395941 0.179202 0.049256
0.438666 0.191653 0.048890
0.470954 0.198764 0.051575
0.500481 0.207034 0.054475
0.524712 0.216434 0.054475
0.547356 0.225010 0.054994
0.565179 0.227787 0.056825
0.585901 0.236728 0.061555
0.604913 0.245182 0.060853
0.622339 0.254124 0.062470
0.635554 0.258183 0.063172
0.050507 0.106538 0.100465
0.093385 0.120790 0.085573
0.151125 0.136690 0.065492
0.223026 0.160281 0.060182
0.304295 0.181582 0.046387
0.366583 0.200595 0.053559
0.421118 0.214328 0.052918
0.467933 0.225864 0.051240
0.507744 0.242008 0.057404
0.540612 0.254307 0.062654
0.567224 0.260746 0.060334
0.594018 0.269963 0.060670
0.615595 0.280827 0.066438
0.636561 0.291386 0.072358
0.654383 0.298100 0.071138
0.671504 0.303899 0.070680
0.684688 0.314275 0.076600
0.073854 0.148470 0.133486
0.114015 0.160586 0.107332
0.180484 0.180911 0.084108
0.237736 0.192660 0.068421
0.324620 0.218906 0.055390
0.387243 0.234104 0.057649
0.445136 0.251682 0.058045
0.497688 0.271031 0.059419
0.538659 0.283909 0.063172
0.572412 0.294865 0.067323
0.604150 0.308110 0.070741
0.634058 0.320531 0.073640
0.656825 0.330022 0.077028
0.678676 0.338293 0.079988
0.694026 0.347448 0.084688
0.709072 0.355566 0.089601
0.722652 0.363622 0.091829
0.101076 0.197086 0.167117
0.156527 0.212161 0.131533
0.219547 0.233097 0.098817
0.289342 0.248234 0.080842
0.346563 0.256779 0.064057
0.410956 0.275731 0.069673
0.471138 0.294560 0.069001
0.525017 0.312688 0.066926
0.565606 0.326757 0.074556
0.603784 0.341741 0.083894
0.639338 0.354559 0.083986
0.669459 0.365850 0.085725
0.690822 0.375463 0.092622
0.710750 0.385351 0.103456
0.728542 0.395605 0.104158
0.744320 0.403998 0.107362
0.757504 0.411536 0.109407
0.125154 0.242008 0.197452
0.188083 0.261204 0.157382
0.263157 0.284550 0.122744
0.337591 0.303105 0.102510
0.402075 0.315404 0.086000
0.440375 0.318608 0.079652
0.497353 0.334569 0.079225
0.552148 0.352514 0.080720
0.595300 0.368841 0.088746
0.631342 0.382971 0.099153
0.667079 0.395270 0.098512
0.698970 0.407721 0.105837
0.720272 0.418860 0.114717
0.739773 0.428382 0.125551
0.757321 0.438239 0.126528
0.772824 0.446662 0.128786
0.782376 0.453773 0.136172
0.145541 0.284825 0.225772
0.215366 0.307225 0.183932
0.305333 0.334264 0.147280
0.381750 0.354437 0.125734
0.453666 0.370062 0.110140
0.498054 0.376745 0.103120
0.528618 0.377997 0.096864
0.582177 0.394141 0.098024
0.620417 0.406256 0.105196
0.658137 0.420386 0.114229
0.691920 0.433051 0.121950
0.721340 0.444099 0.130892
0.744717 0.455329 0.136965
0.765286 0.465736 0.144686
0.778500 0.474037 0.152193
0.790707 0.481147 0.159335
0.801175 0.488502 0.163210
0.160006 0.327214 0.253025
0.252110 0.354986 0.210178
0.350195 0.384833 0.169436
0.426307 0.403723 0.150332
0.500206 0.420508 0.135073
0.552026 0.431098 0.126467
0.583246 0.433417 0.120699
0.611322 0.434485 0.114839
0.647791 0.444587 0.124910
0.681178 0.454505 0.135683
0.714870 0.468025 0.144137
0.743923 0.478889 0.153506
0.766232 0.489021 0.160250
0.783597 0.498177 0.172702
0.795468 0.506828 0.181674
0.807614 0.513726 0.188327
0.818265 0.520684 0.191470
0.171267 0.362554 0.278111
0.275425 0.393164 0.234104
0.374914 0.421912 0.194644
0.459174 0.441871 0.175692
0.528679 0.456733 0.161318
0.584070 0.468086 0.154665
0.618952 0.473396 0.151431
0.646479 0.474617 0.146090
0.670283 0.477577 0.146304
0.704097 0.487678 0.156588
0.735653 0.499336 0.164401
0.763699 0.510613 0.177523
0.782254 0.519493 0.188693
0.799466 0.528496 0.201053
0.811124 0.536522 0.209628
0.824460 0.545098 0.215091
0.832151 0.550439 0.221714
0.180697 0.392859 0.301213
0.287816 0.423987 0.256443
0.399145 0.453559 0.221683
0.485084 0.474006 0.201022
0.552331 0.488411 0.188785
0.609369 0.500114 0.181277
0.648096 0.507408 0.179263
0.678279 0.511070 0.176333
0.702358 0.513390 0.174807
0.723232 0.517052 0.177981
0.751492 0.527153 0.191775
0.778225 0.537316 0.205936
0.795132 0.544823 0.215702
0.812100 0.554742 0.228336
0.824491 0.563195 0.236576
0.836088 0.572442 0.248051
0.842741 0.578027 0.254490
0.182681 0.418677 0.323766
0.300786 0.450996 0.279454
0.419562 0.481483 0.243992
0.504387 0.501305 0.222202
0.574731 0.515984 0.212528
0.633356 0.527825 0.203738
0.669459 0.534478 0.204135
0.702327 0.540368 0.205631
0.728756 0.543450 0.203586
0.747829 0.548455 0.211368
0.765866 0.553765 0.220493
0.792325 0.563409 0.234073
0.808865 0.570275 0.243168
0.822873 0.578241 0.256474
0.832914 0.586603 0.271305
0.844572 0.595850 0.282628
0.851774 0.601740 0.288273
0.180606 0.441566 0.345556
0.313695 0.475319 0.302434
0.437812 0.506828 0.263157
0.522637 0.526085 0.244053
0.591394 0.540429 0.234745
0.653407 0.553307 0.226383
0.689052 0.560204 0.228824
0.721340 0.566339 0.231662
0.751766 0.572442 0.234379
0.771176 0.578332 0.243687
0.788876 0.583581 0.252628
0.805905 0.588617 0.261234
0.820493 0.595666 0.275303
0.833249 0.603540 0.291264
0.842557 0.610681 0.304906
0.852811 0.618677 0.316320
0.860533 0.624903 0.322301
0.181125 0.462715 0.366247
0.311040 0.495583 0.324224
0.437720 0.527153 0.284916
0.533959 0.547570 0.264225
0.600153 0.561120 0.254795
0.665309 0.574731 0.249943
0.704677 0.582269 0.251164
0.735592 0.587793 0.253452
0.765194 0.595056 0.262791
0.788540 0.602747 0.275029
0.805844 0.607874 0.283757
0.819425 0.613886 0.295750
0.830564 0.620447 0.309880
0.843473 0.628504 0.325628
0.852842 0.635737 0.339391
0.862638 0.643458 0.351202
0.867033 0.647486 0.359503
0.179080 0.479835 0.385290
0.304265 0.512078 0.344030
0.437110 0.543542 0.308202
0.543236 0.565942 0.281559
0.607294 0.578546 0.272770
0.670832 0.591730 0.271092
0.718410 0.601709 0.272679
0.748440 0.607782 0.277775
0.776913 0.615167 0.288396
0.802060 0.623194 0.301762
0.819791 0.631037 0.316381
0.831235 0.637568 0.330236
0.842527 0.644007 0.343908
0.852110 0.651148 0.360571
0.861143 0.659175 0.375708
0.867308 0.665278 0.389715
0.872374 0.671443 0.401526
0.177554 0.496101 0.404578
0.303288 0.528588 0.365270
0.435981 0.559503 0.331243
0.546014 0.582788 0.302434
0.613886 0.594659 0.292424
0.675013 0.606958 0.289952
0.725338 0.617243 0.289891
0.758785 0.625452 0.299504
0.786007 0.632074 0.308934
0.812161 0.638788 0.318883
0.828244 0.650843 0.347692
0.841031 0.660029 0.368719
0.852384 0.666499 0.382452
0.861418 0.673213 0.398322
0.864500 0.679744 0.417456
0.870756 0.686427 0.432654
0.875914 0.693172 0.445441
0.171511 0.508476 0.422736
0.300755 0.541985 0.388525
0.429053 0.572595 0.355383
0.539330 0.596155 0.326543
0.612299 0.606165 0.306859
0.673335 0.618158 0.302800
0.726375 0.629602 0.304326
0.761410 0.638758 0.315709
0.793118 0.646998 0.326360
0.817838 0.653925 0.337865
0.833707 0.665888 0.367102
0.848386 0.678889 0.399145
0.861143 0.688197 0.421637
0.867918 0.694850 0.437354
0.871061 0.701564 0.457008
0.874388 0.708614 0.477638
0.879088 0.715328 0.491218
0.167697 0.523400 0.443305
0.293400 0.555993 0.410071
0.413672 0.586969 0.378302
0.530755 0.611505 0.357610
0.601678 0.620874 0.337835
0.670283 0.631586 0.321538
0.725643 0.642359 0.320317
0.758846 0.650538 0.330175
0.790982 0.658442 0.339757
0.819760 0.667292 0.356451
0.836454 0.676966 0.380529
0.850462 0.689113 0.411261
0.862425 0.701961 0.445472
0.870848 0.713130 0.477119
0.874205 0.720027 0.497200
0.877256 0.727047 0.517723
0.877684 0.732509 0.533288
0.034058 0.047669 0.061463
0.064210 0.062257 0.082460
0.130098 0.087007 0.085817
0.197177 0.110018 0.088045
0.261082 0.125917 0.088624
0.314977 0.139071 0.083314
0.356695 0.146273 0.080751
0.393317 0.152346 0.083345
0.418219 0.155001 0.077241
0.440955 0.160708 0.077577
0.459083 0.162631 0.076875
0.476478 0.164065 0.079530
0.494209 0.165560 0.072114
0.510582 0.169436 0.071107
0.526055 0.172457 0.070100
0.540551 0.174075 0.075685
0.555993 0.179171 0.069398
0.038392 0.076356 0.091707
0.070527 0.087282 0.090822
0.147829 0.116457 0.091188
0.228702 0.141817 0.090242
0.292973 0.158053 0.085267
0.354314 0.172366 0.077424
0.399878 0.181216 0.079591
0.434272 0.187198 0.078370
0.465278 0.192752 0.069123
0.493965 0.197543 0.067384
0.516777 0.202884 0.073274
0.536431 0.206882 0.073640
0.557153 0.214878 0.071321
0.577050 0.220035 0.073396
0.595514 0.223270 0.073732
0.611963 0.228824 0.076265
0.625666 0.237156 0.071962
0.049561 0.115053 0.125826
0.088899 0.128756 0.124208
0.151888 0.145418 0.100069
0.234714 0.172274 0.098970
0.310857 0.192386 0.090761
0.375799 0.207797 0.082551
0.423926 0.215976 0.083894
0.471015 0.230564 0.085237
0.506706 0.240787 0.078370
0.534234 0.244236 0.076387
0.559503 0.249638 0.082185
0.586023 0.260319 0.084565
0.608545 0.270115 0.082460
0.627161 0.273899 0.084230
0.644251 0.276402 0.084901
0.660731 0.285100 0.090120
0.673823 0.295628 0.087984
0.067262 0.155612 0.158511
0.108949 0.170138 0.154299
0.169741 0.186374 0.131197
0.245640 0.206485 0.107362
0.319646 0.225193 0.100343
0.392340 0.243320 0.091951
0.451026 0.261692 0.096101
0.498573 0.275853 0.096925
0.540581 0.285435 0.087739
0.575952 0.296513 0.090578
0.602808 0.306523 0.100130
0.628016 0.315435 0.101991
0.652247 0.323583 0.097292
0.674464 0.330877 0.099397
0.691279 0.338994 0.105196
0.706386 0.345892 0.109804
0.719387 0.352117 0.104128
0.087770 0.203464 0.196078
0.135195 0.215091 0.184878
0.206577 0.235050 0.152407
0.284215 0.258640 0.129885
0.345098 0.268437 0.112428
0.415595 0.286259 0.106905
0.476631 0.303960 0.107637
0.525414 0.319097 0.109773
0.568902 0.332464 0.107607
0.605982 0.342504 0.107729
0.637415 0.353124 0.114382
0.663386 0.362982 0.118990
0.686427 0.372625 0.120638
0.708522 0.380987 0.123201
0.727718 0.389593 0.125399
0.743404 0.396338 0.127749
0.752438 0.401373 0.127230
0.110262 0.247349 0.226078
0.158663 0.262455 0.214359
0.239200 0.284031 0.179141
0.320623 0.309148 0.151644
0.388739 0.323796 0.135439
0.443305 0.330571 0.119112
0.501396 0.346380 0.121828
0.550622 0.362036 0.125734
0.594720 0.376043 0.126833
0.631617 0.385138 0.125917
0.663172 0.396002 0.134676
0.690578 0.406836 0.142214
0.715999 0.416968 0.144686
0.737453 0.424292 0.147066
0.755489 0.432471 0.149813
0.769100 0.439765 0.153719
0.777859 0.445228 0.154971
0.130007 0.289006 0.254063
0.178805 0.308263 0.243107
0.259098 0.330022 0.208042
0.354284 0.357610 0.179812
0.428504 0.375158 0.162539
0.487282 0.385809 0.148318
0.530236 0.390143 0.136568
0.575860 0.402808 0.139956
0.616327 0.414435 0.142489
0.655665 0.426642 0.147524
0.685908 0.436561 0.157046
0.713924 0.446784 0.163302
0.739559 0.456641 0.165957
0.761349 0.464973 0.173098
0.776638 0.472145 0.177371
0.790066 0.478981 0.181247
0.800534 0.485267 0.182254
0.141512 0.328832 0.284367
0.196078 0.347967 0.270268
0.293034 0.375433 0.232975
0.389624 0.401679 0.206424
0.468177 0.421149 0.188724
0.527550 0.432807 0.176822
0.575769 0.440009 0.165164
0.603326 0.441260 0.159823
0.641810 0.450477 0.164157
0.675624 0.459236 0.169894
0.708278 0.470802 0.178408
0.735225 0.481300 0.186526
0.756100 0.489998 0.195895
0.779355 0.499428 0.202487
0.795010 0.506767 0.204898
0.808560 0.513848 0.208469
0.818296 0.519982 0.210117
0.153109 0.362554 0.309361
0.206027 0.382544 0.292332
0.320043 0.412360 0.258457
0.420600 0.438941 0.230106
0.496864 0.458076 0.214450
0.559350 0.471687 0.205264
0.612726 0.481941 0.194217
0.640864 0.484230 0.189914
0.666590 0.485512 0.185245
0.699733 0.493324 0.190433
0.728145 0.501915 0.201602
0.752499 0.512200 0.214572
0.771878 0.520531 0.224674
0.795071 0.529717 0.231327
0.811460 0.536675 0.231662
0.822629 0.544152 0.239322
0.829099 0.548669 0.244450
0.165133 0.392065 0.330083
0.218753 0.415656 0.315587
0.332036 0.444923 0.283146
0.441047 0.472816 0.252872
0.521477 0.492012 0.239322
0.580957 0.504417 0.230076
0.637690 0.516777 0.225040
0.671290 0.522240 0.221988
0.696345 0.523522 0.217411
0.721462 0.526696 0.216709
0.749020 0.534691 0.228916
0.770596 0.542199 0.240879
0.788449 0.549371 0.250706
0.809903 0.558373 0.258640
0.824094 0.565423 0.264134
0.834440 0.573022 0.274083
0.840146 0.576867 0.276707
0.167239 0.416571 0.352148
0.221775 0.442573 0.335882
0.333104 0.471290 0.303593
0.447272 0.498116 0.277409
0.539605 0.519158 0.260716
0.597009 0.531029 0.252903
0.653223 0.543694 0.252110
0.692775 0.551507 0.252171
0.720546 0.555962 0.251743
0.745327 0.559564 0.251957
0.766445 0.563806 0.255985
0.789303 0.572229 0.266972
0.805478 0.578851 0.277653
0.820371 0.585321 0.290837
0.835203 0.593439 0.298039
0.845792 0.600824 0.307652
0.851164 0.604730 0.310307
0.163851 0.437842 0.374487
0.223911 0.465919 0.358007
0.344488 0.495521 0.323766
0.459388 0.521447 0.299962
0.554589 0.542962 0.282353
0.613092 0.555535 0.278508
0.667292 0.567376 0.277195
0.710170 0.576257 0.277562
0.739284 0.583124 0.283818
0.765011 0.587884 0.285527
0.787381 0.591577 0.287205
0.800870 0.597650 0.299290
0.816037 0.604578 0.312413
0.831174 0.611414 0.324285
0.844816 0.618891 0.331365
0.856321 0.627222 0.341192
0.860960 0.631586 0.346014
0.164767 0.459022 0.394415
0.220218 0.484016 0.377142
0.354589 0.515496 0.341955
0.468147 0.541192 0.317906
0.563684 0.562524 0.300694
0.626764 0.575891 0.299046
0.679225 0.587518 0.297917
0.724269 0.597955 0.301060
0.752834 0.605524 0.311620
0.779995 0.612116 0.317601
0.802731 0.616602 0.319921
0.814969 0.623072 0.333043
0.826261 0.629511 0.346685
0.841459 0.636500 0.358831
0.855161 0.644160 0.366155
0.862913 0.649897 0.377600
0.865873 0.654047 0.385931
0.164462 0.475959 0.411322
0.218387 0.502892 0.397406
0.350408 0.533623 0.363531
0.470741 0.561364 0.334661
0.571679 0.582940 0.322057
0.632868 0.596124 0.320592
0.690120 0.608637 0.319402
0.737331 0.619715 0.325689
0.765072 0.627161 0.336034
0.792203 0.634302 0.345861
0.814481 0.641810 0.355901
0.828580 0.647883 0.366613
0.839933 0.654353 0.380377
0.850340 0.660975 0.394568
0.859861 0.666133 0.404181
0.866880 0.671901 0.416999
0.871519 0.678706 0.429023
0.164279 0.490333 0.427192
0.214817 0.520287 0.416388
0.343511 0.550256 0.383368
0.469429 0.578851 0.356695
0.577966 0.602045 0.343786
0.636866 0.614099 0.341955
0.693812 0.626307 0.342107
0.746151 0.637903 0.345739
0.775174 0.645289 0.354955
0.799954 0.652522 0.366888
0.820615 0.660639 0.384894
0.837827 0.668299 0.399725
0.849302 0.674830 0.413581
0.856718 0.681544 0.428565
0.863890 0.688594 0.444404
0.870970 0.694850 0.458106
0.875792 0.702449 0.471565
0.158572 0.501244 0.444221
0.208682 0.536126 0.434638
0.334112 0.565515 0.402655
0.461158 0.593317 0.383886
0.581689 0.619471 0.365728
0.638819 0.630457 0.362371
0.694148 0.642176 0.363714
0.747555 0.653529 0.365240
0.784115 0.662318 0.372869
0.805447 0.669886 0.388983
0.825559 0.677638 0.406592
0.844846 0.686030 0.426307
0.855619 0.696223 0.452094
0.862638 0.703120 0.467628
0.869963 0.710323 0.483803
0.874296 0.717494 0.503197
0.876036 0.721401 0.513115
0.155123 0.516350 0.464210
0.204044 0.550378 0.455940
0.324468 0.578271 0.430701
0.449287 0.605585 0.412238
0.567987 0.631556 0.394690
0.633539 0.640772 0.376593
0.687037 0.651148 0.375158
0.738216 0.661402 0.375311
0.777432 0.670741 0.383551
0.805478 0.679988 0.402533
0.825498 0.687037 0.419074
0.845426 0.694179 0.435767
0.854887 0.707637 0.472663
0.863920 0.720211 0.508568
0.871489 0.727687 0.525292
0.874144 0.733608 0.540795
0.874571 0.739284 0.557031
0.031586 0.055177 0.084535
0.056001 0.066407 0.102724
0.108034 0.089235 0.129885
0.173739 0.113252 0.139223
0.245884 0.132448 0.145541
0.297276 0.144900 0.144656
0.345251 0.152926 0.142489
0.385260 0.159243 0.141115
0.410407 0.161349 0.133486
0.434302 0.164431 0.130373
0.454353 0.164340 0.127626
0.471839 0.165774 0.129213
0.489693 0.167208 0.120424
0.506310 0.167758 0.118990
0.521721 0.164553 0.114809
0.536339 0.166354 0.119356
0.552087 0.171206 0.110445
0.036011 0.086152 0.117159
0.065553 0.094270 0.115114
0.120485 0.117220 0.141543
0.202243 0.141909 0.138674
0.274723 0.160159 0.141360
0.334203 0.171664 0.131746
0.383825 0.179934 0.127779
0.421485 0.185153 0.124331
0.448890 0.186557 0.118318
0.475837 0.188876 0.111696
0.498909 0.191135 0.106996
0.517662 0.193637 0.105348
0.533837 0.194369 0.105379
0.552758 0.197971 0.104433
0.570550 0.198672 0.097444
0.586206 0.202365 0.095796
0.598291 0.205814 0.090059
0.045808 0.123690 0.153323
0.081575 0.137697 0.153903
0.138308 0.149660 0.149966
0.219730 0.175601 0.148959
0.301671 0.195254 0.147585
0.362585 0.207126 0.141695
0.417060 0.219547 0.137881
0.463081 0.224521 0.131716
0.495033 0.228916 0.128939
0.522728 0.232609 0.122286
0.551141 0.240543 0.121187
0.576135 0.242191 0.119173
0.598230 0.246769 0.121798
0.616724 0.250278 0.118746
0.634852 0.258885 0.117189
0.651240 0.264134 0.115816
0.664088 0.271336 0.119173
0.060792 0.165011 0.188052
0.101869 0.178653 0.182437
0.158236 0.190280 0.179629
0.229801 0.209293 0.157229
0.314611 0.232517 0.156527
0.388006 0.252903 0.152407
0.446418 0.266270 0.148806
0.491615 0.269932 0.142336
0.530388 0.280919 0.143252
0.566064 0.289555 0.140261
0.593378 0.295995 0.138705
0.617121 0.296056 0.136202
0.640192 0.303014 0.138918
0.662806 0.312688 0.139132
0.680781 0.319982 0.136995
0.695888 0.323583 0.135103
0.708797 0.326238 0.134493
0.074769 0.211002 0.225528
0.119661 0.221256 0.216495
0.176333 0.231479 0.206485
0.248020 0.250858 0.185641
0.331823 0.273411 0.166110
0.403540 0.292241 0.163424
0.465705 0.308354 0.161776
0.519921 0.323766 0.162325
0.560204 0.335424 0.162600
0.596948 0.343267 0.157992
0.630426 0.350103 0.157046
0.656611 0.355322 0.156313
0.678706 0.362432 0.159396
0.700374 0.370703 0.159121
0.722194 0.377661 0.156069
0.736477 0.381567 0.153811
0.745327 0.384771 0.153292
0.093294 0.253941 0.259037
0.140322 0.267430 0.248600
0.196536 0.275456 0.234165
0.281529 0.298100 0.209689
0.366491 0.323674 0.192020
0.428077 0.335424 0.175875
0.486549 0.350591 0.177005
0.543145 0.367041 0.177798
0.585992 0.380072 0.181033
0.621881 0.388525 0.180301
0.655940 0.396155 0.179995
0.684871 0.402625 0.178744
0.710536 0.411048 0.182132
0.731655 0.418952 0.181033
0.750393 0.426947 0.181369
0.766476 0.431952 0.177340
0.775784 0.435065 0.175967
0.110811 0.293400 0.288640
0.160891 0.312596 0.276097
0.218296 0.322362 0.264530
0.311070 0.345922 0.237247
0.396551 0.371374 0.218173
0.465187 0.387976 0.204074
0.513664 0.393774 0.189853
0.564691 0.406104 0.192508
0.607111 0.418677 0.197940
0.644282 0.429206 0.202365
0.678248 0.436805 0.203372
0.707851 0.442512 0.200290
0.732815 0.451331 0.207218
0.752834 0.459327 0.209506
0.771176 0.466499 0.209445
0.787533 0.470985 0.204593
0.799252 0.475563 0.201602
0.122560 0.329686 0.315953
0.176364 0.348424 0.301915
0.236515 0.365423 0.291814
0.326635 0.388312 0.265263
0.422705 0.414405 0.245304
0.494087 0.432166 0.231510
0.545373 0.441444 0.219577
0.589044 0.446906 0.208103
0.628595 0.456428 0.213657
0.663111 0.464576 0.218753
0.698878 0.474220 0.223301
0.727352 0.482246 0.229526
0.753353 0.490578 0.234836
0.773373 0.498451 0.237308
0.790860 0.503990 0.236210
0.806882 0.508049 0.231662
0.815915 0.514397 0.237034
0.133608 0.362463 0.340642
0.182956 0.380011 0.325750
0.250278 0.403357 0.315831
0.345068 0.427131 0.290074
0.441688 0.451362 0.272282
0.524102 0.472114 0.258793
0.574578 0.481971 0.248875
0.619898 0.489387 0.238865
0.652125 0.492409 0.231510
0.684352 0.499825 0.238590
0.712917 0.507317 0.248844
0.744381 0.517266 0.255039
0.772457 0.527153 0.261387
0.791440 0.534478 0.264958
0.808011 0.541436 0.266636
0.821347 0.545892 0.269078
0.830533 0.551598 0.273350
0.142733 0.389929 0.363104
0.195804 0.412848 0.348547
0.257298 0.433478 0.337163
0.369970 0.459632 0.312444
0.462257 0.481880 0.294499
0.544244 0.502586 0.282078
0.598505 0.514672 0.279484
0.644800 0.523552 0.271122
0.680415 0.529015 0.265751
0.705257 0.532616 0.265965
0.733272 0.539300 0.275517
0.761471 0.546685 0.281102
0.789120 0.555871 0.287083
0.804105 0.563714 0.297704
0.819547 0.571221 0.301946
0.833951 0.576349 0.302556
0.842100 0.581781 0.307622
0.146212 0.413489 0.383734
0.200015 0.439796 0.367468
0.262333 0.460670 0.357458
0.376776 0.486519 0.333745
0.476234 0.509361 0.313420
0.560784 0.530755 0.305394
0.614862 0.543297 0.304417
0.664271 0.554070 0.300694
0.705318 0.563317 0.300908
0.729580 0.566827 0.301122
0.752987 0.570245 0.301335
0.778805 0.576776 0.308690
0.799924 0.583154 0.318791
0.814511 0.590387 0.329412
0.830564 0.599481 0.336217
0.845151 0.605127 0.337530
0.853239 0.610162 0.341680
0.146487 0.434424 0.403113
0.205051 0.462135 0.386633
0.265660 0.485725 0.376532
0.377111 0.510887 0.353429
0.486091 0.535088 0.334234
0.575525 0.556603 0.327306
0.627466 0.568414 0.326116
0.677943 0.580163 0.328679
0.723110 0.590478 0.331579
0.749416 0.596094 0.334051
0.771481 0.600061 0.335729
0.790829 0.605402 0.340917
0.811826 0.611444 0.350622
0.826169 0.618097 0.360601
0.841031 0.626520 0.368627
0.855009 0.633295 0.373083
0.859586 0.636835 0.379339
0.148470 0.454902 0.421241
0.201480 0.477455 0.402991
0.264042 0.508202 0.393469
0.372778 0.532738 0.370947
0.484260 0.556725 0.357824
0.588434 0.580346 0.347875
0.638941 0.591852 0.346777
0.687709 0.603387 0.353185
0.735470 0.614618 0.359808
0.765682 0.621759 0.364630
0.786862 0.628229 0.370977
0.805966 0.633509 0.376074
0.823392 0.639094 0.383154
0.838102 0.646540 0.392798
0.850340 0.652827 0.400946
0.860777 0.659266 0.409949
0.866087 0.664179 0.418006
0.146151 0.469825 0.437293
0.199832 0.496254 0.422522
0.261357 0.527764 0.413123
0.379065 0.554040 0.391760
0.489326 0.577661 0.379583
0.595087 0.600824 0.368536
0.650629 0.612940 0.370001
0.697963 0.623713 0.376013
0.744045 0.634211 0.381842
0.775570 0.642847 0.393042
0.796780 0.650690 0.404669
0.816281 0.656428 0.410529
0.835325 0.661799 0.415930
0.842771 0.668544 0.430976
0.854704 0.675227 0.439582
0.865629 0.682551 0.448676
0.872312 0.690486 0.460243
0.145602 0.483650 0.452461
0.196719 0.513787 0.440894
0.256535 0.543481 0.431281
0.383581 0.571283 0.412482
0.492958 0.594812 0.399695
0.595697 0.616968 0.388861
0.656489 0.630793 0.390906
0.707179 0.642329 0.394690
0.752346 0.652949 0.400519
0.784726 0.662409 0.413306
0.805661 0.670680 0.430823
0.826871 0.678645 0.443336
0.843503 0.684260 0.450050
0.851499 0.691035 0.464607
0.858854 0.698238 0.480842
0.869902 0.706325 0.491249
0.875212 0.712764 0.502190
0.141634 0.494636 0.467994
0.191318 0.529656 0.458259
0.255406 0.560906 0.452857
0.379278 0.588006 0.434546
0.497810 0.613947 0.417029
0.597253 0.636255 0.412543
0.659785 0.650446 0.414069
0.712428 0.662379 0.416175
0.760128 0.673152 0.420813
0.794491 0.682368 0.432593
0.814481 0.689906 0.449592
0.834684 0.697719 0.467323
0.849699 0.706081 0.486458
0.858824 0.712886 0.500389
0.866392 0.720333 0.517174
0.871031 0.726345 0.531456
0.875242 0.731716 0.542168
0.142733 0.509667 0.484382
0.190860 0.543267 0.476112
0.248966 0.575677 0.473762
0.370275 0.602197 0.455817
0.484596 0.627131 0.442054
0.592340 0.650294 0.436835
0.657465 0.664271 0.437110
0.708125 0.675013 0.438697
0.753841 0.685664 0.442420
0.797024 0.696132 0.448005
0.818631 0.703670 0.464759
0.835569 0.711635 0.484230
0.850828 0.720607 0.507042
0.862516 0.732296 0.539574
0.868833 0.739620 0.557336
0.872496 0.745174 0.570947
0.874327 0.751156 0.587060
0.033143 0.065187 0.107729
0.039460 0.069490 0.119020
0.088624 0.093416 0.148745
0.152468 0.114839 0.172030
0.219547 0.133700 0.181277
0.285924 0.148501 0.188296
0.334905 0.156985 0.187228
0.375097 0.164553 0.187747
0.408209 0.169528 0.189181
0.431220 0.172152 0.186221
0.451026 0.170962 0.180941
0.468482 0.170932 0.177523
0.487098 0.170718 0.177096
0.502770 0.170260 0.174868
