assets/luts/impulz-fuji-superior-200-fpe-rec709-d8229950.cube
# (C) 2014 VisionColor & Patchflyer [www.vision-color.com]
# Generator: VC Patchmatch v.2.1.1 [64/53]
# All work and no play makes Jack a dull boy.
# LUT generated from: Fuji Superior 200_FPE
LUT_3D_SIZE 5
0.037049 0.041291 0.041779
0.197513 0.057618 0.040833
0.378546 0.072114 0.049134
0.478584 0.088350 0.057008
0.551232 0.109560 0.066957
0.101686 0.182101 0.052094
0.436774 0.295354 0.060731
0.638727 0.349310 0.080476
0.734524 0.386206 0.097353
0.783902 0.398535 0.110079
0.420157 0.442206 0.080201
0.681819 0.535607 0.136751
0.812741 0.576440 0.163790
0.863249 0.585260 0.174899
0.888640 0.586664 0.175875
0.645624 0.597375 0.148104
0.795346 0.650050 0.194400
0.891691 0.686336 0.233616
0.918029 0.699245 0.246860
0.925048 0.691554 0.239261
0.759060 0.671260 0.174411
0.859586 0.719112 0.230167
0.917327 0.750546 0.271977
0.932830 0.764035 0.299809
0.940246 0.769528 0.304631
0.030732 0.041901 0.126802
0.166781 0.052674 0.160067
0.355016 0.059419 0.172702
0.452552 0.066346 0.174044
0.519921 0.072511 0.170871
0.045838 0.210910 0.226841
0.307988 0.291783 0.259129
0.531090 0.318608 0.262852
0.640223 0.337224 0.262089
0.714595 0.318517 0.236423
0.218997 0.437659 0.312078
0.498817 0.511193 0.313268
0.698543 0.558465 0.351904
0.791745 0.572351 0.356329
0.841459 0.541741 0.314488
0.412543 0.584100 0.376104
0.635035 0.634028 0.347112
0.796262 0.682612 0.404089
0.869535 0.701778 0.431769
0.901701 0.689632 0.404303
0.534234 0.667475 0.389868
0.726528 0.709682 0.305577
0.849332 0.753414 0.385534
0.906828 0.782895 0.447547
0.932616 0.791257 0.476173
0.033906 0.048920 0.196994
0.092744 0.049866 0.234318
0.307683 0.054108 0.247379
0.418677 0.059937 0.263706
0.494911 0.066621 0.262272
0.046113 0.210758 0.317723
0.158694 0.241611 0.339452
0.418708 0.264836 0.360571
0.550225 0.281773 0.363043
0.647211 0.255833 0.327337
0.090883 0.392187 0.420752
0.279820 0.456153 0.441932
0.558831 0.514366 0.479316
0.682765 0.520104 0.472541
0.778134 0.480110 0.415351
0.177462 0.534295 0.486122
0.404150 0.595850 0.495308
0.643305 0.647272 0.533288
0.787625 0.686854 0.570947
0.875792 0.682765 0.528527
0.292851 0.635737 0.521324
0.522332 0.695430 0.502434
0.731991 0.762539 0.520409
0.851896 0.800809 0.590204
0.926818 0.824826 0.635004
0.036988 0.057679 0.251987
0.061311 0.046113 0.254490
0.223178 0.053071 0.284825
0.366827 0.053712 0.301030
0.461311 0.062287 0.314366
0.046693 0.220615 0.385657
0.085023 0.214389 0.372747
0.281788 0.226047 0.381231
0.466407 0.247379 0.405646
0.588830 0.230533 0.393225
0.066712 0.365942 0.466773
0.164309 0.408392 0.480476
0.400931 0.452506 0.499306
0.585229 0.478248 0.521721
0.702724 0.422797 0.470375
0.106233 0.502098 0.548699
0.240848 0.552911 0.556481
0.499107 0.612573 0.589502
0.701717 0.666651 0.640528
0.838315 0.650965 0.605707
0.144839 0.592279 0.588800
0.278874 0.652461 0.596582
0.514229 0.734279 0.642237
0.740627 0.806363 0.694789
0.918303 0.854215 0.761349
0.039460 0.067231 0.293919
0.043610 0.042084 0.258701
0.137881 0.048554 0.298039
0.289830 0.052949 0.328984
0.431189 0.057984 0.358404
0.046082 0.219852 0.433143
0.046754 0.160983 0.388098
0.100710 0.149630 0.369299
0.288670 0.176944 0.411170
0.509819 0.199588 0.451331
0.053712 0.346319 0.508293
0.061036 0.319402 0.490639
0.080293 0.296788 0.476448
0.294774 0.333043 0.497810
0.595361 0.379522 0.545342
0.068757 0.459510 0.576806
0.091188 0.456397 0.568261
0.163027 0.496010 0.590204
0.410559 0.554528 0.634455
0.737148 0.600946 0.681483
0.086976 0.542229 0.631434
0.113649 0.564294 0.632227
0.194675 0.637079 0.676753
0.483955 0.760616 0.759793
0.922576 0.887449 0.880247
