assets/luts/impulz-fuji-pro-400-fpe-log-d9ea23d0.cube
# (C) 2014 VisionColor & Patchflyer [www.vision-color.com]
# Generator: VC Patchmatch v.2.1.1 [64/53]
# All work and no play makes Jack a dull boy.
# LUT generated from: Fuji Pro 400_FPE
LUT_3D_SIZE 9
0.033509 0.036683 0.037079
0.059419 0.041230 0.038239
0.136233 0.049775 0.040131
0.259464 0.059968 0.046296
0.354589 0.061616 0.052399
0.397375 0.068544 0.057404
0.461280 0.107576 0.071015
0.519829 0.145449 0.085023
0.553185 0.161227 0.101503
0.036378 0.066224 0.042817
0.086885 0.083253 0.045838
0.187594 0.109285 0.051026
0.316258 0.140200 0.063539
0.426001 0.161349 0.077455
0.499031 0.192386 0.094636
0.552087 0.220462 0.106569
0.598169 0.247105 0.118685
0.636439 0.270512 0.136019
0.058045 0.151186 0.061463
0.144015 0.184878 0.068421
0.262699 0.223758 0.082094
0.391409 0.272190 0.105928
0.522835 0.332692 0.136690
0.619959 0.389502 0.175906
0.660822 0.394537 0.179690
0.687251 0.382116 0.175631
0.709834 0.381903 0.179599
0.116060 0.281834 0.107729
0.263752 0.337972 0.126040
0.376944 0.377432 0.144930
0.478355 0.417777 0.167086
0.598398 0.478630 0.209934
0.708461 0.538781 0.261204
0.754055 0.542443 0.268772
0.768795 0.517540 0.254093
0.778317 0.498512 0.243320
0.234974 0.419455 0.171115
0.407126 0.480308 0.195712
0.520302 0.521340 0.221561
0.591257 0.550164 0.242771
0.662760 0.581628 0.271489
0.764187 0.622919 0.313176
0.815030 0.631189 0.326390
0.836118 0.622889 0.321843
0.842252 0.609400 0.311315
0.394965 0.540551 0.230808
0.542290 0.592828 0.261540
0.632898 0.623255 0.284825
0.691463 0.644221 0.303410
0.748318 0.665827 0.327031
0.815518 0.688563 0.352392
0.856291 0.695949 0.366186
0.878904 0.697505 0.370611
0.885679 0.686458 0.360906
0.486458 0.613275 0.267613
0.613397 0.656794 0.298253
0.704707 0.685969 0.324041
0.761166 0.703334 0.344945
0.808835 0.718929 0.363928
0.851225 0.732845 0.380713
0.882322 0.744137 0.393439
0.901305 0.750912 0.401679
0.907958 0.747372 0.400305
0.529229 0.658381 0.289281
0.664881 0.698787 0.325414
0.762356 0.728908 0.356085
0.820493 0.746273 0.379553
0.855497 0.757321 0.393713
0.882292 0.766140 0.403143
0.900511 0.774594 0.413306
0.910582 0.780514 0.414984
0.916045 0.783200 0.418372
0.585290 0.697749 0.317113
0.731411 0.735134 0.358892
0.819272 0.762051 0.388037
0.858152 0.774258 0.404181
0.884153 0.781460 0.415656
0.901549 0.788296 0.420294
0.910277 0.792813 0.425757
0.915465 0.796536 0.433326
0.921050 0.803983 0.426093
0.031006 0.036927 0.046845
0.047181 0.039673 0.052979
0.106691 0.046540 0.057099
0.209384 0.057527 0.065339
0.323766 0.062867 0.070222
0.401099 0.069062 0.075868
0.461158 0.088350 0.082246
0.498268 0.106386 0.096223
0.518761 0.112642 0.119173
0.030030 0.057099 0.061677
0.070863 0.077272 0.073518
0.176974 0.087922 0.070497
0.313054 0.094972 0.069276
0.407507 0.097627 0.073060
0.462318 0.112245 0.077211
0.520317 0.146395 0.088197
0.551080 0.161135 0.101411
0.588281 0.184970 0.137606
0.039124 0.131716 0.082094
0.114534 0.194003 0.097261
0.282200 0.241154 0.111299
0.434440 0.269825 0.119905
0.546944 0.298985 0.138155
0.603021 0.303960 0.140963
0.628290 0.293156 0.138247
0.656916 0.303349 0.148836
0.686915 0.319860 0.179049
0.075074 0.254246 0.118288
0.207370 0.363241 0.148318
0.407218 0.429984 0.175692
0.549172 0.480797 0.207248
0.674723 0.516274 0.241825
0.737179 0.521187 0.252628
0.747372 0.483726 0.234592
0.754391 0.456428 0.219577
0.774472 0.458839 0.233829
0.162356 0.393149 0.164034
0.361318 0.512627 0.215854
0.557534 0.581170 0.255344
0.659342 0.612421 0.283268
0.759503 0.646113 0.319097
0.821744 0.647883 0.332738
0.842222 0.634119 0.328557
0.840330 0.603800 0.307622
0.847379 0.595254 0.309178
0.253056 0.504295 0.217319
0.474922 0.605524 0.266636
0.645624 0.662409 0.305180
0.738369 0.689570 0.334966
0.812253 0.712459 0.361822
0.871183 0.731655 0.384985
0.891112 0.726955 0.387427
0.893919 0.708125 0.376135
0.893034 0.695491 0.379309
0.275029 0.561669 0.258061
0.525170 0.655482 0.287114
0.697963 0.708186 0.334783
0.801694 0.739925 0.371405
0.854093 0.755520 0.392370
0.889708 0.768551 0.408209
0.909850 0.777707 0.416510
0.914336 0.772488 0.415412
0.913115 0.758328 0.422553
0.352361 0.617212 0.292668
0.581994 0.694789 0.314977
0.753841 0.741238 0.366308
0.837522 0.767483 0.397375
0.878782 0.779507 0.414435
0.902373 0.788785 0.423774
0.913725 0.795712 0.433906
0.920134 0.802731 0.428443
0.918944 0.796323 0.448615
0.488777 0.678523 0.338323
0.605890 0.713008 0.347814
0.748104 0.750179 0.383185
0.827329 0.774044 0.412207
0.870665 0.787198 0.433265
0.896971 0.798856 0.447913
0.909880 0.806332 0.456367
0.917906 0.809628 0.461006
0.922362 0.816526 0.457679
0.029664 0.036622 0.059968
0.039582 0.038697 0.067872
0.088594 0.045991 0.079133
0.168490 0.055970 0.088808
0.281834 0.066102 0.102358
0.382422 0.076143 0.115267
0.439948 0.086549 0.119387
0.473732 0.095308 0.127169
0.502220 0.103426 0.147402
0.030823 0.054994 0.094575
0.044953 0.054261 0.097200
0.135653 0.069429 0.113985
0.259129 0.082734 0.112398
0.378759 0.089784 0.116121
0.451820 0.094667 0.111147
0.493050 0.102998 0.113344
0.513115 0.107118 0.127535
0.563317 0.133669 0.168551
0.035492 0.113649 0.140352
0.062745 0.150210 0.171847
0.180636 0.164218 0.165042
0.334096 0.179110 0.154452
0.470893 0.183841 0.141512
0.530083 0.174319 0.133272
0.563287 0.173892 0.124849
0.589349 0.186648 0.137148
0.658808 0.253300 0.211978
0.052064 0.231998 0.176883
0.110994 0.315648 0.203525
0.265385 0.352468 0.200565
0.479850 0.413931 0.231540
0.616770 0.423072 0.228305
0.683223 0.405814 0.219516
0.704494 0.374914 0.193729
0.721431 0.373053 0.199405
0.767575 0.422156 0.278965
0.096193 0.369940 0.222232
0.189151 0.470314 0.255711
0.399527 0.524239 0.254978
0.586740 0.579690 0.292546
0.730266 0.615839 0.328527
0.798642 0.605966 0.324895
0.825711 0.584237 0.306172
0.829953 0.564889 0.294728
0.855436 0.592813 0.367224
0.137484 0.476265 0.283207
0.232151 0.548821 0.288975
0.501457 0.627161 0.299443
0.683345 0.679988 0.339422
0.783322 0.704097 0.372412
0.861204 0.728847 0.401709
0.890013 0.720943 0.397986
0.896635 0.706416 0.390692
0.902220 0.714931 0.451057
0.148074 0.529656 0.314305
0.267826 0.596033 0.308385
0.552605 0.676081 0.318242
0.743343 0.730922 0.367437
0.831388 0.754055 0.401709
0.879179 0.771084 0.428840
0.907988 0.786740 0.446937
0.915282 0.780667 0.446754
0.914519 0.774624 0.501762
0.194034 0.577935 0.343175
0.403235 0.657252 0.353826
0.600855 0.709651 0.346075
0.776761 0.757259 0.392981
0.855406 0.780697 0.425544
0.892576 0.796750 0.450782
0.910887 0.806058 0.465309
0.920378 0.814206 0.468238
0.917082 0.810513 0.534356
0.291386 0.632959 0.391272
0.441321 0.681300 0.402838
0.609400 0.727169 0.403693
0.738430 0.759762 0.425116
0.824704 0.783749 0.458869
0.874907 0.804776 0.496864
0.900633 0.821439 0.527337
0.915160 0.827207 0.538506
0.922881 0.831510 0.544732
0.030091 0.037568 0.084504
0.038575 0.039429 0.088441
0.076326 0.044831 0.097780
0.153689 0.055299 0.112215
0.256535 0.068055 0.131350
0.357641 0.078248 0.150271
0.416510 0.088716 0.158846
0.451911 0.094667 0.162295
0.486854 0.103273 0.176089
0.033051 0.056855 0.130983
0.034516 0.044373 0.121340
0.082887 0.053285 0.129152
0.219059 0.075563 0.154910
0.337896 0.084321 0.162325
0.418341 0.092256 0.164675
0.461036 0.097169 0.160922
0.492470 0.103487 0.166720
0.550256 0.129091 0.204685
0.037324 0.106783 0.184817
0.044709 0.102205 0.196445
0.105928 0.108278 0.188113
0.271489 0.140475 0.215579
0.409735 0.145022 0.208286
0.486366 0.137270 0.198672
0.528496 0.130068 0.185245
0.560632 0.134096 0.187350
0.641260 0.206912 0.256535
0.047669 0.196628 0.242618
0.070832 0.259739 0.305913
0.153109 0.289662 0.308598
0.346212 0.316854 0.310597
0.510964 0.320653 0.299809
0.599970 0.280568 0.266499
0.635157 0.253727 0.232258
0.670344 0.269200 0.231235
0.753170 0.373205 0.331395
0.071565 0.338659 0.306661
0.109316 0.435264 0.369696
0.227085 0.478264 0.368582
0.451957 0.524727 0.376761
0.641917 0.567208 0.411032
0.739437 0.545113 0.386160
0.785122 0.516762 0.349630
0.813779 0.512551 0.343069
0.839658 0.563790 0.440269
0.104311 0.460426 0.368963
0.143313 0.533043 0.395880
0.301213 0.596033 0.397314
0.543908 0.646296 0.404730
0.707362 0.686061 0.446845
0.812207 0.711482 0.480751
0.864042 0.701137 0.460883
0.892668 0.704097 0.461982
0.892119 0.710658 0.540032
0.129152 0.532341 0.398169
0.155734 0.576715 0.403601
0.307988 0.631403 0.401679
0.587915 0.700801 0.402686
0.750027 0.742275 0.445182
0.838437 0.766934 0.493812
0.888762 0.788235 0.528862
0.910552 0.789151 0.538048
0.908446 0.782345 0.598718
0.142794 0.572290 0.417121
0.185275 0.605982 0.427405
0.351965 0.659785 0.428473
0.601740 0.724269 0.414923
0.767025 0.767483 0.449744
0.857664 0.797971 0.507439
0.897093 0.818418 0.551598
0.916350 0.827695 0.572686
0.913024 0.824735 0.636561
0.162142 0.600275 0.447974
0.231632 0.635615 0.467414
0.393500 0.688258 0.481758
0.596094 0.742153 0.493446
0.735714 0.777981 0.514824
0.834714 0.810666 0.567346
0.884642 0.835447 0.618952
0.906340 0.846372 0.645136
0.918151 0.850340 0.657343
0.030365 0.036713 0.117830
0.035187 0.038117 0.114717
0.062959 0.043061 0.117433
0.135775 0.053468 0.132418
0.237583 0.067475 0.154177
0.330785 0.077974 0.178500
0.392859 0.087404 0.190951
0.436805 0.095857 0.195743
0.474617 0.103273 0.200931
0.032837 0.051331 0.159426
0.031739 0.038819 0.150301
0.057374 0.044556 0.145663
0.151278 0.061006 0.165805
0.292821 0.080995 0.195804
0.378302 0.088045 0.204257
0.432898 0.095705 0.202152
0.475441 0.104341 0.202945
0.529870 0.126162 0.232212
0.037842 0.090608 0.210819
0.039399 0.079469 0.217197
0.059358 0.073426 0.198917
0.162325 0.096254 0.220951
0.340002 0.125460 0.255589
0.435065 0.120424 0.245182
0.491554 0.120882 0.232486
0.536461 0.130190 0.231083
0.624201 0.203372 0.295995
0.048951 0.176242 0.280888
0.057252 0.205722 0.327092
0.089235 0.210971 0.322759
0.212253 0.227909 0.325475
0.428000 0.265873 0.360250
0.536675 0.236744 0.330983
0.597955 0.219211 0.304402
0.647089 0.228763 0.300237
0.742336 0.351644 0.386648
0.067506 0.309331 0.365133
0.098238 0.413657 0.455436
0.147250 0.447532 0.465049
0.297581 0.480461 0.470726
0.536202 0.509194 0.488518
0.647334 0.480583 0.460929
0.721065 0.441794 0.421805
0.762417 0.422934 0.390372
0.823148 0.540688 0.500587
0.099153 0.449592 0.434852
0.139528 0.543450 0.498726
0.198337 0.580743 0.507256
0.348638 0.612543 0.512657
0.591699 0.652155 0.539239
0.739605 0.689158 0.579370
0.820691 0.678721 0.558953
0.861509 0.668620 0.546654
0.880430 0.710918 0.628290
0.143435 0.553185 0.480293
0.184360 0.616968 0.525719
0.215824 0.633753 0.523659
0.348943 0.665705 0.518822
0.608545 0.719265 0.539895
0.773388 0.764187 0.593164
0.858549 0.791989 0.638758
0.894591 0.787808 0.638300
0.899748 0.788937 0.689998
0.182925 0.615015 0.513176
0.195041 0.640406 0.541299
0.215305 0.647913 0.535164
0.330144 0.682399 0.527642
0.598413 0.741390 0.529000
0.789197 0.796475 0.584375
0.870298 0.827298 0.651514
0.904692 0.843626 0.687404
0.908324 0.832822 0.721706
0.189670 0.639399 0.540520
0.201144 0.647334 0.551461
0.239536 0.664363 0.556329
0.413947 0.718593 0.580011
0.646448 0.774563 0.611658
0.793133 0.816037 0.651423
0.865507 0.844541 0.701534
0.896422 0.858640 0.734310
0.912291 0.864897 0.748196
0.031342 0.036286 0.151339
0.032868 0.036469 0.140230
0.056214 0.041566 0.137972
0.118105 0.051667 0.150820
0.208072 0.065461 0.172488
0.296269 0.076509 0.191531
0.358007 0.083406 0.210269
0.416449 0.092866 0.218601
0.468452 0.104677 0.227024
0.033509 0.047456 0.185031
0.032410 0.036988 0.171511
0.038819 0.038514 0.159243
0.086427 0.047608 0.168704
0.197986 0.066865 0.199283
0.324712 0.084138 0.222934
0.399237 0.091157 0.229038
0.464332 0.105257 0.234867
0.516686 0.126192 0.257694
0.038453 0.083070 0.236271
0.037079 0.063813 0.227543
0.038788 0.055055 0.208255
0.080842 0.066224 0.222354
0.204730 0.089174 0.252995
0.379248 0.114351 0.278233
0.455421 0.111421 0.263523
0.514183 0.125795 0.263859
0.601648 0.191470 0.318730
0.048798 0.166781 0.312901
0.049134 0.166644 0.334783
0.055177 0.164324 0.325902
0.097368 0.157855 0.319341
0.253758 0.185107 0.352010
0.474922 0.212848 0.377172
0.550439 0.186175 0.337316
0.612268 0.204593 0.331365
0.720363 0.337636 0.421729
0.069337 0.304829 0.407477
0.082155 0.364645 0.469123
0.096864 0.373068 0.473259
0.157671 0.379385 0.472526
0.343359 0.396979 0.479698
0.590143 0.444999 0.519890
0.683375 0.413596 0.480522
0.743343 0.409201 0.460517
0.815183 0.547189 0.567041
0.104372 0.451667 0.491920
0.137270 0.544244 0.571984
0.158907 0.564843 0.584588
0.234363 0.583398 0.589075
0.453513 0.622858 0.606134
0.664729 0.660426 0.636072
0.765133 0.651499 0.622019
0.827573 0.639963 0.607523
0.865690 0.706966 0.682612
0.145113 0.560967 0.544274
0.193637 0.632807 0.617029
0.206912 0.644648 0.624933
0.245533 0.651392 0.613062
0.443000 0.695857 0.629999
0.686061 0.742031 0.661219
0.814023 0.782528 0.708064
0.873320 0.781186 0.712245
0.894286 0.794583 0.748837
0.209018 0.641840 0.597192
0.262425 0.690181 0.654902
0.256413 0.690150 0.654536
0.251408 0.681666 0.632105
0.420279 0.723995 0.634028
0.687953 0.781826 0.665309
0.832273 0.823636 0.720241
0.887297 0.844480 0.759976
0.903532 0.836179 0.778408
0.268223 0.694118 0.644923
0.271977 0.700618 0.659724
0.251316 0.688167 0.644831
0.321553 0.707942 0.642390
0.561166 0.773983 0.685969
0.749050 0.817288 0.723323
0.840970 0.845212 0.757626
0.883574 0.862119 0.788876
0.908049 0.870695 0.804959
0.032410 0.036378 0.171023
0.032380 0.036194 0.159152
0.039368 0.037964 0.150881
0.072724 0.043915 0.157809
0.144137 0.056092 0.180667
0.238499 0.071351 0.202579
0.319280 0.082063 0.218997
0.391608 0.090974 0.233646
0.464302 0.105867 0.249271
0.034546 0.046510 0.202274
0.032990 0.036622 0.183322
0.033234 0.036835 0.174838
0.043824 0.039460 0.174411
0.100114 0.049744 0.193271
0.222110 0.070619 0.223575
0.362860 0.088411 0.248661
0.455848 0.105348 0.264897
0.512322 0.125765 0.285069
0.038788 0.080262 0.255192
0.037232 0.059998 0.238224
0.035279 0.045838 0.213107
0.041596 0.048859 0.219913
0.094591 0.059693 0.243351
0.245457 0.083833 0.272679
0.420539 0.108186 0.297154
0.505943 0.124300 0.306310
0.579675 0.170718 0.343450
0.048463 0.161898 0.337957
0.047639 0.157687 0.346899
0.044862 0.129671 0.322484
0.049897 0.107210 0.303410
0.118578 0.121141 0.332479
0.313756 0.152224 0.370459
0.512901 0.183764 0.391272
0.580560 0.182132 0.374212
0.690394 0.296559 0.445228
0.068940 0.305440 0.437873
0.075624 0.331350 0.473854
0.069917 0.309621 0.464790
0.080171 0.284016 0.447807
0.158587 0.274281 0.448814
0.408331 0.328878 0.503410
0.639948 0.391257 0.546883
0.704890 0.364370 0.505440
0.793851 0.522805 0.599954
0.104036 0.450782 0.524804
0.124208 0.505180 0.578271
0.123903 0.498634 0.578943
0.142824 0.492866 0.576745
0.275868 0.527001 0.599603
0.499199 0.557046 0.617395
0.718563 0.627878 0.671016
0.802487 0.623240 0.662974
0.853147 0.699062 0.715816
0.142977 0.559411 0.587366
0.171572 0.610590 0.642603
0.180301 0.621241 0.653773
0.204501 0.630823 0.659144
0.363882 0.679957 0.684260
0.614115 0.734462 0.719234
0.767758 0.771572 0.747372
0.849332 0.776547 0.756069
0.889372 0.805234 0.788144
0.189761 0.631251 0.631952
0.213504 0.661372 0.669490
0.220279 0.671321 0.681270
0.226108 0.674311 0.676265
0.354452 0.716152 0.692500
0.618112 0.780484 0.735286
0.785794 0.812833 0.761349
0.874693 0.844114 0.800290
0.906004 0.845304 0.814176
0.246586 0.682551 0.672999
0.250034 0.689906 0.686885
0.239292 0.685908 0.680781
0.297261 0.707027 0.683528
0.516854 0.771786 0.728298
0.720821 0.822660 0.765652
0.821256 0.846250 0.796109
0.884184 0.868955 0.823911
0.910307 0.876982 0.837522
0.032990 0.036439 0.183536
0.032959 0.036469 0.176883
0.034394 0.036805 0.170169
0.042542 0.038941 0.171237
0.078065 0.045197 0.184970
0.157382 0.058625 0.206607
0.257053 0.075196 0.229618
0.365789 0.089326 0.247990
0.456367 0.105379 0.270207
0.035218 0.046143 0.215641
0.033783 0.038239 0.201114
0.033722 0.038331 0.198795
0.035035 0.038544 0.197665
0.053101 0.042786 0.208469
0.134432 0.056458 0.230808
0.282536 0.080751 0.261570
0.428931 0.099184 0.287236
0.506920 0.125551 0.318029
0.039765 0.084932 0.275242
0.037995 0.065461 0.257755
0.036622 0.050233 0.235691
0.037140 0.048981 0.239384
0.057679 0.053162 0.254734
0.151766 0.067720 0.279026
0.325780 0.096834 0.309880
0.477424 0.119020 0.338140
0.567864 0.170962 0.386236
0.049348 0.172335 0.364019
0.046571 0.151156 0.355108
0.043580 0.123781 0.330114
0.041871 0.092317 0.306645
0.061006 0.092439 0.327153
0.179110 0.114839 0.366705
0.393317 0.156954 0.404639
0.555596 0.199954 0.433936
0.672541 0.291829 0.497902
0.068208 0.304707 0.458747
0.067231 0.299245 0.466896
0.062806 0.270191 0.451026
0.057588 0.227253 0.427680
0.069215 0.190570 0.414847
0.224948 0.238727 0.473793
0.485298 0.309712 0.535729
0.676753 0.375082 0.579156
0.775570 0.500832 0.637491
0.101106 0.440925 0.539422
0.106966 0.452247 0.556878
0.101289 0.434516 0.551781
0.098085 0.415732 0.547814
0.148074 0.417685 0.560571
0.294697 0.442161 0.586648
0.588266 0.545785 0.656550
0.765469 0.596170 0.701137
0.839139 0.678187 0.735592
0.139223 0.545342 0.602594
0.151369 0.566217 0.626093
0.153292 0.568322 0.631617
0.163363 0.576379 0.640345
0.258839 0.617700 0.670619
0.488975 0.681361 0.716426
0.663661 0.705257 0.734157
0.828183 0.762997 0.782803
0.876280 0.791348 0.800229
0.170657 0.610590 0.642969
0.188998 0.637598 0.673121
0.202060 0.654932 0.686915
0.226749 0.673976 0.698878
0.343587 0.717403 0.724727
0.576883 0.777676 0.766629
0.751278 0.811826 0.797421
0.856138 0.835172 0.818235
0.906401 0.848173 0.834806
0.203311 0.654169 0.671443
0.207187 0.663996 0.682551
0.219944 0.675410 0.690486
0.284474 0.705684 0.707424
0.490501 0.769863 0.749386
0.693309 0.822873 0.791531
0.803403 0.847074 0.815518
0.876219 0.868132 0.841184
0.916411 0.881224 0.854856
0.033631 0.037354 0.198947
0.033570 0.037507 0.198123
0.033539 0.037507 0.196109
0.035615 0.038056 0.197360
0.047059 0.041138 0.205661
0.098573 0.050233 0.221775
0.196048 0.065095 0.242557
0.319829 0.085054 0.264622
0.430762 0.099123 0.284459
0.036500 0.051820 0.236912
0.036439 0.050141 0.234989
0.036530 0.048463 0.236393
0.038087 0.048127 0.240940
0.057954 0.052094 0.255680
0.122164 0.062776 0.273136
0.240726 0.080201 0.292729
0.376562 0.105104 0.317906
0.480629 0.120668 0.339147
0.041444 0.097658 0.301030
0.040345 0.090547 0.297032
0.040497 0.083406 0.296178
0.043885 0.076692 0.301976
0.066712 0.082368 0.322026
0.156130 0.099214 0.352422
0.306065 0.125246 0.375372
0.442390 0.153872 0.399908
0.545342 0.181674 0.420020
0.049683 0.182040 0.384588
0.049928 0.177829 0.384131
0.048341 0.161288 0.374273
0.049561 0.142245 0.376776
0.080842 0.150378 0.402167
0.194522 0.183841 0.447944
0.381170 0.231052 0.492256
0.538231 0.270558 0.519493
0.654414 0.321767 0.550896
0.066896 0.299382 0.467750
0.066285 0.291981 0.468177
0.063996 0.275135 0.462867
0.068391 0.257679 0.462882
0.126986 0.294301 0.501808
0.273564 0.352895 0.554955
0.490455 0.424155 0.607660
0.644129 0.468803 0.638453
0.753262 0.497887 0.665034
0.097292 0.420142 0.538445
0.094209 0.415412 0.541833
0.094789 0.411231 0.546563
0.117708 0.423102 0.563653
0.214908 0.475135 0.607019
0.371847 0.536507 0.654139
0.584878 0.613291 0.701320
0.731991 0.655467 0.733516
0.825437 0.665232 0.749691
0.129763 0.516655 0.595850
0.131289 0.518547 0.601343
0.137758 0.528557 0.611872
0.184176 0.568536 0.643488
0.353872 0.646784 0.698817
0.532784 0.688045 0.732265
0.677531 0.727626 0.761593
0.800656 0.774594 0.795560
0.868833 0.786648 0.811368
0.163485 0.588739 0.642481
0.170382 0.599512 0.653681
0.182528 0.615595 0.665797
0.243870 0.657221 0.694026
0.425193 0.720211 0.737057
0.620096 0.769558 0.777035
0.750668 0.802152 0.805173
0.842405 0.832120 0.835996
0.897124 0.847868 0.852781
0.189120 0.638239 0.675227
0.201511 0.655543 0.687617
0.224674 0.676173 0.701289
0.302052 0.713832 0.724788
0.488212 0.772763 0.765255
0.666514 0.819669 0.803769
0.787076 0.845731 0.830625
0.861357 0.867521 0.855863
0.929107 0.894743 0.888395
