assets/luts/impulz-kodak-ultramax-400-fc-log-47e83cd8.cube
# (C) 2014 VisionColor & Patchflyer [www.vision-color.com]
# Generator: VC Patchmatch v.2.1.1 [64/53]
# All work and no play makes Jack a dull boy.
# LUT generated from: Kodak Ultramax 400_FC
LUT_3D_SIZE 17
0.021515 0.025727 0.021515
0.035218 0.027283 0.029633
0.060670 0.025208 0.028443
0.090700 0.024231 0.027405
0.127260 0.022858 0.025727
0.172000 0.023926 0.027832
0.227512 0.023865 0.029572
0.295048 0.023163 0.031067
0.366323 0.023560 0.033265
0.445457 0.023774 0.034913
0.524498 0.024750 0.037140
0.606409 0.024750 0.038727
0.689357 0.025177 0.041444
0.771176 0.025849 0.044343
0.839750 0.027832 0.049531
0.892332 0.031128 0.056611
0.915251 0.041718 0.074861
0.028992 0.038056 0.025635
0.039429 0.033906 0.025025
0.065248 0.032593 0.024720
0.105440 0.039155 0.024048
0.151522 0.043915 0.021851
0.199496 0.045686 0.024292
0.256107 0.044709 0.026673
0.326390 0.047059 0.027558
0.394430 0.049012 0.028901
0.471794 0.051026 0.030396
0.547753 0.050324 0.033112
0.625208 0.049775 0.035096
0.706386 0.049409 0.038270
0.785275 0.045747 0.042329
0.853422 0.046113 0.047791
0.905943 0.044800 0.055268
0.929839 0.058045 0.073548
0.035157 0.057862 0.019928
0.046601 0.054597 0.019440
0.080293 0.056916 0.019409
0.119783 0.061433 0.019104
0.169009 0.064485 0.017823
0.224765 0.073213 0.019898
0.289708 0.077699 0.022248
0.358907 0.078523 0.023102
0.428458 0.080323 0.024598
0.498634 0.082551 0.026276
0.572839 0.084230 0.029480
0.647578 0.081636 0.031891
0.725704 0.077790 0.035431
0.802579 0.074006 0.039521
0.866941 0.070680 0.045777
0.919127 0.069459 0.053223
0.941283 0.084108 0.071473
0.043305 0.081270 0.015412
0.063325 0.083894 0.015351
0.095033 0.087221 0.015961
0.133761 0.089937 0.016541
0.183993 0.099275 0.015656
0.243961 0.103700 0.016541
0.308339 0.108522 0.019532
0.382406 0.117433 0.020783
0.453391 0.123842 0.022339
0.524590 0.127077 0.023804
0.593896 0.123079 0.026825
0.667323 0.122530 0.029389
0.743435 0.120241 0.032990
0.817868 0.116396 0.036927
0.880705 0.111543 0.043061
0.926513 0.110262 0.050874
0.946166 0.128511 0.068666
0.057160 0.109499 0.012543
0.082246 0.117800 0.012573
0.111421 0.123995 0.012543
0.157565 0.128328 0.013214
0.201511 0.132662 0.013886
0.261112 0.142306 0.014893
0.329290 0.151644 0.017060
0.403586 0.158694 0.018738
0.475395 0.165530 0.020447
0.546166 0.175631 0.021851
0.613550 0.177523 0.024231
0.683406 0.170687 0.026886
0.757656 0.166934 0.030457
0.827634 0.165286 0.034791
0.889738 0.163210 0.040803
0.934752 0.162203 0.048981
0.950103 0.178286 0.066773
0.084504 0.152255 0.010346
0.111543 0.162936 0.010773
0.141360 0.171267 0.011231
0.179080 0.179629 0.011872
0.227359 0.183841 0.012848
0.282994 0.187808 0.013977
0.348318 0.200137 0.016052
0.421500 0.210636 0.017182
0.497093 0.225834 0.019196
0.568475 0.233768 0.020539
0.632776 0.234592 0.022034
0.701137 0.233005 0.024384
0.770657 0.226993 0.028260
0.837003 0.224094 0.032837
0.897948 0.220005 0.038727
0.936675 0.216800 0.046632
0.947021 0.229313 0.063294
0.126284 0.212039 0.010590
0.148714 0.224979 0.011261
0.178012 0.236637 0.012055
0.210056 0.244266 0.012634
0.255467 0.249149 0.013855
0.311696 0.253758 0.015198
0.370962 0.257694 0.016419
0.442100 0.262928 0.017151
0.514290 0.275639 0.018494
0.583642 0.292088 0.019776
0.649744 0.301366 0.020844
0.715328 0.296544 0.022583
0.783444 0.289464 0.026154
0.844144 0.282841 0.029419
0.899443 0.277745 0.034180
0.935729 0.269841 0.041993
0.943786 0.276677 0.058839
0.173770 0.279667 0.010559
0.192660 0.291569 0.011505
0.216434 0.309346 0.012848
0.248692 0.318471 0.013611
0.287327 0.324178 0.014740
0.341390 0.328359 0.015869
0.396384 0.331319 0.016938
0.458824 0.340078 0.017395
0.530709 0.355230 0.018433
0.596399 0.357397 0.019135
0.662806 0.366583 0.019959
0.727871 0.370520 0.020966
0.789487 0.359792 0.022461
0.849363 0.350713 0.025544
0.900511 0.337621 0.029541
0.930541 0.325536 0.036439
0.937682 0.325231 0.052491
0.217655 0.345663 0.010712
0.233127 0.359731 0.012024
0.252018 0.380697 0.013458
0.282567 0.393027 0.015015
0.318273 0.398764 0.016022
0.373938 0.403708 0.017212
0.425681 0.406394 0.018158
0.488609 0.415518 0.018280
0.544839 0.424338 0.018585
0.610803 0.430076 0.019013
0.670497 0.432547 0.019471
0.734920 0.435447 0.020111
0.796292 0.428428 0.021210
0.847593 0.415091 0.022278
0.891661 0.400626 0.024933
0.920501 0.383291 0.029755
0.929107 0.376440 0.045197
0.258579 0.409033 0.011048
0.268711 0.428473 0.012512
0.285222 0.449714 0.014038
0.315618 0.463783 0.015930
0.350988 0.471565 0.017365
0.403937 0.476753 0.018647
0.454871 0.479713 0.018921
0.511772 0.484077 0.018647
0.569512 0.493263 0.018830
0.624002 0.503761 0.019135
0.685664 0.502190 0.019318
0.743435 0.499580 0.019684
0.797238 0.493843 0.020111
0.847898 0.483589 0.020844
0.885740 0.462470 0.021851
0.909850 0.442695 0.025299
0.920348 0.430457 0.038209
0.290959 0.468330 0.011383
0.300267 0.491615 0.012879
0.314244 0.513451 0.014374
0.342321 0.528740 0.016297
0.379980 0.536034 0.017700
0.423072 0.538964 0.018708
0.476143 0.541039 0.018708
0.530419 0.543847 0.018616
0.587213 0.549187 0.018555
0.645701 0.557366 0.018799
0.704280 0.564813 0.019287
0.759915 0.561547 0.019593
0.805142 0.552239 0.019867
0.845975 0.542443 0.020142
0.878752 0.525444 0.020783
0.898985 0.500786 0.022278
0.911070 0.487251 0.033570
0.308782 0.527214 0.011810
0.319982 0.547845 0.013153
0.336706 0.568353 0.014496
0.359991 0.585046 0.015808
0.398932 0.592401 0.016815
0.444282 0.597070 0.017731
0.491493 0.598505 0.018097
0.548943 0.599939 0.018128
0.603113 0.601923 0.018189
0.662684 0.606439 0.018616
0.719783 0.612909 0.019074
0.771481 0.613336 0.019593
0.814084 0.602045 0.019776
0.853452 0.593286 0.020050
0.876280 0.580041 0.020356
0.891875 0.559503 0.021515
0.903990 0.542077 0.029816
0.307958 0.592035 0.012085
0.321843 0.608179 0.013245
0.342718 0.626642 0.014191
0.369940 0.642237 0.015229
0.408667 0.647730 0.016052
0.458564 0.653529 0.016876
0.506188 0.655970 0.017273
0.564660 0.656306 0.017762
0.619318 0.656550 0.017914
0.675624 0.655909 0.018463
0.728573 0.657588 0.018952
0.780301 0.657526 0.019501
0.819669 0.657893 0.019867
0.854643 0.652827 0.020203
0.874144 0.636408 0.020447
0.886992 0.616510 0.021271
0.896910 0.600122 0.028046
0.297307 0.662989 0.012116
0.314305 0.676020 0.013123
0.340581 0.687312 0.013886
0.372198 0.699428 0.014679
0.410468 0.704402 0.015473
0.465003 0.708186 0.016297
0.518242 0.710689 0.016846
0.579431 0.710872 0.017365
0.636194 0.709163 0.017914
0.691798 0.707149 0.018433
0.741543 0.702876 0.019013
0.790372 0.703609 0.019654
0.824491 0.701534 0.019989
0.857481 0.702083 0.020356
0.874357 0.688746 0.020569
0.882506 0.677180 0.021332
0.890806 0.660731 0.027497
0.281956 0.730495 0.012024
0.306523 0.737484 0.012757
0.333928 0.747921 0.013458
0.370733 0.754513 0.014313
0.414313 0.759548 0.015076
0.470161 0.763058 0.015991
0.525414 0.764370 0.016693
0.586480 0.764828 0.017273
0.645624 0.761563 0.018006
0.698665 0.758358 0.018616
0.744289 0.750332 0.019226
0.786984 0.744686 0.019715
0.824308 0.737209 0.020111
0.850858 0.739437 0.020447
0.872251 0.743313 0.020722
0.878996 0.732967 0.021393
0.884703 0.717189 0.026795
0.261173 0.793484 0.011719
0.292363 0.798154 0.012512
0.324987 0.803647 0.013336
0.364355 0.807034 0.014313
0.413886 0.809476 0.015442
0.469368 0.812161 0.016388
0.526024 0.812253 0.017182
0.582788 0.811276 0.017945
0.642206 0.806638 0.018891
0.693477 0.802304 0.019562
0.738613 0.796994 0.020142
0.778988 0.788540 0.020539
0.816617 0.780911 0.020935
0.842405 0.772061 0.020966
0.862577 0.773678 0.021149
0.875425 0.781247 0.021393
0.880583 0.767086 0.026673
0.236851 0.837247 0.011353
0.274205 0.841459 0.012360
0.313878 0.845426 0.013581
0.356115 0.849180 0.015076
0.411902 0.851164 0.017243
0.470008 0.850584 0.019623
0.524376 0.848051 0.021942
0.578973 0.844297 0.023621
0.633570 0.839323 0.024872
0.684077 0.834287 0.025696
0.728573 0.828885 0.026337
0.760159 0.824155 0.026337
0.795316 0.815244 0.026001
0.823301 0.806638 0.025483
0.848692 0.797879 0.024537
0.864408 0.801083 0.024598
0.874327 0.806912 0.025086
0.026032 0.027039 0.043641
0.033906 0.027924 0.045075
0.058412 0.025666 0.044526
0.090913 0.023804 0.050385
0.131899 0.022461 0.054994
0.179263 0.023468 0.057099
0.235599 0.023529 0.057404
0.302312 0.022950 0.061311
0.366567 0.023468 0.064942
0.440513 0.023651 0.068086
0.516869 0.024537 0.069001
0.595911 0.024506 0.070588
0.675654 0.024933 0.074769
0.753323 0.025666 0.077424
0.821347 0.027741 0.082277
0.876890 0.031312 0.087221
0.901030 0.042695 0.104067
0.027558 0.037018 0.040925
0.042329 0.042298 0.046845
0.073548 0.042054 0.045045
0.113130 0.039033 0.042206
0.158328 0.036347 0.040833
0.212497 0.032654 0.038880
0.274144 0.031800 0.039551
0.343465 0.032349 0.042512
0.426596 0.029267 0.041657
0.509285 0.028687 0.042023
0.594446 0.027100 0.041230
0.670008 0.028321 0.044587
0.756497 0.027344 0.046235
0.832792 0.027710 0.049165
0.888548 0.030762 0.056397
0.912932 0.042176 0.074098
0.925139 0.061097 0.099855
0.033692 0.058747 0.035126
0.051362 0.068086 0.037201
0.093385 0.071443 0.038117
0.135012 0.067231 0.035340
0.189181 0.068360 0.035218
0.250706 0.070130 0.033845
0.317754 0.069276 0.034394
0.382284 0.065736 0.037293
0.462821 0.064881 0.036347
0.536522 0.062562 0.037629
0.620325 0.061799 0.037263
0.693660 0.059144 0.041077
0.776638 0.054749 0.043183
0.850980 0.051118 0.046540
0.904265 0.050965 0.054353
0.928222 0.062470 0.072114
0.938811 0.083680 0.098054
0.042664 0.091157 0.034302
0.062959 0.101411 0.027649
0.103334 0.107362 0.028016
0.155825 0.112734 0.029908
0.212406 0.111116 0.029084
0.280110 0.108522 0.028229
0.357931 0.115145 0.027832
0.423148 0.115938 0.031861
0.496574 0.110567 0.031373
0.570123 0.107057 0.032990
0.645869 0.102174 0.033600
0.717433 0.100618 0.038117
0.796292 0.089906 0.040375
0.869261 0.080659 0.044038
0.920287 0.079896 0.051850
0.940642 0.096742 0.069856
0.949096 0.125917 0.095857
0.057740 0.127962 0.031891
0.083314 0.144869 0.020386
0.122255 0.156741 0.021576
0.170962 0.161532 0.025208
0.237980 0.167514 0.027283
0.305562 0.171237 0.026276
0.394125 0.172000 0.022705
0.458305 0.169406 0.027558
0.528786 0.169863 0.028107
0.595483 0.164981 0.029450
0.670710 0.159121 0.029877
0.737057 0.148867 0.035004
0.814054 0.143618 0.037934
0.879210 0.136172 0.041840
0.928710 0.134401 0.049348
0.949432 0.148470 0.067109
0.951385 0.176242 0.092897
0.083284 0.174838 0.030365
0.117830 0.200290 0.016205
0.152682 0.215244 0.017639
0.194034 0.223667 0.020478
0.261631 0.227909 0.023285
0.333669 0.235508 0.025238
0.419333 0.244114 0.021912
0.486870 0.239963 0.025208
0.556497 0.236149 0.025574
0.622675 0.228962 0.026856
0.691188 0.223911 0.026886
0.756893 0.218143 0.030854
0.827329 0.206088 0.035248
0.889128 0.196017 0.039094
0.929625 0.193240 0.046876
0.948425 0.204196 0.063294
0.948272 0.231113 0.089754
0.118776 0.230716 0.028046
0.165743 0.271092 0.012421
0.197940 0.289647 0.014008
0.236820 0.302602 0.015595
0.290532 0.309316 0.017365
0.362997 0.316915 0.019989
0.448753 0.329397 0.022309
0.511482 0.320546 0.024903
0.578531 0.315541 0.023804
0.644984 0.314321 0.024445
0.713771 0.306676 0.023957
0.777310 0.290730 0.026642
0.838468 0.280461 0.031037
0.891325 0.264073 0.035157
0.928313 0.258671 0.043397
0.945312 0.261753 0.058259
0.944366 0.281376 0.084047
0.161990 0.294499 0.027161
0.212863 0.339010 0.013703
0.236240 0.360769 0.015625
0.272099 0.377340 0.018341
0.315068 0.385519 0.020447
0.381338 0.389578 0.022736
0.459556 0.398703 0.024659
0.529061 0.409995 0.025055
0.594766 0.400015 0.023529
0.657038 0.388724 0.023896
0.727199 0.387655 0.022370
0.790616 0.377676 0.023255
0.845701 0.355154 0.026337
0.896422 0.336263 0.030518
0.924743 0.320439 0.038056
0.938659 0.315953 0.050996
0.939147 0.329595 0.076631
0.199313 0.358175 0.027741
0.251865 0.404654 0.012604
0.269596 0.428031 0.014466
0.298619 0.449699 0.018402
0.342962 0.459434 0.020447
0.401373 0.464622 0.022309
0.471611 0.468894 0.023041
0.538338 0.478019 0.023194
0.611154 0.486748 0.023346
0.673793 0.476707 0.023285
0.738949 0.473411 0.021088
0.800717 0.460441 0.021118
0.848875 0.439902 0.022766
0.886107 0.409079 0.024811
0.914946 0.389883 0.032074
0.929839 0.374990 0.044221
0.932494 0.381567 0.068940
0.230686 0.422095 0.026917
0.282078 0.466865 0.011994
0.296391 0.492012 0.013855
0.321813 0.514549 0.015991
0.364569 0.526452 0.019013
0.418647 0.531456 0.021515
0.486580 0.535424 0.022034
0.548669 0.537987 0.022675
0.623011 0.545647 0.022827
0.688701 0.552544 0.023255
0.753201 0.543511 0.020935
0.805905 0.528618 0.020569
0.849485 0.511131 0.021393
0.883207 0.484932 0.022766
0.905974 0.457282 0.026825
0.919768 0.439704 0.037568
0.923827 0.435584 0.059693
0.255222 0.481483 0.025666
0.303349 0.526604 0.012116
0.317632 0.551354 0.013581
0.339605 0.574151 0.015442
0.384710 0.586542 0.017426
0.434394 0.592645 0.019104
0.499245 0.597162 0.019013
0.562890 0.599664 0.019287
0.633783 0.604089 0.019654
0.702922 0.607141 0.020233
0.769619 0.610834 0.020935
0.817929 0.596002 0.020417
0.850187 0.575677 0.020783
0.876097 0.551141 0.021149
0.897307 0.527123 0.024201
0.910460 0.502159 0.031891
0.916655 0.494026 0.052308
0.263767 0.536645 0.020722
0.310735 0.588281 0.012146
0.329046 0.610956 0.013336
0.353887 0.631067 0.014557
0.398535 0.643153 0.015778
0.451575 0.649805 0.016724
0.509880 0.654475 0.017609
0.575982 0.655390 0.017914
0.643381 0.657160 0.018311
0.712779 0.660182 0.019196
0.776699 0.661341 0.019898
0.829435 0.659541 0.020447
0.858763 0.637324 0.020752
0.874693 0.614221 0.020966
0.889769 0.596796 0.022553
0.902312 0.570092 0.028351
0.910185 0.553124 0.046143
0.261357 0.598169 0.016876
0.300206 0.656947 0.012238
0.323095 0.675959 0.013123
0.354986 0.691707 0.014160
0.397101 0.701411 0.015106
0.455543 0.707332 0.016175
0.519280 0.711543 0.017243
0.583886 0.711238 0.017884
0.651545 0.709651 0.018494
0.714961 0.708064 0.019287
0.773892 0.705959 0.019959
0.826200 0.703639 0.020539
0.858946 0.702266 0.020813
0.873960 0.680018 0.021027
0.885985 0.659236 0.022553
0.895293 0.633814 0.027161
0.903258 0.616205 0.042115
0.249943 0.667201 0.014527
0.281651 0.729732 0.011994
0.308354 0.740780 0.012818
0.345647 0.750210 0.013703
0.391333 0.758633 0.014710
0.449439 0.762387 0.015747
0.517082 0.765103 0.016876
0.581491 0.765072 0.017578
0.649485 0.760403 0.018585
0.710658 0.756771 0.019287
0.763912 0.750820 0.020020
0.811826 0.744961 0.020478
0.846738 0.741878 0.020752
0.871427 0.743709 0.021057
0.880308 0.725307 0.022248
0.887907 0.703059 0.026215
0.896330 0.681697 0.040070
0.238804 0.732265 0.011841
0.261082 0.787655 0.011780
0.292271 0.794705 0.012634
0.335912 0.799374 0.013703
0.386328 0.805814 0.015351
0.443946 0.809598 0.016602
0.511040 0.809262 0.018921
0.576288 0.808133 0.019654
0.643595 0.803220 0.020691
0.701534 0.798917 0.021302
0.753536 0.792782 0.021668
0.795834 0.784604 0.021485
0.834073 0.776394 0.021820
0.857786 0.776242 0.021698
0.876402 0.781613 0.021973
0.882231 0.759609 0.025330
0.888243 0.734524 0.038178
0.224887 0.795041 0.011231
0.243076 0.834379 0.011841
0.283421 0.837858 0.013092
0.327153 0.841154 0.014252
0.385412 0.843259 0.018891
0.444770 0.846647 0.020966
0.510704 0.846494 0.023713
0.568872 0.843442 0.024903
0.633112 0.838407 0.025666
0.688167 0.833585 0.026062
0.736782 0.828855 0.025910
0.776883 0.820554 0.025483
0.813413 0.812589 0.025086
0.845762 0.804288 0.023865
0.863340 0.805966 0.024018
0.876463 0.812375 0.024231
0.880644 0.784634 0.036133
0.210178 0.842130 0.011139
0.230686 0.864866 0.012665
0.277928 0.866941 0.015412
0.327306 0.869200 0.018219
0.390356 0.869261 0.025422
0.453285 0.869444 0.031403
0.517540 0.869413 0.035309
0.570642 0.864897 0.037324
0.624140 0.859037 0.039277
0.675898 0.852598 0.040925
0.718441 0.847593 0.040558
0.753536 0.842557 0.039277
0.785794 0.835447 0.036652
0.815915 0.827848 0.034638
0.843534 0.818845 0.032197
0.860227 0.820218 0.031800
0.871244 0.824338 0.032624
0.025574 0.025818 0.081605
0.032959 0.026276 0.082521
0.054688 0.025483 0.080049
0.089082 0.023194 0.081758
0.132570 0.022065 0.084138
0.183536 0.022156 0.089509
0.242496 0.023102 0.094118
0.306157 0.022797 0.096376
0.371298 0.023377 0.099519
0.436835 0.023499 0.102541
0.508995 0.024262 0.105959
0.585748 0.024170 0.108614
0.663233 0.024598 0.110750
0.738582 0.025391 0.113375
0.803830 0.027924 0.115969
0.859892 0.032044 0.120363
0.886412 0.044099 0.133394
0.026703 0.036194 0.078218
0.042145 0.040925 0.091615
0.071015 0.039857 0.088380
0.112306 0.037354 0.081910
0.161959 0.035279 0.079072
0.218906 0.032227 0.080262
0.284916 0.031678 0.081514
0.349294 0.032258 0.080903
0.427268 0.029114 0.080690
0.500008 0.028473 0.081331
0.582666 0.026795 0.082399
0.658320 0.027985 0.084352
0.741543 0.027100 0.084596
0.815427 0.027680 0.086885
0.870787 0.031586 0.091249
0.895781 0.043305 0.107851
0.910369 0.062806 0.129641
0.030579 0.065522 0.066224
0.047791 0.078676 0.076509
0.081239 0.073915 0.076722
0.125185 0.071595 0.072999
0.177646 0.066499 0.069551
0.238254 0.061494 0.067414
0.306828 0.056245 0.065644
0.378744 0.053010 0.064149
0.458793 0.051270 0.064271
0.544289 0.045319 0.060609
0.630533 0.042237 0.059388
0.720546 0.037201 0.057435
0.801938 0.037140 0.060304
0.868650 0.036042 0.063111
0.907530 0.041993 0.074311
0.923858 0.059052 0.097353
0.923888 0.097383 0.132662
0.041444 0.102968 0.060792
0.061280 0.117037 0.062348
0.093874 0.114626 0.061982
0.148165 0.120211 0.065522
0.205631 0.113375 0.061646
0.276432 0.110994 0.061402
0.348928 0.110628 0.060639
0.423484 0.107118 0.058869
0.495689 0.097932 0.058717
0.577096 0.093751 0.055726
0.656580 0.084718 0.056031
0.744472 0.078065 0.054505
0.822354 0.068818 0.057404
0.887388 0.063233 0.060578
0.923980 0.070466 0.071809
0.937499 0.096773 0.095247
0.936522 0.138186 0.130800
0.057984 0.145602 0.055299
0.082399 0.168185 0.052705
0.115999 0.168582 0.049714
0.167971 0.176425 0.053193
0.234409 0.182010 0.058961
0.307927 0.175814 0.056153
0.386954 0.168307 0.053620
0.466789 0.171267 0.052155
0.535286 0.165774 0.053681
0.607630 0.154818 0.052033
0.685725 0.143191 0.052888
0.767971 0.129824 0.051942
0.842924 0.121035 0.055299
0.903014 0.108675 0.058198
0.937682 0.112245 0.069306
0.948913 0.136904 0.092531
0.942046 0.185702 0.129427
0.081056 0.194064 0.055116
0.109804 0.222965 0.046754
0.146609 0.231693 0.039673
0.195987 0.245426 0.043915
0.258396 0.249393 0.051514
0.343832 0.258732 0.055787
0.421378 0.254917 0.053071
0.508614 0.251316 0.046845
0.575051 0.239963 0.047944
0.642603 0.231144 0.046845
0.711330 0.215656 0.047395
0.791745 0.201846 0.046815
0.861387 0.186007 0.051911
0.914488 0.176089 0.055818
0.939574 0.178500 0.067079
0.947692 0.199527 0.089906
0.939757 0.244297 0.126497
0.110994 0.249149 0.054688
0.149355 0.291814 0.043305
0.189151 0.303853 0.034333
0.231418 0.323476 0.038453
0.284428 0.329335 0.044648
0.366934 0.334462 0.050355
0.455802 0.347189 0.053346
0.534554 0.341878 0.046632
0.603616 0.331945 0.045380
0.672480 0.318379 0.042206
0.740780 0.299001 0.042267
0.806790 0.279500 0.041718
0.873838 0.264942 0.045045
0.920439 0.246281 0.051087
0.943145 0.245029 0.062043
0.945129 0.259861 0.085451
0.936797 0.296269 0.122164
0.144839 0.310948 0.052552
0.187869 0.355734 0.039399
0.232486 0.382132 0.026856
0.271763 0.405631 0.032166
0.322728 0.419944 0.037629
0.395880 0.422385 0.042359
0.475456 0.429160 0.045808
0.561379 0.442466 0.046723
0.626505 0.426719 0.044678
0.693874 0.413504 0.039765
0.758602 0.396109 0.038178
0.822293 0.375631 0.036500
0.883604 0.345205 0.037110
0.920256 0.323598 0.043122
0.936339 0.309575 0.055360
0.938506 0.319707 0.078950
0.932464 0.347936 0.114473
0.178042 0.373556 0.051148
0.224247 0.420462 0.035584
0.269963 0.450065 0.022889
0.295903 0.478294 0.028382
0.345281 0.493828 0.034302
0.407385 0.496635 0.039368
0.485649 0.499535 0.042634
0.566781 0.507698 0.044007
0.644816 0.515724 0.044190
0.710567 0.502449 0.038941
0.770108 0.485618 0.037049
0.830045 0.464073 0.033753
0.883970 0.432914 0.030213
0.911559 0.397940 0.035096
0.927520 0.380270 0.047608
0.930694 0.378592 0.071870
0.927825 0.399863 0.106600
0.206363 0.435340 0.048707
0.246738 0.481086 0.032441
0.290013 0.511193 0.019196
0.311437 0.538598 0.022675
0.357397 0.556664 0.028351
0.419867 0.563317 0.032502
0.492256 0.567468 0.034943
0.571572 0.569451 0.036622
0.648936 0.576135 0.036896
0.728283 0.582330 0.037537
0.787259 0.566400 0.035157
0.840909 0.548455 0.031922
0.883665 0.517327 0.026398
0.904509 0.483314 0.029572
0.917235 0.453315 0.040009
0.921294 0.447150 0.063844
0.920684 0.455451 0.098604
0.221378 0.494179 0.044526
0.253086 0.537743 0.024567
0.295720 0.578851 0.014221
0.319036 0.603387 0.016663
0.364965 0.619593 0.020478
0.427893 0.627466 0.025513
0.496315 0.630426 0.028473
0.577050 0.631678 0.030854
0.650767 0.632013 0.033143
0.730449 0.636805 0.033997
0.798367 0.637171 0.034546
0.846433 0.619348 0.030701
0.878264 0.590356 0.025635
0.895689 0.558038 0.027222
0.906493 0.529870 0.035920
0.914275 0.511223 0.055787
0.915831 0.512840 0.090028
0.221683 0.546990 0.036439
0.251865 0.596124 0.019379
0.292851 0.646479 0.013275
0.321782 0.665736 0.014710
0.365118 0.681147 0.017853
0.433356 0.687984 0.020935
0.502708 0.691005 0.023774
0.584680 0.692164 0.025971
0.657206 0.690089 0.027680
0.733440 0.690120 0.029145
0.796628 0.689662 0.029541
0.853391 0.687831 0.029877
0.877409 0.663111 0.024811
0.889036 0.636500 0.025849
0.897978 0.605310 0.032502
0.906249 0.583337 0.049500
0.910582 0.571160 0.081147
0.213809 0.605737 0.025483
0.241733 0.662409 0.013672
0.281346 0.722744 0.012207
0.316899 0.736904 0.013367
0.360845 0.748959 0.014679
0.429328 0.754726 0.016327
0.504692 0.757717 0.017884
0.585504 0.758724 0.019623
0.660136 0.754208 0.021332
0.732128 0.750088 0.022980
0.790646 0.744045 0.024140
0.840085 0.740841 0.024445
0.873075 0.737026 0.024628
0.883696 0.710994 0.025605
0.890196 0.681361 0.031525
0.899260 0.652399 0.044312
0.905760 0.634791 0.073426
0.206180 0.671321 0.019867
0.230320 0.732387 0.012177
0.261082 0.789700 0.011810
0.301701 0.796811 0.012726
0.352911 0.804562 0.014221
0.415381 0.809964 0.015717
0.493019 0.809110 0.018463
0.573129 0.807767 0.020752
0.647349 0.801297 0.022217
0.715297 0.795621 0.023529
0.771847 0.787961 0.024903
0.819211 0.780179 0.024567
0.854246 0.774685 0.024720
0.876646 0.776608 0.024628
0.884001 0.749935 0.030732
0.891630 0.723781 0.042969
0.899016 0.694423 0.069062
0.196384 0.735348 0.015167
0.215305 0.789364 0.011414
0.242313 0.833494 0.011780
0.287083 0.838010 0.012909
0.346014 0.843442 0.015656
0.412512 0.847959 0.018952
0.485542 0.846799 0.022950
0.560449 0.842680 0.026154
0.632456 0.836423 0.027771
0.695277 0.829801 0.029450
0.750240 0.823514 0.029908
0.792294 0.814542 0.029328
0.830289 0.804074 0.028229
0.854673 0.802915 0.027466
0.874907 0.808438 0.027710
0.881224 0.777981 0.038361
0.890776 0.746212 0.064424
0.188388 0.798062 0.011780
0.209751 0.836728 0.011933
0.237675 0.859434 0.014343
0.287236 0.862699 0.016541
0.352209 0.865599 0.022889
0.423590 0.867552 0.030426
0.494728 0.866636 0.035431
0.557092 0.861753 0.041840
0.620539 0.855833 0.043030
0.678035 0.850248 0.044160
0.725429 0.845853 0.043336
0.767910 0.839139 0.041352
0.802152 0.829709 0.037415
0.834928 0.820432 0.035554
0.857786 0.822293 0.034211
0.872618 0.828672 0.034699
0.879271 0.791684 0.057923
0.181369 0.848203 0.011719
0.205417 0.869169 0.014740
0.244236 0.877531 0.021515
0.302922 0.877287 0.028077
0.368902 0.878141 0.036164
0.441321 0.876829 0.050019
0.507866 0.876036 0.057710
0.565576 0.871550 0.065217
0.614710 0.866697 0.067201
0.666865 0.861357 0.068421
0.706661 0.858061 0.066835
0.741604 0.853513 0.064088
0.770657 0.843870 0.058808
0.799832 0.834592 0.054475
0.829190 0.823270 0.048829
0.849699 0.825803 0.048798
0.866392 0.832364 0.049958
0.025360 0.025483 0.131014
0.035004 0.025086 0.128023
0.051942 0.024384 0.122927
0.086702 0.023316 0.117800
0.130098 0.021790 0.122194
0.184024 0.021027 0.121889
0.242985 0.022309 0.125521
0.307866 0.022431 0.130739
0.374136 0.022950 0.135439
0.438361 0.023041 0.139010
0.505455 0.023713 0.140017
0.578698 0.023804 0.146365
0.652186 0.024323 0.149905
0.725032 0.025116 0.151797
