assets/luts/impulz-fuji-pro-400-fc-rec-709-f3cf82bb.cube
# (C) 2014 VisionColor & Patchflyer [www.vision-color.com]
# Generator: VC Patchmatch v.2.1.1 [64/53]
# All work and no play makes Jack a dull boy.
# LUT generated from: Fuji Pro 400_FC
LUT_3D_SIZE 9
0.036133 0.037201 0.035523
0.137881 0.042512 0.040101
0.288457 0.055970 0.048798
0.434333 0.080201 0.067781
0.524041 0.101381 0.083467
0.575830 0.120607 0.095552
0.622797 0.142275 0.109071
0.663264 0.164706 0.121981
0.704433 0.177249 0.130129
0.057832 0.130648 0.036042
0.152010 0.143648 0.050416
0.283604 0.172702 0.073518
0.416419 0.207980 0.098940
0.519432 0.248081 0.123934
0.587671 0.269657 0.138888
0.640345 0.278630 0.148043
0.686091 0.277562 0.151858
0.727230 0.274296 0.154147
0.110506 0.269718 0.069490
0.212833 0.295018 0.088624
0.323705 0.331365 0.115053
0.445563 0.375372 0.144686
0.556725 0.424445 0.173800
0.636774 0.448310 0.190433
0.689754 0.448463 0.197391
0.725216 0.428687 0.196841
0.759945 0.405890 0.192996
0.175875 0.414588 0.112612
0.295018 0.444419 0.137850
0.405341 0.491753 0.164126
0.488182 0.524941 0.185885
0.596399 0.552850 0.209751
0.677546 0.569482 0.225650
0.730922 0.567651 0.232639
0.765927 0.553002 0.233463
0.793790 0.530022 0.228977
0.252110 0.547753 0.152010
0.379065 0.580774 0.179446
0.477211 0.618219 0.202426
0.564446 0.651637 0.224460
0.638422 0.665431 0.240848
0.713558 0.670405 0.254124
0.764981 0.667536 0.262547
0.800076 0.658015 0.264866
0.830259 0.639796 0.262364
0.321660 0.646876 0.185733
0.440436 0.674067 0.208927
0.528069 0.698024 0.228580
0.611536 0.725551 0.247929
0.691188 0.744076 0.265721
0.749935 0.751888 0.276768
0.797421 0.744778 0.284276
0.823545 0.737972 0.288731
0.855009 0.732143 0.290715
0.372747 0.731136 0.211765
0.488655 0.752102 0.232792
0.572992 0.766995 0.251041
0.650416 0.782559 0.268498
0.718990 0.801053 0.283909
0.777920 0.811246 0.295415
0.824887 0.820127 0.305364
0.848539 0.813291 0.310033
0.870939 0.804532 0.314336
0.403021 0.792355 0.228336
0.520775 0.807309 0.251164
0.609552 0.816434 0.269688
0.681666 0.824460 0.285069
0.741146 0.836301 0.297887
0.792233 0.848020 0.309636
0.837125 0.857572 0.319921
0.863767 0.864042 0.326909
0.881529 0.862119 0.335698
0.431464 0.845792 0.243687
0.553338 0.853330 0.269169
0.640772 0.858030 0.286381
0.715846 0.864500 0.303563
0.765835 0.870115 0.315038
0.813504 0.878141 0.328191
0.850187 0.886625 0.339147
0.872831 0.892424 0.346960
0.889494 0.898558 0.352514
0.033387 0.034913 0.090028
0.104372 0.032105 0.099641
0.218753 0.040284 0.096193
0.366247 0.057710 0.105440
0.486580 0.075563 0.113680
0.569512 0.090455 0.121828
0.622919 0.107210 0.130098
0.666682 0.117830 0.137514
0.702083 0.128328 0.144442
0.041596 0.103304 0.101961
0.131289 0.109804 0.111421
0.256809 0.123262 0.113924
0.398840 0.147768 0.128542
0.520531 0.168063 0.142794
0.601099 0.185458 0.155459
0.660761 0.188754 0.166140
0.711666 0.197055 0.169589
0.753902 0.203098 0.170596
0.082490 0.239780 0.105135
0.169619 0.246067 0.123323
0.286229 0.272221 0.139742
0.422431 0.298192 0.158999
0.540185 0.325261 0.178744
0.625086 0.336004 0.192844
0.688167 0.334020 0.202304
0.738094 0.320317 0.198978
0.779873 0.316777 0.196902
0.136995 0.390906 0.135653
0.227878 0.401129 0.153628
0.341009 0.431312 0.176303
0.462196 0.463111 0.197269
0.574395 0.473579 0.216251
0.658900 0.482399 0.232914
0.721950 0.475563 0.241032
0.769253 0.465187 0.241032
0.808713 0.446235 0.231632
0.196628 0.541436 0.170657
0.294255 0.542046 0.189639
0.403143 0.565789 0.210605
0.515679 0.595941 0.232975
0.613794 0.611170 0.250401
0.686732 0.608331 0.267399
0.748196 0.606775 0.276799
0.793973 0.594903 0.279759
0.834714 0.581506 0.275547
0.243931 0.647456 0.211948
0.356542 0.648035 0.225376
0.458473 0.664912 0.243259
0.556023 0.687129 0.265049
0.649897 0.705592 0.284642
0.716915 0.712398 0.296605
0.770932 0.700130 0.304326
0.816281 0.695766 0.312871
0.861784 0.691096 0.311894
0.285924 0.739498 0.240360
0.407202 0.736202 0.253758
0.503471 0.748135 0.270390
0.592279 0.763546 0.288121
0.671931 0.774868 0.305882
0.738247 0.786923 0.320012
0.793606 0.795285 0.331029
0.835691 0.788388 0.341985
0.871580 0.784085 0.347601
0.318395 0.805844 0.267063
0.443610 0.801633 0.274510
0.540642 0.807919 0.291417
0.621027 0.814939 0.307530
0.694636 0.824369 0.324468
0.753323 0.835630 0.341009
0.810605 0.846586 0.355261
0.848692 0.854673 0.366644
0.882628 0.857542 0.376806
0.341283 0.861479 0.277012
0.473030 0.857023 0.289067
0.567956 0.861601 0.305943
0.645594 0.863279 0.320592
0.714656 0.868986 0.337957
0.774807 0.876402 0.355169
0.828855 0.886015 0.376501
0.864561 0.893584 0.390875
0.889403 0.900450 0.404364
0.032776 0.035309 0.151156
0.081605 0.031464 0.144533
0.186465 0.038239 0.146334
0.304692 0.053315 0.156252
0.424872 0.070314 0.165347
0.515740 0.083345 0.173068
0.581018 0.094148 0.177646
0.631769 0.102663 0.180972
0.682704 0.108797 0.180941
0.043946 0.091218 0.189670
0.110475 0.092195 0.185824
0.217777 0.094026 0.186404
0.350774 0.113222 0.184665
0.473304 0.128603 0.192599
0.562554 0.139162 0.196262
0.627314 0.145205 0.202914
0.687800 0.150790 0.204501
0.743954 0.157992 0.195224
0.070954 0.187655 0.207645
0.136202 0.195041 0.212619
0.237308 0.205814 0.217319
0.376471 0.230594 0.228733
0.502922 0.243442 0.237827
0.605219 0.252995 0.250584
0.677363 0.251743 0.257572
0.750362 0.247318 0.251682
0.802121 0.252232 0.234348
0.115267 0.344305 0.222385
0.183352 0.351446 0.229557
0.285985 0.365820 0.246342
0.413764 0.395636 0.263615
0.534112 0.408606 0.277348
0.628504 0.410986 0.291081
0.704982 0.409583 0.298375
0.778012 0.395483 0.289616
0.828275 0.381323 0.267521
0.161074 0.498421 0.257206
0.240452 0.503349 0.266423
0.346654 0.514519 0.281743
0.460334 0.535210 0.297704
0.565057 0.552148 0.312993
0.652338 0.548791 0.329961
0.725124 0.547967 0.338933
0.796445 0.534661 0.332097
0.852049 0.520623 0.310887
0.204715 0.628199 0.288670
0.298955 0.631220 0.298528
0.408911 0.634119 0.316899
0.502281 0.647089 0.333471
0.598230 0.664607 0.349554
0.675746 0.672053 0.362676
0.740230 0.660151 0.372595
0.811154 0.659907 0.371313
0.864958 0.657465 0.362493
0.245792 0.728176 0.319371
0.347601 0.728267 0.328069
0.454536 0.728817 0.343633
0.540429 0.735317 0.359167
0.623835 0.748135 0.376287
0.697993 0.759426 0.390265
0.760342 0.766323 0.402716
0.824063 0.759548 0.407752
0.875761 0.769192 0.406561
0.276493 0.803677 0.335546
0.377966 0.804929 0.346380
0.488380 0.808286 0.358343
0.566552 0.807858 0.372198
0.645258 0.818662 0.388403
0.714046 0.830320 0.405432
0.780850 0.842374 0.422431
0.840604 0.852537 0.441108
0.883604 0.852781 0.450050
0.294621 0.860349 0.349310
0.405158 0.865538 0.354864
0.506981 0.868101 0.363378
0.586267 0.867887 0.377691
0.665034 0.870878 0.394110
0.734585 0.877531 0.412573
0.803525 0.886992 0.434485
0.857694 0.896849 0.462806
0.890257 0.903075 0.484627
0.036744 0.040711 0.228275
0.070588 0.033661 0.199557
0.160464 0.039063 0.187900
0.275395 0.051911 0.198550
0.382025 0.066407 0.210758
0.467018 0.078553 0.219394
0.531395 0.088808 0.225803
0.584253 0.096620 0.227451
0.639582 0.103304 0.222873
0.051606 0.092073 0.272282
0.100069 0.087404 0.257542
0.177127 0.082918 0.238712
0.299870 0.097444 0.243809
0.413642 0.111360 0.250614
0.506737 0.120424 0.254124
0.577356 0.127077 0.256413
0.646845 0.132815 0.253819
0.720333 0.138308 0.245823
0.075288 0.168124 0.299138
0.125216 0.173953 0.292973
0.211551 0.191348 0.296300
0.323033 0.192264 0.297673
0.444923 0.200900 0.300999
0.552087 0.209781 0.304204
0.632959 0.212924 0.302403
0.711818 0.205966 0.291386
0.783444 0.208316 0.269383
0.105623 0.280125 0.327825
0.157107 0.305730 0.332708
0.245274 0.325231 0.340703
0.365118 0.345281 0.356786
0.485206 0.356451 0.367742
0.581415 0.361395 0.376379
0.675624 0.355169 0.373968
0.764920 0.342626 0.359045
0.844602 0.326604 0.323156
0.145846 0.450233 0.359319
0.205814 0.469993 0.360052
0.297459 0.484657 0.372351
0.420630 0.493462 0.394537
0.519890 0.510475 0.406653
0.612970 0.512474 0.416083
0.696132 0.508965 0.418860
0.785946 0.497230 0.403204
0.865080 0.468864 0.365423
0.185672 0.589624 0.383886
0.255192 0.609766 0.387610
0.356359 0.612055 0.402777
0.466041 0.615869 0.429603
0.557336 0.629938 0.441444
0.639857 0.643336 0.454200
0.717311 0.638086 0.459144
0.799710 0.632471 0.451179
0.872740 0.625345 0.424506
0.223362 0.712062 0.408026
0.300877 0.715816 0.410040
0.398199 0.715206 0.426673
0.502007 0.715084 0.449928
0.581933 0.723781 0.465400
0.665797 0.741878 0.478981
0.736721 0.751156 0.493172
0.813901 0.749477 0.492775
0.882658 0.755856 0.480446
0.251865 0.794766 0.421729
0.330175 0.798703 0.429175
0.423926 0.801205 0.442481
0.525139 0.807919 0.458595
0.602869 0.811978 0.473671
0.684840 0.825742 0.489570
0.762417 0.839445 0.507958
0.829953 0.846922 0.531060
0.890684 0.854582 0.533379
0.263493 0.852537 0.430457
0.345739 0.862821 0.437598
0.437201 0.868528 0.441230
0.529076 0.875914 0.444038
0.606348 0.875669 0.459144
0.697108 0.881682 0.477058
0.780606 0.891997 0.504692
0.855436 0.904295 0.540398
0.897520 0.912444 0.575280
0.036042 0.041566 0.308598
0.061494 0.034028 0.261967
0.136202 0.038666 0.230564
0.239322 0.051057 0.235630
0.340246 0.062806 0.244419
0.422095 0.074250 0.256931
0.486244 0.084169 0.265751
0.546044 0.093385 0.264591
0.607050 0.101106 0.256474
0.052155 0.088411 0.352422
0.091615 0.083558 0.326238
0.147616 0.078706 0.298161
0.249424 0.089265 0.294133
0.360632 0.100771 0.298863
0.450996 0.110445 0.304479
0.531151 0.118502 0.304936
0.602258 0.125277 0.296727
0.682551 0.132082 0.282109
0.076020 0.156344 0.381842
0.118410 0.171908 0.371557
0.183871 0.175143 0.367224
0.268742 0.171633 0.361639
0.385748 0.179202 0.361273
0.493690 0.188693 0.364752
0.582849 0.193759 0.358984
0.673182 0.189334 0.342504
0.764096 0.188052 0.317571
0.107027 0.264652 0.413428
0.149691 0.286961 0.408576
0.221408 0.310765 0.415198
0.321660 0.321996 0.427558
0.432105 0.320562 0.430640
0.532097 0.324376 0.432166
0.632197 0.318669 0.420478
0.734585 0.306432 0.395850
0.829984 0.285679 0.357061
0.142061 0.410849 0.450141
0.186007 0.440879 0.452125
0.258732 0.456077 0.459297
0.367254 0.469352 0.471656
0.488289 0.485496 0.494789
0.579828 0.485008 0.498512
0.671199 0.477287 0.491524
0.780850 0.458579 0.471839
0.875578 0.425879 0.422492
0.179629 0.566110 0.475013
0.226749 0.589349 0.475715
0.308110 0.593439 0.484199
0.415106 0.594232 0.503105
0.527153 0.607721 0.526360
0.610346 0.623072 0.538750
0.696498 0.616815 0.537285
0.800870 0.609918 0.523430
0.884398 0.599069 0.486305
0.215091 0.689845 0.497414
0.264134 0.700282 0.496498
0.348730 0.704067 0.508354
0.449836 0.702876 0.527825
0.553399 0.714199 0.552666
0.634546 0.730220 0.566247
0.722072 0.748653 0.582544
0.816281 0.742336 0.573907
0.891997 0.751095 0.560113
0.248051 0.781613 0.514214
0.295079 0.786740 0.513298
0.372076 0.792905 0.521538
0.471626 0.798795 0.538262
0.571496 0.817075 0.558007
0.653925 0.827604 0.573754
0.747646 0.850156 0.593286
0.837949 0.860929 0.618463
0.899718 0.858396 0.620111
0.275486 0.854429 0.534295
0.314672 0.857023 0.524651
0.381872 0.865751 0.527337
0.470039 0.872404 0.529198
0.567163 0.884916 0.537224
0.660639 0.887724 0.555779
0.763333 0.898772 0.579492
0.859770 0.913909 0.626856
0.906401 0.924041 0.667567
0.038422 0.045136 0.377722
0.053834 0.036072 0.324376
0.111513 0.039002 0.283116
0.193393 0.048219 0.276341
0.289296 0.059815 0.281834
0.377203 0.070466 0.281102
0.443549 0.080262 0.290379
0.509453 0.089296 0.292973
0.580682 0.098970 0.284489
0.054108 0.090517 0.415076
0.083680 0.089876 0.390356
0.118288 0.075776 0.359380
0.197818 0.084138 0.349615
0.302571 0.095552 0.347417
0.403418 0.105867 0.344610
0.486854 0.113985 0.345037
0.566918 0.119844 0.331365
0.649897 0.127810 0.312474
0.079103 0.161440 0.449226
0.108553 0.167605 0.436316
0.163394 0.177371 0.435401
0.219974 0.163821 0.422950
0.329183 0.170352 0.424414
0.442817 0.176364 0.415839
0.537377 0.181674 0.410376
0.634028 0.179721 0.385138
0.730068 0.179385 0.351080
0.110048 0.262028 0.480110
0.144137 0.285374 0.476905
0.197696 0.291325 0.480568
0.280705 0.303685 0.489815
0.370443 0.295750 0.489021
0.489570 0.302678 0.490761
0.588159 0.296483 0.479225
0.695430 0.286198 0.452247
0.803037 0.272190 0.408484
0.144900 0.401175 0.515282
0.178256 0.417411 0.515496
0.237858 0.428519 0.519890
0.324300 0.443320 0.531792
0.432151 0.456931 0.551263
0.539483 0.455558 0.555535
0.633204 0.446647 0.545983
0.750759 0.426841 0.519951
0.855131 0.392660 0.461677
0.180331 0.548730 0.551812
0.215854 0.571374 0.556268
0.274662 0.570550 0.560815
0.366461 0.575982 0.571710
0.476814 0.590784 0.591638
0.586847 0.611933 0.616053
0.679347 0.607019 0.610834
0.792935 0.596216 0.591363
0.891722 0.568826 0.554131
0.215976 0.678096 0.577752
0.251041 0.685756 0.577020
0.311559 0.685786 0.582300
0.399725 0.688594 0.595056
0.506661 0.701534 0.617731
0.613153 0.724483 0.643519
0.706905 0.747250 0.661860
0.810971 0.747463 0.655848
0.901030 0.753079 0.644862
0.248936 0.769650 0.602258
0.280247 0.774380 0.597955
0.340124 0.781949 0.603906
0.420447 0.790921 0.613581
0.524971 0.808042 0.633051
0.628138 0.824521 0.656397
0.728420 0.840330 0.675471
0.829099 0.860960 0.706508
0.907439 0.867094 0.710506
0.279393 0.847135 0.624323
0.302159 0.850095 0.616846
0.353948 0.861265 0.615747
0.419471 0.871580 0.620752
0.515145 0.882902 0.634882
0.630793 0.898253 0.645380
0.748135 0.905852 0.667750
0.860838 0.921599 0.715999
0.913237 0.932616 0.759609
0.039643 0.048737 0.432532
0.050263 0.037537 0.381628
0.086671 0.039094 0.340764
0.149020 0.045808 0.322820
0.235172 0.056275 0.319341
0.320897 0.067353 0.319097
0.404486 0.077119 0.312688
0.472511 0.086030 0.317815
0.551781 0.095491 0.311803
0.055665 0.094820 0.468940
0.075441 0.092531 0.449836
0.100435 0.079408 0.421546
0.155550 0.083711 0.417609
0.239902 0.090578 0.404120
0.345006 0.101106 0.394110
0.445808 0.110170 0.379705
0.529381 0.115785 0.369818
0.617212 0.123293 0.351690
0.081636 0.168917 0.505119
0.102998 0.174929 0.494697
0.142519 0.175113 0.498909
0.182010 0.158999 0.488594
0.266041 0.162173 0.487373
0.381872 0.168368 0.476631
0.496162 0.175296 0.457710
0.596887 0.173190 0.436133
0.696193 0.171237 0.393225
0.113954 0.277897 0.538445
0.135225 0.280400 0.533318
0.179843 0.292119 0.541100
0.239719 0.286412 0.553399
0.306874 0.269871 0.548302
0.422034 0.274998 0.554559
0.551720 0.285405 0.545281
0.658991 0.274296 0.514122
0.769375 0.258518 0.461372
0.147250 0.398627 0.571984
0.170169 0.406271 0.572808
0.216251 0.410056 0.577996
0.284886 0.416281 0.591546
0.371542 0.421927 0.606653
0.464485 0.415305 0.610559
0.595178 0.428885 0.616907
0.714290 0.408713 0.596674
0.832364 0.380972 0.535607
0.181582 0.535973 0.607965
0.204013 0.539696 0.608576
0.251713 0.533135 0.614008
0.326879 0.541436 0.627985
0.417273 0.554498 0.646479
0.518212 0.572351 0.671443
0.640833 0.583154 0.681666
0.761715 0.573846 0.666041
0.878019 0.543557 0.621515
0.214511 0.662654 0.643549
0.237583 0.666835 0.647852
0.287297 0.664607 0.653925
0.365179 0.668177 0.666072
0.462226 0.688869 0.688167
0.569116 0.715694 0.715358
0.688411 0.749844 0.743832
0.815274 0.754421 0.739834
0.905730 0.745022 0.732631
0.245060 0.754147 0.670741
0.265873 0.757778 0.673671
0.311833 0.765499 0.676143
0.384436 0.776730 0.691218
0.477546 0.800290 0.709743
0.587701 0.821805 0.736324
0.715389 0.854673 0.761593
0.839567 0.877562 0.791348
0.919738 0.873045 0.799191
0.282719 0.838529 0.708125
0.294011 0.838376 0.697078
0.329778 0.852140 0.697536
0.388495 0.862760 0.709072
0.473610 0.881468 0.723781
0.588891 0.897032 0.747982
0.735134 0.914672 0.772122
0.862119 0.930877 0.806729
0.922515 0.940887 0.849851
0.041291 0.052705 0.471015
0.043793 0.041474 0.430762
0.068177 0.041993 0.400793
0.113710 0.046326 0.387823
0.179538 0.053132 0.372869
0.259220 0.062684 0.361944
0.345830 0.072389 0.349218
0.439002 0.083162 0.341588
0.526329 0.093385 0.339422
0.058350 0.103426 0.513420
0.069947 0.098085 0.503075
0.078920 0.079377 0.492195
0.119997 0.080720 0.491157
0.180819 0.084260 0.481025
0.271061 0.093050 0.454841
0.378393 0.103243 0.432624
0.492134 0.112886 0.408331
0.587243 0.121309 0.394018
0.084993 0.181582 0.553887
0.095857 0.174655 0.547478
0.116487 0.170108 0.563409
0.142672 0.144045 0.560754
0.202090 0.145724 0.568017
0.295720 0.149935 0.550256
0.419501 0.159274 0.528984
0.555566 0.170077 0.500053
0.657069 0.165682 0.460365
0.114656 0.276005 0.583825
0.127657 0.275639 0.581567
0.149172 0.268742 0.596460
0.186526 0.252110 0.617456
0.228534 0.232029 0.621241
0.330144 0.238315 0.630060
0.467536 0.251225 0.620844
0.616907 0.268589 0.600977
0.728359 0.248569 0.542229
0.148440 0.398749 0.618830
0.160555 0.391028 0.617700
0.185916 0.383261 0.632654
0.228489 0.373648 0.651942
0.278126 0.355489 0.679713
0.365698 0.346059 0.683589
0.506798 0.365316 0.698146
0.671992 0.393423 0.696406
0.795071 0.361318 0.638544
0.180056 0.516167 0.651270
0.193576 0.504662 0.653193
0.222568 0.503258 0.670924
0.275639 0.500786 0.686885
0.340887 0.506310 0.716243
0.419440 0.501884 0.738735
0.546166 0.516411 0.751583
0.713436 0.553338 0.764981
0.849607 0.522835 0.734035
0.211765 0.631434 0.687526
0.226139 0.627070 0.691249
0.257176 0.617700 0.705898
0.316381 0.624872 0.723476
0.395636 0.644038 0.751827
0.496162 0.672724 0.780606
0.607294 0.693812 0.805173
0.774624 0.733852 0.823331
0.891569 0.714046 0.807889
0.241733 0.733913 0.720577
0.257511 0.733669 0.727321
0.292210 0.741848 0.745418
0.357061 0.756558 0.761654
0.445289 0.786435 0.791379
0.551354 0.817838 0.816190
0.676020 0.854398 0.845701
0.821347 0.878477 0.864744
0.930297 0.890166 0.878996
0.276158 0.816312 0.754391
0.284886 0.819944 0.757443
0.314946 0.838499 0.770077
0.365362 0.854337 0.786984
0.441505 0.878843 0.812375
0.554437 0.897398 0.835599
0.700954 0.916289 0.852872
0.863981 0.935760 0.885801
0.941711 0.951019 0.906035
0.040711 0.058076 0.513359
0.039490 0.041444 0.487922
0.050538 0.042267 0.472663
0.075074 0.044678 0.464759
0.122560 0.048585 0.448737
0.184207 0.054536 0.424903
0.270420 0.064820 0.404242
0.368444 0.076204 0.385962
0.492470 0.090059 0.375372
0.056245 0.104891 0.553613
0.061006 0.097383 0.556817
0.061830 0.078004 0.551415
0.083467 0.077089 0.569543
0.127260 0.079164 0.565942
0.188327 0.082521 0.542351
0.293400 0.092958 0.504631
0.406653 0.104860 0.470832
0.545953 0.119203 0.448341
0.083772 0.185763 0.595789
0.084627 0.166842 0.596246
0.092653 0.152682 0.618402
0.099184 0.128450 0.628382
0.137240 0.126345 0.653956
0.198123 0.126406 0.644038
0.305211 0.134340 0.620264
0.450385 0.149538 0.576593
0.604425 0.170932 0.548882
0.111971 0.277775 0.627710
0.113313 0.256596 0.629572
0.119234 0.230869 0.647242
0.127840 0.203464 0.676265
0.147036 0.183078 0.691768
0.216526 0.190097 0.718563
0.327916 0.200900 0.712886
0.495979 0.223331 0.680140
0.672480 0.254002 0.660212
0.141939 0.381567 0.657282
0.143343 0.356054 0.659541
0.153475 0.335119 0.677150
0.162661 0.303593 0.703609
0.176150 0.272282 0.738064
0.227451 0.254490 0.751003
0.342687 0.279576 0.776791
0.542168 0.323064 0.771786
0.743282 0.360388 0.765743
0.172457 0.485451 0.689418
0.174166 0.461677 0.690913
0.188296 0.444007 0.708766
0.207248 0.426184 0.734188
0.229557 0.412268 0.772824
0.278965 0.394263 0.803555
0.368078 0.397742 0.823117
0.588159 0.466667 0.834989
0.808438 0.504738 0.841459
0.203800 0.591028 0.722652
0.207340 0.572259 0.725399
0.228428 0.567407 0.746090
0.257023 0.569238 0.774197
0.304753 0.581384 0.808591
0.376379 0.597101 0.840818
0.467475 0.608881 0.863493
0.638697 0.650538 0.873716
0.869993 0.686244 0.881468
0.234897 0.689723 0.755825
0.241154 0.683986 0.762417
0.265568 0.690547 0.782559
0.307866 0.715755 0.812314
0.375708 0.749660 0.843931
0.472694 0.787594 0.871427
0.592126 0.814633 0.889982
0.756832 0.846067 0.902953
0.921386 0.879576 0.920439
0.266819 0.787442 0.789792
0.275914 0.794583 0.800412
0.304051 0.814572 0.822232
0.350683 0.843473 0.844175
0.424353 0.873045 0.868193
0.532128 0.896056 0.886473
0.667964 0.920470 0.904509
0.836027 0.938262 0.923552
0.966064 0.966064 0.957580
