assets/luts/impulz-fujicolor-200-fpe-log-1faf4ff2.cube
# (C) 2014 VisionColor & Patchflyer [www.vision-color.com]
# Generator: VC Patchmatch v.2.1.1 [64/53]
# All work and no play makes Jack a dull boy.
# LUT generated from: FujiColor 200_FPE
LUT_3D_SIZE 17
0.033173 0.035981 0.036316
0.039185 0.042054 0.041749
0.079927 0.055116 0.040253
0.129397 0.069429 0.038819
0.187259 0.084962 0.037049
0.243534 0.102327 0.037995
0.293675 0.115114 0.039765
0.326177 0.121614 0.041382
0.356176 0.127932 0.042939
0.380346 0.132387 0.044251
0.402899 0.136233 0.045350
0.418280 0.138582 0.046113
0.435004 0.141756 0.046906
0.451698 0.145327 0.047761
0.472023 0.150515 0.048768
0.494331 0.156924 0.049836
0.536187 0.173068 0.051575
0.032959 0.043427 0.043946
0.037079 0.045655 0.042969
0.076753 0.059419 0.042115
0.132113 0.082795 0.041291
0.196078 0.105806 0.039124
0.254276 0.123507 0.039124
0.308354 0.134585 0.040711
0.349157 0.143832 0.042664
0.390143 0.152987 0.044800
0.418891 0.159609 0.046326
0.439857 0.162387 0.047303
0.455360 0.164797 0.048066
0.475441 0.170199 0.049073
0.493782 0.174929 0.049989
0.514244 0.180545 0.051026
0.535821 0.187289 0.052094
0.581720 0.210117 0.054932
0.033600 0.065797 0.063783
0.037995 0.067628 0.061707
0.074861 0.078737 0.050019
0.129000 0.100435 0.047639
0.197147 0.123629 0.042542
0.262730 0.145296 0.040040
0.324712 0.159213 0.041596
0.380224 0.170687 0.044282
0.423163 0.180026 0.046540
0.460334 0.189578 0.048737
0.485573 0.195071 0.049989
0.503746 0.198917 0.050843
0.521782 0.203128 0.051728
0.543420 0.210910 0.053223
0.567742 0.221225 0.054932
0.594293 0.234134 0.056794
0.631983 0.258000 0.060212
0.042939 0.098909 0.091402
0.057038 0.102663 0.080598
0.090425 0.110903 0.064729
0.131502 0.121248 0.054719
0.199832 0.147494 0.048615
0.268345 0.165042 0.040833
0.330388 0.178439 0.042023
0.393454 0.195651 0.044800
0.450904 0.210941 0.048188
0.495277 0.222873 0.050935
0.527825 0.228489 0.052918
0.555566 0.239597 0.054994
0.585138 0.251835 0.057374
0.611933 0.264042 0.059663
0.636439 0.274693 0.061463
0.658320 0.289433 0.064363
0.686244 0.314458 0.070436
0.057191 0.137453 0.123415
0.080903 0.145052 0.103182
0.110933 0.151980 0.082673
0.163058 0.162051 0.064698
0.209018 0.171847 0.054139
0.278813 0.190799 0.045258
0.349889 0.210513 0.043427
0.412436 0.225284 0.045777
0.468956 0.239811 0.049012
0.524926 0.259190 0.053529
0.568658 0.273808 0.057038
0.605707 0.286198 0.060212
0.635676 0.298070 0.062623
0.665614 0.313420 0.066682
0.688502 0.329107 0.070192
0.709346 0.346136 0.073884
0.731411 0.368597 0.081819
0.078309 0.179324 0.155459
0.110719 0.190646 0.128084
0.151064 0.200900 0.099672
0.206088 0.211887 0.073030
0.253697 0.217990 0.058686
0.298955 0.222141 0.050446
0.370596 0.244388 0.048920
0.438956 0.265080 0.049500
0.499321 0.285435 0.053285
0.553613 0.303197 0.057038
0.601221 0.317601 0.061097
0.645594 0.335424 0.066926
0.679347 0.349981 0.071199
0.708858 0.364508 0.075410
0.731411 0.378698 0.078950
0.748959 0.397040 0.087465
0.764004 0.418677 0.103120
0.102937 0.225132 0.186557
0.137758 0.239963 0.158297
0.193790 0.255985 0.121553
0.253346 0.268223 0.089204
0.314900 0.277836 0.069917
0.361440 0.282078 0.060365
0.398978 0.285252 0.056458
0.465415 0.303532 0.055360
0.526009 0.323705 0.058289
0.582330 0.344457 0.064881
0.634241 0.363317 0.070893
0.678401 0.378698 0.075410
0.713130 0.393530 0.080385
0.742763 0.410773 0.089204
0.764431 0.427619 0.098207
0.779873 0.444923 0.107088
0.792264 0.464057 0.123598
0.123079 0.274571 0.220523
0.160281 0.289616 0.191165
0.237766 0.314214 0.146059
0.308736 0.329107 0.110964
0.373953 0.339483 0.088960
0.426291 0.345068 0.076997
0.464866 0.348577 0.072236
0.499962 0.352178 0.070283
0.563363 0.374517 0.074006
0.615686 0.389746 0.076387
0.665583 0.407172 0.082887
0.710079 0.425177 0.093416
0.745846 0.441627 0.101259
0.775540 0.458686 0.109590
0.795987 0.474830 0.118593
0.807065 0.491402 0.136355
0.815854 0.507622 0.159243
0.137667 0.321386 0.255131
0.187625 0.339544 0.219852
0.270344 0.365332 0.172580
0.360220 0.385199 0.136233
0.428122 0.396246 0.112123
0.488884 0.404303 0.098756
0.527077 0.407507 0.092012
0.561837 0.410529 0.089296
0.591531 0.413733 0.089357
0.646845 0.431983 0.096620
0.696773 0.448920 0.104005
0.737850 0.464729 0.112123
0.772061 0.481819 0.123262
0.798947 0.499306 0.138613
0.817075 0.515953 0.154330
0.828763 0.532799 0.172091
0.835996 0.547570 0.194949
0.148135 0.365881 0.289067
0.212192 0.387793 0.245304
0.299474 0.414343 0.198581
0.407080 0.436561 0.164279
0.479805 0.449531 0.140475
0.544915 0.459693 0.126772
0.583673 0.462379 0.119814
0.615106 0.462318 0.113558
0.646448 0.466896 0.114473
0.676463 0.471748 0.116915
0.726009 0.489204 0.128786
0.763912 0.506096 0.144778
0.791653 0.519280 0.155764
0.819089 0.537346 0.171603
0.835691 0.553735 0.189822
0.843381 0.569268 0.214511
0.847288 0.580530 0.238987
0.149081 0.402747 0.321752
0.226810 0.429847 0.272831
0.323003 0.456641 0.226810
0.441047 0.480781 0.193973
0.520836 0.494789 0.172915
0.585290 0.504448 0.157259
0.625879 0.507866 0.151217
0.661036 0.509575 0.145602
0.686854 0.509453 0.142611
0.717525 0.515190 0.146761
0.749386 0.524498 0.156619
0.787900 0.542290 0.173953
0.813291 0.557610 0.194980
0.833036 0.572595 0.216495
0.846494 0.587732 0.238437
0.853880 0.602075 0.259403
0.857633 0.613031 0.284642
0.142000 0.431250 0.355016
0.222904 0.462196 0.308659
0.329931 0.491829 0.263096
0.460914 0.516503 0.224460
0.547478 0.529503 0.201297
0.617792 0.539940 0.186038
0.662898 0.546380 0.179782
0.697414 0.548089 0.177310
0.721889 0.546746 0.174716
0.748592 0.552270 0.183963
0.778347 0.560784 0.193606
0.800320 0.572625 0.215244
0.825864 0.588769 0.235691
0.845914 0.605737 0.258610
0.856657 0.619471 0.285863
0.863615 0.633021 0.310460
0.867308 0.643122 0.331945
0.132723 0.454597 0.386877
0.206363 0.484016 0.347387
0.320287 0.517327 0.302434
0.461036 0.543145 0.257694
0.558251 0.556390 0.227573
0.635920 0.565972 0.208194
0.683314 0.572961 0.201907
0.723629 0.577142 0.202365
0.749386 0.577264 0.203311
0.775265 0.583703 0.218204
0.799008 0.594751 0.238682
0.821225 0.607691 0.263951
0.836240 0.619745 0.291600
0.855894 0.638788 0.324681
0.867704 0.653315 0.348424
0.873930 0.665309 0.368109
0.875090 0.671717 0.383886
0.123995 0.473487 0.416907
0.195407 0.503471 0.381689
0.301152 0.537011 0.343877
0.452857 0.564996 0.294499
0.553338 0.579370 0.263798
0.639857 0.586145 0.229007
0.694606 0.593622 0.222232
0.739803 0.597620 0.220768
0.770993 0.602289 0.231205
0.797543 0.609583 0.247715
0.820706 0.626154 0.283879
0.841672 0.640620 0.312718
0.852659 0.655482 0.350744
0.862547 0.665431 0.375708
0.872679 0.679530 0.404242
0.878264 0.692073 0.428382
0.879850 0.698238 0.441596
0.118166 0.490791 0.446510
0.183261 0.522728 0.420661
0.287633 0.556420 0.383551
0.439734 0.584344 0.336492
0.547906 0.597620 0.292851
0.636347 0.603540 0.252232
0.695766 0.607355 0.236637
0.746242 0.611719 0.232822
0.781674 0.618555 0.247044
0.810208 0.627619 0.267521
0.834653 0.648585 0.316289
0.852659 0.665980 0.357549
0.863493 0.685359 0.409583
0.870878 0.696101 0.438300
0.875486 0.705013 0.463752
0.880064 0.715816 0.486152
0.880125 0.719203 0.494728
0.118379 0.508782 0.475410
0.182834 0.541711 0.454231
0.278508 0.573968 0.424750
0.427070 0.600671 0.381720
0.534661 0.612940 0.332494
0.622431 0.617334 0.283360
0.682002 0.616419 0.254948
0.734310 0.617578 0.240269
0.775051 0.621515 0.245609
0.809812 0.636103 0.275029
0.841886 0.659297 0.323796
0.858640 0.682002 0.386938
0.871092 0.703853 0.449195
0.874754 0.717830 0.490150
0.877684 0.727260 0.517754
0.879179 0.732876 0.532677
0.879057 0.736324 0.541283
0.134310 0.533959 0.503319
0.198184 0.564172 0.483742
0.292058 0.591821 0.457984
0.426978 0.614649 0.423835
0.529717 0.625513 0.373022
0.615290 0.629908 0.319097
0.668818 0.624475 0.275944
0.722103 0.624170 0.254093
0.767300 0.626642 0.249851
0.805478 0.638911 0.277073
0.838071 0.660395 0.324834
0.860319 0.688746 0.398657
0.871153 0.711513 0.466590
0.875395 0.729030 0.519280
0.876951 0.740566 0.552819
0.877989 0.747127 0.571313
0.878935 0.749844 0.576623
0.031708 0.038514 0.043641
0.037110 0.042573 0.048157
0.076143 0.055299 0.048707
0.123751 0.071992 0.059327
0.179568 0.090059 0.065583
0.235325 0.107301 0.065614
0.290562 0.119783 0.062623
0.327245 0.126986 0.065003
0.363836 0.132174 0.062226
0.390387 0.135470 0.062928
0.413458 0.137331 0.059907
0.430243 0.137911 0.058717
0.448341 0.137362 0.059083
0.465461 0.135409 0.057740
0.485939 0.139376 0.058137
0.508263 0.144991 0.057374
0.542779 0.159792 0.065614
0.032563 0.045380 0.051148
0.040497 0.052094 0.055665
0.090944 0.071015 0.057496
0.155734 0.091707 0.053773
0.218479 0.107179 0.047883
0.281468 0.120058 0.041840
0.333867 0.129824 0.044373
0.365728 0.134920 0.043641
0.394995 0.137606 0.044648
0.413367 0.140932 0.045686
0.424353 0.141756 0.046357
0.441566 0.143954 0.047150
0.453223 0.145724 0.047822
0.468666 0.149081 0.048646
0.493477 0.156222 0.049805
0.532647 0.172305 0.052247
0.579797 0.194888 0.056550
0.033448 0.068696 0.072389
0.045991 0.083040 0.082307
0.091768 0.095216 0.065614
0.158724 0.115541 0.059937
0.229465 0.133211 0.049653
0.299016 0.148592 0.043275
0.357946 0.158968 0.045655
0.402197 0.164858 0.045624
0.436988 0.170504 0.047059
0.461677 0.174411 0.048371
0.475837 0.177249 0.049195
0.491096 0.178164 0.049836
0.502434 0.180148 0.050538
0.521538 0.187411 0.051667
0.549798 0.199893 0.053620
0.589136 0.217655 0.056367
0.628779 0.241489 0.061372
0.041688 0.104433 0.106996
0.058656 0.121248 0.112398
0.101228 0.132113 0.091981
0.163516 0.145480 0.067903
0.235325 0.162020 0.055146
0.308507 0.175143 0.044373
0.382330 0.192111 0.046571
0.433265 0.202274 0.047852
0.478950 0.208927 0.049592
0.506706 0.212741 0.051148
0.533043 0.218997 0.053101
0.552819 0.225132 0.054261
0.568017 0.228153 0.055055
0.584161 0.234257 0.056001
0.610071 0.248478 0.058534
0.645228 0.272038 0.064515
0.681361 0.300969 0.073182
0.053285 0.142977 0.141360
0.081361 0.167422 0.145815
0.127321 0.179171 0.113649
0.188327 0.190494 0.083925
0.252842 0.201053 0.065064
0.328298 0.217380 0.052491
0.409400 0.232212 0.046357
0.459220 0.239445 0.049165
0.510750 0.252018 0.052613
0.555779 0.263157 0.055970
0.588647 0.272007 0.058442
0.617578 0.277714 0.060304
0.637354 0.287297 0.062806
0.657435 0.300145 0.065461
0.676448 0.315068 0.068635
0.705745 0.336675 0.074495
0.728298 0.360632 0.089631
0.070832 0.184726 0.175113
0.104585 0.214633 0.179202
0.165377 0.233768 0.137728
0.227161 0.246006 0.099428
0.297566 0.254276 0.075685
0.355703 0.261357 0.061860
0.438102 0.280919 0.055573
0.494285 0.291752 0.056001
0.547250 0.302312 0.057588
0.590600 0.311711 0.060548
0.636225 0.325109 0.065797
0.670039 0.337133 0.070100
0.694057 0.346899 0.072236
0.714229 0.359136 0.074769
0.731228 0.375433 0.082643
0.747402 0.395697 0.096010
0.765286 0.419104 0.116304
0.092775 0.230381 0.207309
0.126772 0.269108 0.216007
0.204807 0.294957 0.166018
0.285725 0.315862 0.121279
0.369894 0.329870 0.091341
0.428763 0.335149 0.075929
0.478355 0.338964 0.068788
0.531685 0.346899 0.069123
0.586648 0.358129 0.070619
0.635370 0.371740 0.075349
0.682704 0.384802 0.078248
0.717067 0.394110 0.081025
0.740291 0.407660 0.089113
0.757107 0.419226 0.093904
0.771939 0.433692 0.102571
0.784695 0.450721 0.115419
0.794949 0.469459 0.143771
0.112367 0.278874 0.241672
0.142824 0.317418 0.249668
0.231327 0.347539 0.196689
0.329854 0.373693 0.149844
0.418540 0.389288 0.116609
0.484977 0.396216 0.100435
0.533761 0.398932 0.091676
0.571603 0.402777 0.088930
0.625101 0.411933 0.087984
0.669734 0.420874 0.091585
0.717433 0.435706 0.101045
0.753170 0.447547 0.107027
0.776913 0.460365 0.111849
0.793057 0.471565 0.117372
0.803250 0.484565 0.132906
0.811185 0.498909 0.152865
0.819547 0.514977 0.180087
0.125460 0.324163 0.278233
0.149599 0.360906 0.284153
0.237949 0.390204 0.231083
0.364080 0.423651 0.180209
0.459892 0.441627 0.147189
0.532601 0.451850 0.129702
0.585153 0.455787 0.120027
0.623606 0.459480 0.116854
0.661601 0.465248 0.119478
0.706630 0.474952 0.126101
0.752316 0.487922 0.132540
0.785061 0.498024 0.137118
0.804288 0.510124 0.150240
0.818387 0.521904 0.160891
0.828855 0.534356 0.175357
0.836393 0.546410 0.193271
0.839414 0.557733 0.222568
0.135592 0.365240 0.314061
0.147738 0.398199 0.320806
0.247929 0.429664 0.265141
0.375860 0.463783 0.212345
0.492195 0.484718 0.177127
0.570001 0.497139 0.158999
0.630915 0.504753 0.151186
0.664149 0.504540 0.145846
0.701411 0.509697 0.149203
0.734554 0.517815 0.158572
0.778103 0.530694 0.171603
0.807126 0.543023 0.180514
0.824430 0.551965 0.189181
0.837217 0.563348 0.203128
0.845426 0.574639 0.222812
0.849973 0.584924 0.244999
0.852293 0.593530 0.268711
0.137881 0.401068 0.349035
0.142977 0.430152 0.353796
0.247684 0.464607 0.299077
0.381048 0.499580 0.247074
0.515007 0.521843 0.207584
0.600946 0.535882 0.187961
0.667689 0.546105 0.181247
0.705135 0.549126 0.180087
0.737423 0.550744 0.181308
0.768765 0.559350 0.194766
0.800687 0.570031 0.210483
0.826841 0.584161 0.229923
0.841367 0.594720 0.245884
0.850340 0.601770 0.258091
0.858488 0.613275 0.278172
0.861906 0.621027 0.295842
0.863401 0.628473 0.319493
0.133150 0.429358 0.381567
0.134249 0.455848 0.386694
0.244846 0.494179 0.334722
0.374609 0.528099 0.282811
0.520653 0.550683 0.237705
0.616602 0.565148 0.216342
0.693446 0.576684 0.205478
0.729915 0.579705 0.207828
0.763333 0.582971 0.212741
0.792630 0.591791 0.232792
0.819852 0.604395 0.256535
0.840574 0.620630 0.287449
0.855100 0.631983 0.303227
0.862364 0.640589 0.320531
0.867613 0.648981 0.341375
0.871031 0.656001 0.356970
0.873289 0.661830 0.371710
0.123873 0.451331 0.410285
0.123507 0.474769 0.416693
0.224948 0.514092 0.374060
0.357336 0.549310 0.324346
0.513207 0.573724 0.270726
0.616236 0.585199 0.239536
0.698543 0.595331 0.223270
0.745876 0.601495 0.225254
0.780850 0.608179 0.240818
0.808957 0.616144 0.261845
0.833524 0.635401 0.306859
0.854215 0.652705 0.341466
0.863645 0.666316 0.376501
0.871489 0.675349 0.391699
0.877806 0.684321 0.408209
0.877775 0.686397 0.415930
0.878691 0.689815 0.426184
0.115450 0.469337 0.438575
0.117891 0.491402 0.445655
0.205661 0.529137 0.410986
0.337072 0.566613 0.367742
0.496834 0.592309 0.312993
0.604120 0.602197 0.269352
0.687709 0.606561 0.237949
0.738552 0.611963 0.236240
0.783841 0.618463 0.246799
0.813565 0.629602 0.276280
0.841489 0.653437 0.333288
0.859220 0.676051 0.387579
0.869993 0.693385 0.432715
0.874540 0.702785 0.459236
0.877897 0.709407 0.474464
0.878996 0.712947 0.480018
0.881682 0.716365 0.484688
0.112184 0.487373 0.465583
0.124361 0.511223 0.473579
0.208286 0.548363 0.443305
0.332006 0.582605 0.406409
0.487984 0.607904 0.355718
0.593622 0.617548 0.312016
0.671260 0.616114 0.259617
0.730068 0.619989 0.249180
0.778988 0.625452 0.252811
0.816312 0.639948 0.286687
0.846433 0.665949 0.349096
0.863951 0.693263 0.421668
0.874846 0.715084 0.480476
0.876219 0.725093 0.510826
0.878691 0.732387 0.532433
0.879545 0.733364 0.532067
0.878782 0.733394 0.533745
0.114931 0.507439 0.494331
0.137789 0.534020 0.499855
0.222904 0.567712 0.475685
0.343847 0.600702 0.441199
0.482399 0.621118 0.399115
0.583246 0.628626 0.345098
0.657526 0.625849 0.288029
0.715328 0.625788 0.263005
0.768093 0.628534 0.255253
0.810056 0.645319 0.292332
0.844480 0.667689 0.343694
0.863432 0.698543 0.431006
0.874540 0.721798 0.497597
0.876188 0.738918 0.547448
0.877714 0.746059 0.567773
0.878508 0.750240 0.578546
0.877531 0.749203 0.577203
0.132815 0.534844 0.522301
0.164065 0.561791 0.522667
0.258000 0.591089 0.499214
0.369970 0.617792 0.470924
0.495644 0.634821 0.434607
0.583886 0.640375 0.382696
0.653284 0.637598 0.322972
0.707668 0.636378 0.291752
0.759518 0.639429 0.279362
0.806485 0.652705 0.304753
0.839841 0.674159 0.358190
0.863493 0.700893 0.432441
0.872618 0.725185 0.504601
0.876371 0.745113 0.564233
0.877104 0.755978 0.593774
0.877714 0.761044 0.606897
0.878294 0.762234 0.608576
0.029023 0.040162 0.055756
0.033417 0.044007 0.061067
0.062074 0.057404 0.079988
0.112184 0.074647 0.088319
0.170169 0.094118 0.096132
0.224613 0.111116 0.101015
0.280400 0.124514 0.102571
0.329870 0.132845 0.097230
0.367529 0.138003 0.094087
0.398047 0.139986 0.092348
0.420478 0.138857 0.090089
0.439612 0.136049 0.085817
0.458534 0.133364 0.083040
0.476204 0.129732 0.081300
0.494270 0.129915 0.081819
0.512840 0.133822 0.084901
0.541650 0.148135 0.096681
0.029664 0.047211 0.063935
0.040436 0.056062 0.072206
0.075502 0.072877 0.095766
0.141665 0.094423 0.091066
0.206882 0.113191 0.092866
0.268956 0.126375 0.089876
0.324498 0.136233 0.087770
0.369421 0.141970 0.076204
0.398535 0.143374 0.077943
0.421210 0.141451 0.071290
0.433082 0.139773 0.071565
0.454231 0.140047 0.066621
0.466316 0.138796 0.065034
0.481636 0.138674 0.066133
0.501060 0.142397 0.068544
0.537865 0.157931 0.072206
0.578027 0.180331 0.081361
0.033997 0.077089 0.096162
0.045747 0.092134 0.110414
0.075257 0.092805 0.096315
0.151125 0.117342 0.091981
0.231266 0.137362 0.084810
0.301060 0.148898 0.070832
0.360174 0.155581 0.058808
0.405127 0.156466 0.053742
0.434516 0.157961 0.050355
0.455665 0.155856 0.047578
0.467384 0.155428 0.048219
0.478737 0.153933 0.048768
0.486793 0.156100 0.049348
0.505486 0.160800 0.050233
0.534936 0.172274 0.051514
0.576349 0.192813 0.055177
0.624353 0.228031 0.079286
0.040620 0.112398 0.130129
0.056764 0.129915 0.139864
0.089174 0.134218 0.128023
0.157046 0.148592 0.098878
0.240452 0.168276 0.088808
0.319707 0.182864 0.073121
0.388952 0.194430 0.062898
0.441627 0.197910 0.056855
0.479835 0.198398 0.053346
0.507378 0.200229 0.051301
0.529412 0.202090 0.052277
0.544488 0.203738 0.053132
0.551232 0.202274 0.053223
0.567773 0.208225 0.054292
0.596735 0.226413 0.056977
0.633051 0.252750 0.065400
0.678401 0.288487 0.091218
0.050904 0.151034 0.164279
0.072877 0.175265 0.175082
0.107851 0.179812 0.159365
0.176364 0.194736 0.124300
0.255741 0.210239 0.097841
0.338003 0.223667 0.079072
0.413138 0.233158 0.065888
0.478477 0.245762 0.060670
0.526299 0.253361 0.061433
0.564141 0.255222 0.056825
0.589929 0.257206 0.057801
0.613550 0.261692 0.059602
0.622339 0.265873 0.061006
0.640345 0.275151 0.062074
0.665003 0.291966 0.065003
0.692988 0.316686 0.076936
0.724819 0.350042 0.109041
0.064393 0.191348 0.197177
0.090455 0.220706 0.208438
0.132204 0.235080 0.193881
0.212955 0.255802 0.148287
0.296223 0.269963 0.116152
0.369436 0.278721 0.094087
0.445518 0.291051 0.080964
0.516915 0.303624 0.067170
0.567697 0.309422 0.067689
0.611749 0.316289 0.067689
0.647059 0.322667 0.068910
0.673884 0.329046 0.070375
0.694667 0.335149 0.071229
0.709224 0.347570 0.076631
0.724239 0.363958 0.084718
0.740658 0.385351 0.103731
0.767239 0.415930 0.139132
0.082399 0.236881 0.232853
0.108919 0.274662 0.249149
0.151797 0.290410 0.229313
0.259129 0.322454 0.176608
0.352468 0.340642 0.136446
0.426047 0.346426 0.113344
0.486473 0.352300 0.098848
0.554086 0.363165 0.087770
0.610666 0.373419 0.087800
0.661921 0.381353 0.084199
0.697749 0.386633 0.083864
0.725704 0.394812 0.088319
0.746120 0.405371 0.095491
0.759365 0.414618 0.096773
0.772091 0.428779 0.104677
0.782132 0.446357 0.131167
0.796231 0.470314 0.173709
0.097749 0.282689 0.270146
0.124514 0.320287 0.282078
0.164279 0.345678 0.265812
0.295171 0.384680 0.208927
0.411643 0.412940 0.163210
0.499107 0.423774 0.139132
0.555764 0.426184 0.124117
0.600839 0.427924 0.114717
0.653330 0.435004 0.113527
0.702968 0.443397 0.114351
0.742458 0.453132 0.118410
0.773526 0.463752 0.120424
0.792325 0.472267 0.121401
0.800107 0.480171 0.132723
0.806516 0.488685 0.146242
0.813809 0.502708 0.171542
0.824002 0.521050 0.208499
0.111391 0.326024 0.305730
0.132540 0.362036 0.314580
0.164889 0.389899 0.303319
0.314611 0.433265 0.241001
0.446220 0.464820 0.196078
0.542062 0.478553 0.169497
0.605478 0.484169 0.157382
0.650950 0.485451 0.148470
0.691234 0.491051 0.150362
0.739651 0.498970 0.150423
0.775235 0.506584 0.155550
0.802304 0.516197 0.163790
0.818448 0.526390 0.171969
0.827909 0.534691 0.178836
0.833799 0.542199 0.191943
0.836973 0.550896 0.217044
0.840543 0.563531 0.253391
0.120424 0.366033 0.340490
0.132021 0.397253 0.350317
0.157595 0.425696 0.340459
0.303105 0.467872 0.276921
0.466804 0.505638 0.225010
0.571588 0.522850 0.198886
0.644373 0.532341 0.187778
0.693080 0.535485 0.183505
0.732998 0.540764 0.186252
0.768887 0.550469 0.201389
0.802029 0.557946 0.210697
0.825650 0.565789 0.216892
0.840909 0.576593 0.225864
0.847898 0.584222 0.239170
0.851499 0.589715 0.251377
0.854459 0.597223 0.273747
0.856809 0.605707 0.302159
0.124849 0.399878 0.374548
0.130587 0.426337 0.382208
0.141909 0.452308 0.377691
0.293553 0.495705 0.313024
0.456291 0.535637 0.259861
0.588220 0.555077 0.222690
0.668208 0.567041 0.212070
0.727047 0.574975 0.213870
0.760128 0.577447 0.220005
0.795468 0.588952 0.241550
0.822538 0.602014 0.267887
0.844541 0.612634 0.284794
0.856748 0.621973 0.294408
0.862699 0.626978 0.302159
0.865415 0.631769 0.314305
0.865995 0.635401 0.329595
0.866697 0.642084 0.355840
0.121614 0.426947 0.406195
0.122713 0.450599 0.413703
0.130434 0.473884 0.409522
0.268040 0.518883 0.356390
0.438132 0.558923 0.299138
0.585046 0.578637 0.250492
0.681697 0.592096 0.231601
0.747616 0.603143 0.235813
0.784726 0.611963 0.254765
0.818967 0.624598 0.283513
0.840909 0.639399 0.318761
0.860014 0.655238 0.353979
0.869627 0.665156 0.371923
0.873198 0.668788 0.378882
0.874449 0.669490 0.383154
0.875731 0.672999 0.394751
0.875578 0.675349 0.407477
0.114076 0.446815 0.432532
0.113466 0.468421 0.440955
0.117220 0.490913 0.441627
0.253300 0.537865 0.395758
0.407034 0.577203 0.343297
0.564584 0.596735 0.283330
0.668879 0.608667 0.254520
0.752346 0.618738 0.241947
0.793027 0.630060 0.270298
0.829282 0.644068 0.305211
0.853849 0.670253 0.371466
0.869627 0.688533 0.417823
0.875944 0.702785 0.456794
0.879942 0.706600 0.461219
0.879820 0.704250 0.456184
0.878904 0.701625 0.454566
0.878508 0.701534 0.459815
0.107485 0.465003 0.458595
0.109834 0.486030 0.467964
0.118471 0.509422 0.471901
0.234867 0.553948 0.436225
0.382650 0.591333 0.387732
0.546639 0.614160 0.326452
0.647318 0.617823 0.277256
0.731044 0.623407 0.252445
0.784787 0.630335 0.261448
0.824918 0.650782 0.313359
0.855467 0.678279 0.381964
0.870726 0.706111 0.456977
0.878294 0.723964 0.505669
0.878782 0.731289 0.528832
0.879332 0.729732 0.523583
0.879759 0.728573 0.519585
0.880003 0.725185 0.512261
0.105440 0.483680 0.485023
0.118288 0.507683 0.495491
0.137026 0.533654 0.498787
0.243076 0.573510 0.468055
0.387243 0.606928 0.427680
0.539849 0.627497 0.369726
0.630762 0.628107 0.309972
0.708247 0.626856 0.267613
0.763851 0.632074 0.268193
0.815488 0.648249 0.303471
0.849149 0.678248 0.379156
0.868620 0.709438 0.463813
0.876585 0.734340 0.531853
0.877989 0.745388 0.564416
0.878721 0.749599 0.576989
0.878782 0.746426 0.566400
0.877958 0.743954 0.561242
0.112490 0.507317 0.513573
0.134707 0.533837 0.521050
0.168795 0.560876 0.520165
0.275914 0.597162 0.491676
0.415717 0.623865 0.456611
0.547082 0.641230 0.410315
0.632837 0.641749 0.353826
0.697353 0.639216 0.305730
0.756558 0.643091 0.294835
0.808988 0.658167 0.322240
0.843931 0.679103 0.377813
0.866575 0.712306 0.469337
0.874846 0.735988 0.536461
0.876707 0.754208 0.588556
0.877623 0.759487 0.602014
0.878080 0.762203 0.608850
0.877165 0.758419 0.599176
0.132967 0.537194 0.541650
0.160189 0.561822 0.543542
0.209659 0.589136 0.539361
0.320806 0.617243 0.516289
0.452094 0.641840 0.485634
0.558953 0.655512 0.452338
0.637354 0.657923 0.400702
0.698421 0.656275 0.355230
0.752743 0.661311 0.343267
0.807401 0.672999 0.355871
0.839689 0.692073 0.408759
0.864195 0.715206 0.474617
0.871000 0.737301 0.540337
0.875212 0.755398 0.592248
0.876921 0.767391 0.621210
0.877317 0.770993 0.630365
0.877623 0.771481 0.630854
0.029236 0.043854 0.071778
0.033417 0.049195 0.081819
0.051301 0.059785 0.098634
0.097902 0.076997 0.118379
0.154330 0.096010 0.131838
0.215030 0.113832 0.139956
0.270054 0.126802 0.142824
0.320989 0.136294 0.143893
0.365484 0.144015 0.146242
0.399298 0.147341 0.146120
0.422370 0.146212 0.142397
0.441657 0.142092 0.139590
0.460822 0.136568 0.136660
0.478950 0.130678 0.135134
