assets/luts/impulz-fujicolor-200-fpe-log-1faf4ff2.cube
# (C) 2014 VisionColor & Patchflyer [www.vision-color.com]
# Generator: VC Patchmatch v.2.1.1 [64/53]
# All work and no play makes Jack a dull boy.
# LUT generated from: FujiColor 200_FPE
LUT_3D_SIZE 5
0.033173 0.035981 0.036316
0.187259 0.084962 0.037049
0.356176 0.127932 0.042939
0.435004 0.141756 0.046906
0.536187 0.173068 0.051575
0.057191 0.137453 0.123415
0.209018 0.171847 0.054139
0.468956 0.239811 0.049012
0.635676 0.298070 0.062623
0.731411 0.368597 0.081819
0.137667 0.321386 0.255131
0.428122 0.396246 0.112123
0.591531 0.413733 0.089357
0.772061 0.481819 0.123262
0.835996 0.547570 0.194949
0.132723 0.454597 0.386877
0.558251 0.556390 0.227573
0.749386 0.577264 0.203311
0.836240 0.619745 0.291600
0.875090 0.671717 0.383886
0.134310 0.533959 0.503319
0.529717 0.625513 0.373022
0.767300 0.626642 0.249851
0.871153 0.711513 0.466590
0.878935 0.749844 0.576623
0.029694 0.048188 0.089174
0.138064 0.097230 0.156435
0.357214 0.146822 0.184512
0.463172 0.142672 0.183017
0.545647 0.146242 0.196994
0.045289 0.165133 0.210300
0.197848 0.201694 0.199435
0.501762 0.225559 0.132784
0.596155 0.209354 0.071229
0.714046 0.320470 0.193606
0.085939 0.333074 0.355291
0.247013 0.430640 0.332708
0.675883 0.508278 0.239490
0.821775 0.531395 0.214832
0.844236 0.578851 0.342763
0.095155 0.441444 0.468421
0.167300 0.540154 0.466987
0.778012 0.661555 0.349966
0.876280 0.726711 0.521874
0.875425 0.729732 0.545403
0.138827 0.546319 0.574639
0.345525 0.643885 0.579767
0.735653 0.714199 0.518456
0.868925 0.771969 0.634394
0.874083 0.787015 0.677211
0.032471 0.076265 0.148867
0.065370 0.101625 0.207492
0.287175 0.156466 0.275090
0.445411 0.174044 0.300145
0.535790 0.169314 0.316655
0.041382 0.182498 0.269322
0.062226 0.162905 0.235660
0.364477 0.232639 0.349615
0.549554 0.212589 0.331884
0.677546 0.292180 0.385840
0.066560 0.340917 0.417762
0.144137 0.420203 0.468391
0.499565 0.473075 0.467857
0.741604 0.476036 0.423514
0.796017 0.561242 0.507515
0.082338 0.442329 0.511162
0.122835 0.520073 0.568353
0.520088 0.674891 0.590326
0.849363 0.763821 0.667628
0.863584 0.769253 0.696284
0.135286 0.544762 0.594293
0.306401 0.642237 0.646052
0.675029 0.757534 0.714260
0.856657 0.817258 0.768734
0.875822 0.826993 0.788022
0.035218 0.106569 0.204837
0.037476 0.103334 0.241733
0.219303 0.150393 0.311711
0.405280 0.184726 0.358190
0.523156 0.199100 0.383185
0.039612 0.182071 0.314122
0.037354 0.138399 0.269017
0.126360 0.160128 0.343084
0.480354 0.221073 0.426795
0.626307 0.282170 0.453651
0.053162 0.334478 0.444862
0.053864 0.332540 0.454017
0.132616 0.325277 0.435966
0.585443 0.415641 0.546746
0.739956 0.515602 0.576318
0.071168 0.431891 0.522576
0.084443 0.472969 0.560357
0.363485 0.629541 0.641199
0.777615 0.747677 0.724392
0.851926 0.774258 0.748043
0.093202 0.492988 0.573816
0.239734 0.609155 0.640040
0.660624 0.762539 0.746578
0.843259 0.824460 0.796323
0.874052 0.838651 0.812924
0.036042 0.124300 0.243595
0.037781 0.114595 0.263432
0.120516 0.137209 0.325322
0.330846 0.169986 0.381506
0.503502 0.196597 0.419928
0.040742 0.193149 0.335698
0.040284 0.171542 0.322759
0.045350 0.165713 0.371679
0.338628 0.236210 0.464637
0.570336 0.269688 0.501762
0.049287 0.323644 0.463905
0.055116 0.323461 0.450263
0.082795 0.328344 0.460151
0.365362 0.410468 0.569696
0.675227 0.480095 0.609674
0.068086 0.429328 0.529137
0.100252 0.467475 0.548089
0.290501 0.579278 0.617334
0.618387 0.685939 0.705257
0.830991 0.757534 0.764889
0.069490 0.457282 0.559594
0.112886 0.515373 0.588434
0.449882 0.694820 0.698695
0.813931 0.816739 0.799741
0.872465 0.839414 0.821378
