assets/luts/impulz-kodak-gold-gen-6-200-fpe-log-d81b5c47.cube
# (C) 2014 VisionColor & Patchflyer [www.vision-color.com]
# Generator: VC Patchmatch v.2.1.1 [64/53]
# All work and no play makes Jack a dull boy.
# LUT generated from: Kodak Gold Gen.6 200_FPE
LUT_3D_SIZE 5
0.033173 0.035981 0.036316
0.135012 0.049378 0.039094
0.259983 0.048157 0.039643
0.373907 0.045136 0.043824
0.498390 0.052308 0.056153
0.043977 0.080568 0.040528
0.180270 0.118898 0.039368
0.417227 0.165316 0.046265
0.578149 0.193179 0.054536
0.683589 0.215763 0.064729
0.150942 0.282002 0.041321
0.402029 0.355673 0.050416
0.608103 0.404318 0.069947
0.766812 0.453162 0.090974
0.839597 0.443214 0.098268
0.388708 0.488014 0.062409
0.574212 0.533074 0.082033
0.760189 0.574243 0.111543
0.868955 0.594476 0.130465
0.906065 0.579767 0.132784
0.366064 0.543603 0.069123
0.672541 0.620508 0.106447
0.839719 0.662013 0.137087
0.922210 0.682338 0.156954
0.935546 0.682734 0.160250
0.029725 0.036744 0.076783
0.074342 0.042939 0.104829
0.235996 0.047730 0.120943
0.383917 0.045991 0.124361
0.493294 0.052674 0.152712
0.033509 0.104341 0.117067
0.153414 0.155764 0.153475
0.374273 0.144289 0.126406
0.510613 0.096376 0.094484
0.686641 0.250919 0.231540
0.105409 0.306432 0.135409
0.371481 0.431769 0.113008
0.677836 0.510430 0.159091
0.790494 0.464652 0.121462
0.827634 0.501427 0.260349
0.227787 0.468666 0.105165
0.415686 0.541497 0.071901
0.783627 0.639063 0.133028
0.920470 0.669856 0.162753
0.902983 0.634333 0.224887
0.184054 0.507897 0.069795
0.433448 0.584100 0.087007
0.728603 0.676722 0.162020
0.894224 0.746731 0.247807
0.935363 0.765560 0.258701
0.031098 0.035584 0.143526
0.053651 0.039216 0.177188
0.181186 0.043244 0.188968
0.362432 0.044434 0.228641
0.485237 0.051972 0.258762
0.037690 0.104677 0.233158
0.050080 0.088838 0.237522
0.299443 0.122347 0.293950
0.492683 0.083314 0.283238
0.683864 0.251743 0.352819
0.047120 0.298405 0.358068
0.121859 0.411322 0.438636
0.488823 0.481544 0.452766
0.675074 0.468681 0.418204
0.804349 0.531090 0.467018
0.092805 0.465461 0.371801
0.166110 0.544213 0.344625
0.561913 0.638819 0.398520
0.833799 0.713893 0.493706
0.879759 0.699306 0.528679
0.124636 0.549889 0.314961
0.234134 0.607172 0.340902
0.586603 0.718624 0.446525
0.843778 0.804990 0.562524
0.934661 0.836912 0.583291
0.034638 0.036469 0.224948
0.041077 0.037812 0.227237
0.114260 0.040620 0.244511
0.316075 0.041657 0.308598
0.458991 0.049165 0.333684
0.041871 0.112917 0.344945
0.040833 0.055665 0.304723
0.117540 0.067964 0.326085
0.430518 0.069551 0.406195
0.604181 0.184909 0.416602
0.048798 0.293065 0.470985
0.050080 0.299153 0.510002
0.186770 0.351308 0.491859
0.567864 0.423301 0.550561
0.734340 0.506966 0.549554
0.055879 0.420325 0.548180
0.057008 0.436286 0.584619
0.249210 0.595728 0.635767
0.713130 0.695705 0.676997
0.856443 0.711574 0.675258
0.056153 0.473762 0.505333
0.066773 0.520439 0.541772
0.378882 0.723491 0.665400
0.773831 0.825833 0.733516
0.920409 0.862913 0.772671
0.038788 0.040101 0.291997
0.037232 0.038819 0.264378
0.069673 0.042267 0.299901
0.235233 0.044221 0.354406
0.417456 0.045899 0.402686
0.046357 0.133913 0.426490
0.045014 0.120607 0.402136
0.081239 0.163424 0.435615
0.337774 0.198978 0.496406
0.530266 0.191745 0.525231
0.050965 0.309392 0.543786
0.051087 0.293584 0.536278
0.139132 0.383291 0.578973
0.448646 0.457527 0.630701
0.658564 0.489509 0.670497
0.055818 0.379705 0.593744
0.060151 0.425727 0.617914
0.263935 0.588922 0.695186
0.642054 0.683253 0.755489
0.814969 0.711696 0.783749
0.056062 0.416358 0.600946
0.061311 0.463935 0.637079
0.230915 0.669932 0.726711
0.724544 0.832425 0.825467
0.916259 0.880339 0.872343
