assets/luts/impulz-fujicolor-200-fpe-rec709-3d521ee8.cube
# (C) 2014 VisionColor & Patchflyer [www.vision-color.com]
# Generator: VC Patchmatch v.2.1.1 [64/53]
# All work and no play makes Jack a dull boy.
# LUT generated from: FujiColor 200_FPE
LUT_3D_SIZE 5
0.037293 0.045075 0.047242
0.275547 0.123323 0.042329
0.433722 0.162905 0.048920
0.517266 0.184909 0.052552
0.584802 0.209781 0.057221
0.101076 0.197086 0.167117
0.346563 0.256779 0.064057
0.565606 0.326757 0.074556
0.690822 0.375463 0.092622
0.757504 0.411536 0.109407
0.171267 0.362554 0.278111
0.528679 0.456733 0.161318
0.670283 0.477577 0.146304
0.782254 0.519493 0.188693
0.832151 0.550439 0.221714
0.181125 0.462715 0.366247
0.600153 0.561120 0.254795
0.765194 0.595056 0.262791
0.830564 0.620447 0.309880
0.867033 0.647486 0.359503
0.167697 0.523400 0.443305
0.601678 0.620874 0.337835
0.790982 0.658442 0.339757
0.862425 0.701961 0.445472
0.877684 0.732509 0.533288
0.032349 0.071015 0.126406
0.196109 0.134707 0.209842
0.396002 0.174350 0.229831
0.485206 0.180026 0.221927
0.548089 0.166690 0.201114
0.064698 0.231510 0.282200
0.267460 0.262028 0.262486
0.529381 0.315282 0.257328
0.657221 0.335729 0.246860
0.725216 0.342626 0.220645
0.104372 0.368078 0.392401
0.340826 0.429786 0.370703
0.596918 0.492012 0.343542
0.752865 0.526390 0.348150
0.823972 0.538323 0.324285
0.122103 0.449653 0.462287
0.366125 0.545647 0.444160
0.668177 0.620630 0.445655
0.794675 0.652125 0.469612
0.862577 0.682033 0.488289
0.122377 0.502068 0.517876
0.359716 0.624720 0.525841
0.695125 0.703395 0.532036
0.836728 0.746792 0.583673
0.871092 0.770687 0.644465
0.035554 0.108248 0.186984
0.107118 0.132082 0.244480
0.325933 0.182345 0.309758
0.445716 0.203006 0.326665
0.535393 0.197299 0.324315
0.055360 0.245212 0.328710
0.158694 0.254215 0.320958
0.398230 0.300755 0.385718
0.566430 0.328954 0.395636
0.673671 0.307561 0.362615
0.080385 0.370275 0.442756
0.272374 0.429297 0.447028
0.503960 0.477394 0.471687
0.684199 0.501640 0.465003
0.778653 0.498146 0.431586
0.095949 0.442054 0.503105
0.300603 0.530999 0.516503
0.543847 0.604181 0.540978
0.730282 0.655726 0.573297
0.847257 0.693446 0.586816
0.109957 0.498573 0.551873
0.264103 0.597375 0.583215
0.573816 0.711360 0.640955
0.796109 0.775357 0.691524
0.870970 0.809873 0.747280
0.037018 0.131624 0.235813
0.056367 0.128511 0.260014
0.258366 0.177707 0.334081
0.402106 0.204257 0.366217
0.513573 0.219120 0.382177
0.046876 0.249821 0.362676
0.111666 0.258000 0.347875
0.260426 0.272221 0.406073
0.472267 0.311772 0.445228
0.619043 0.310185 0.438972
0.068666 0.364385 0.454902
0.198367 0.412634 0.464668
0.355886 0.436347 0.494301
0.577813 0.480415 0.538476
0.718990 0.459815 0.511772
0.081270 0.431708 0.511040
0.264378 0.525017 0.547356
0.494514 0.599329 0.589349
0.693935 0.667201 0.644221
0.821042 0.680598 0.644617
0.099825 0.490272 0.561761
0.239841 0.590570 0.610864
0.503212 0.697139 0.674495
0.773129 0.790402 0.750759
0.873869 0.831937 0.803464
0.037751 0.145144 0.276066
0.038605 0.127443 0.273045
0.129000 0.153445 0.332952
0.320531 0.189242 0.388098
0.480415 0.214450 0.421912
0.043610 0.241032 0.383215
0.049134 0.216983 0.352483
0.066529 0.206363 0.376959
0.269291 0.250187 0.447669
0.539391 0.293004 0.496223
0.056245 0.348302 0.463630
0.085206 0.345800 0.450050
0.089662 0.321355 0.442359
0.214420 0.345006 0.509789
0.619806 0.424964 0.575067
0.070375 0.415137 0.510338
0.154482 0.468177 0.534539
0.237522 0.508995 0.565972
0.337530 0.538384 0.610346
0.750332 0.640284 0.687709
0.082399 0.467750 0.555505
0.174136 0.546624 0.597650
0.353201 0.649317 0.662715
0.682857 0.769650 0.755245
0.872465 0.839414 0.821378
