assets/luts/impulz-kodak-gold-gen-6-200-fc-log-d1f8fa5e.cube
# (C) 2014 VisionColor & Patchflyer [www.vision-color.com]
# Generator: VC Patchmatch v.2.1.1 [64/53]
# All work and no play makes Jack a dull boy.
# LUT generated from: Kodak Gold Gen.6 200_FC
LUT_3D_SIZE 17
0.023743 0.023743 0.023743
0.036652 0.026459 0.026551
0.073701 0.025879 0.025910
0.128206 0.026581 0.026581
0.197635 0.027253 0.027100
0.263584 0.028779 0.028107
0.321355 0.028443 0.027192
0.367498 0.026947 0.025879
0.405127 0.025879 0.025422
0.444678 0.025238 0.025299
0.495003 0.025696 0.026215
0.565606 0.025727 0.028260
0.643366 0.026154 0.032105
0.723934 0.026825 0.036744
0.796567 0.029328 0.043732
0.862455 0.033539 0.052705
0.887694 0.045899 0.070375
0.028077 0.033814 0.024414
0.038880 0.032776 0.024292
0.073915 0.032837 0.023804
0.121981 0.038392 0.023285
0.185214 0.043275 0.022492
0.247562 0.045838 0.023499
0.308141 0.045563 0.023590
0.361395 0.047333 0.022705
0.414496 0.049836 0.023316
0.460365 0.051514 0.023865
0.513420 0.051331 0.025757
0.583429 0.051484 0.028107
0.656641 0.053529 0.031434
0.730190 0.054383 0.035035
0.800931 0.056733 0.041779
0.861234 0.059510 0.050385
0.885557 0.075349 0.067964
0.031434 0.051667 0.019471
0.042329 0.050935 0.019196
0.071260 0.051637 0.019745
0.113741 0.055360 0.019104
0.170382 0.058167 0.018280
0.231113 0.065766 0.018891
0.297154 0.070466 0.020081
0.362737 0.073060 0.020142
0.418799 0.075837 0.020844
0.475105 0.081514 0.022217
0.531762 0.084810 0.024964
0.599084 0.085328 0.027314
0.668025 0.085664 0.030213
0.737636 0.087160 0.033387
0.802060 0.089967 0.039216
0.858335 0.095033 0.047456
0.881712 0.111055 0.065064
0.037079 0.074617 0.015930
0.053651 0.075135 0.015747
0.080415 0.074769 0.016541
0.112551 0.077363 0.017182
0.161898 0.084260 0.016449
0.216648 0.085420 0.016449
0.279728 0.090059 0.018006
0.350835 0.101167 0.018219
0.420722 0.111727 0.019104
0.481941 0.119692 0.020447
0.542351 0.121431 0.023468
0.609125 0.126558 0.025666
0.675502 0.129213 0.028016
0.740749 0.131106 0.030488
0.803250 0.132662 0.036042
0.857908 0.137331 0.043397
0.883635 0.156680 0.060883
0.043946 0.102449 0.013642
0.066346 0.104433 0.013519
0.089876 0.103975 0.013733
0.128878 0.106264 0.014435
0.164797 0.110567 0.014923
0.218173 0.116732 0.015076
0.274449 0.124269 0.016022
0.345464 0.133761 0.016541
0.414450 0.144076 0.017487
0.485084 0.162600 0.018769
0.547387 0.173648 0.021363
0.609796 0.174228 0.023529
0.675258 0.175265 0.025788
0.742702 0.178531 0.027680
0.806668 0.182986 0.031800
0.862119 0.188693 0.038849
0.888273 0.206455 0.057008
0.056031 0.139315 0.011749
0.082155 0.142794 0.011719
0.110109 0.143709 0.011810
0.144472 0.144686 0.012360
0.186099 0.148928 0.013184
0.233524 0.156344 0.014130
0.285405 0.166537 0.015015
0.348318 0.179385 0.015503
0.419455 0.199344 0.016358
0.488167 0.217075 0.017426
0.551293 0.226963 0.019409
0.614649 0.234501 0.021424
0.679866 0.234562 0.022950
0.746395 0.235416 0.024598
0.811154 0.235538 0.027466
0.866056 0.242832 0.033539
0.892821 0.260471 0.050507
0.074128 0.192264 0.010651
0.102388 0.198398 0.011109
0.135775 0.200900 0.011536
0.167910 0.200717 0.011963
0.213382 0.203403 0.012665
0.261936 0.210117 0.013611
0.308476 0.217838 0.014343
0.365621 0.226001 0.014771
0.425803 0.243549 0.015747
0.494453 0.271000 0.016876
0.557031 0.291142 0.018830
0.619379 0.295445 0.020325
0.684749 0.295171 0.021729
0.753719 0.296635 0.022858
0.820371 0.298619 0.024353
0.873930 0.301823 0.029206
0.899199 0.314733 0.045197
0.095155 0.262226 0.009766
0.123995 0.266255 0.010285
0.162356 0.273213 0.011109
0.199649 0.273213 0.011688
0.242435 0.274678 0.012421
0.292241 0.277760 0.013184
0.337057 0.283742 0.013886
0.391470 0.294362 0.014710
0.449638 0.315007 0.015747
0.505974 0.331395 0.016571
0.564538 0.352544 0.018372
0.628412 0.366735 0.019898
0.695674 0.368688 0.020844
0.764096 0.368444 0.021820
0.830076 0.364477 0.022766
0.878782 0.364355 0.026093
0.898558 0.370703 0.040253
0.120882 0.340047 0.009461
0.152010 0.344015 0.010224
0.188846 0.351644 0.011261
0.230045 0.351736 0.011994
0.271336 0.351553 0.012665
0.325567 0.352956 0.013489
0.371664 0.356161 0.014252
0.428077 0.365469 0.015076
0.473808 0.375204 0.015717
0.528252 0.396246 0.016541
0.579583 0.413153 0.017884
0.638148 0.427192 0.019471
0.703670 0.433005 0.020539
0.767910 0.435874 0.021302
0.831601 0.432547 0.022034
0.881712 0.426291 0.024201
0.900847 0.426398 0.036744
0.149935 0.418448 0.009491
0.178897 0.426078 0.010437
0.215976 0.432975 0.011719
0.259525 0.433677 0.012787
0.301183 0.431907 0.013367
0.355077 0.433036 0.014160
0.402625 0.434287 0.014771
0.454444 0.436500 0.015351
0.504265 0.448249 0.016022
0.551247 0.459464 0.016663
0.601831 0.476799 0.017792
0.656336 0.489693 0.019043
0.713649 0.494240 0.020142
0.776852 0.499184 0.020935
0.833463 0.495888 0.021485
0.879332 0.485512 0.023041
0.898131 0.479164 0.033509
0.184085 0.497353 0.010346
0.213535 0.504875 0.011505
0.246494 0.511620 0.012696
0.288151 0.513451 0.013855
0.330877 0.511894 0.014527
0.376196 0.508019 0.015015
0.426673 0.508415 0.015503
0.476570 0.509453 0.015961
0.523003 0.513420 0.016236
0.573175 0.523888 0.016907
0.624903 0.535790 0.017762
0.678920 0.548486 0.018952
0.731380 0.551141 0.019898
0.783688 0.553094 0.020722
0.835813 0.547753 0.021210
0.875151 0.540490 0.022339
0.895476 0.533043 0.031861
0.220279 0.568750 0.011414
0.248600 0.572534 0.012573
0.282078 0.576623 0.013855
0.319036 0.579095 0.015076
0.357549 0.577874 0.015656
0.401312 0.576196 0.016052
0.447639 0.575982 0.016205
0.501030 0.577203 0.016602
0.547173 0.578759 0.016785
0.595789 0.584375 0.017273
0.645411 0.594659 0.018036
0.698695 0.603449 0.018982
0.748318 0.604517 0.019837
0.800717 0.605554 0.020539
0.841062 0.596826 0.021088
0.874327 0.586725 0.022187
0.892485 0.581292 0.030701
0.248997 0.635523 0.011933
0.276036 0.638300 0.013031
0.310857 0.640589 0.014313
0.349432 0.643244 0.015595
0.385779 0.642390 0.016297
0.428229 0.642969 0.016632
0.473121 0.643275 0.016754
0.527184 0.645075 0.017090
0.574456 0.645838 0.017304
0.620630 0.647181 0.017823
0.667414 0.651820 0.018433
0.719234 0.659693 0.019318
0.762509 0.663111 0.019989
0.810971 0.664759 0.020752
0.846464 0.648157 0.021149
0.876249 0.634455 0.022278
0.890929 0.628565 0.030304
0.264042 0.702113 0.012238
0.293492 0.703822 0.013245
0.335210 0.703609 0.014435
0.375280 0.705165 0.015686
0.410651 0.704372 0.016419
0.454475 0.707454 0.017029
0.500603 0.708492 0.017182
0.555230 0.710597 0.017548
0.603967 0.711238 0.017975
0.650263 0.710994 0.018463
0.697078 0.710506 0.019104
0.744656 0.715694 0.019867
0.785153 0.714260 0.020417
0.821408 0.717861 0.020905
0.852689 0.704646 0.021332
0.874113 0.687892 0.022370
0.887724 0.681025 0.030579
0.269047 0.765988 0.012390
0.312261 0.764981 0.013428
0.355749 0.764279 0.014588
0.397070 0.763821 0.015625
0.436103 0.766232 0.016480
0.481209 0.770321 0.017151
0.528588 0.772427 0.017578
0.583001 0.775692 0.017945
0.633448 0.776822 0.018585
0.678126 0.776547 0.019104
0.721157 0.773709 0.019745
0.763241 0.772580 0.020386
0.807828 0.768673 0.020996
0.835752 0.767758 0.021363
0.857237 0.766049 0.021607
0.874296 0.749325 0.022614
0.883726 0.738491 0.029969
0.259312 0.824765 0.012299
0.316289 0.821286 0.013519
0.368872 0.818570 0.014679
0.410620 0.817014 0.015564
0.454170 0.820249 0.016541
0.499947 0.824674 0.017273
0.549462 0.827054 0.017853
0.599573 0.828763 0.018524
0.651850 0.829343 0.019471
0.698360 0.828885 0.020233
0.741512 0.827298 0.020966
0.780697 0.825284 0.021576
0.821775 0.822965 0.022217
0.848630 0.818051 0.022553
0.866392 0.815335 0.022766
0.871397 0.814267 0.022980
0.880491 0.800320 0.030182
0.238651 0.867185 0.011963
0.307866 0.862791 0.013397
0.366857 0.859983 0.014710
0.410468 0.859281 0.015778
0.458381 0.863127 0.017151
0.506188 0.865080 0.018647
0.552514 0.863798 0.019776
0.602472 0.863066 0.021698
0.653284 0.862669 0.023377
0.702846 0.862181 0.025757
0.747341 0.860471 0.027314
0.789273 0.858885 0.029175
0.825437 0.857114 0.030182
0.852293 0.855100 0.030671
0.868559 0.852140 0.031098
0.874723 0.850767 0.031342
0.875975 0.850431 0.031708
0.027131 0.026276 0.035157
0.033509 0.025818 0.036194
0.067659 0.025330 0.036500
0.111025 0.025147 0.045045
0.169833 0.025055 0.052277
0.230991 0.026276 0.053590
0.289433 0.026062 0.050538
0.338109 0.025147 0.051087
0.389624 0.025422 0.050324
0.436347 0.025116 0.051728
0.492195 0.025666 0.051423
0.561517 0.025696 0.053376
0.632715 0.026062 0.058534
0.702968 0.026612 0.063325
0.773373 0.029053 0.070253
0.837858 0.033417 0.078126
0.865782 0.046113 0.098360
0.027588 0.034546 0.033265
0.041627 0.037079 0.037537
0.083650 0.037110 0.038758
0.137057 0.037842 0.038636
0.208072 0.037659 0.037934
0.281163 0.035248 0.034760
0.342138 0.033082 0.032929
0.386725 0.032624 0.032654
0.438117 0.029786 0.029755
0.489235 0.029084 0.029694
0.554925 0.027985 0.029969
0.627466 0.028992 0.034089
0.712062 0.028168 0.037903
0.795041 0.028931 0.043488
0.857939 0.033051 0.051972
0.885344 0.046082 0.069154
0.893889 0.066285 0.094209
0.030549 0.052613 0.028107
0.044800 0.059510 0.031617
0.081117 0.060060 0.033051
0.132387 0.059449 0.032624
0.194583 0.060670 0.031922
0.269322 0.063294 0.029755
0.336828 0.062898 0.029084
0.391669 0.061280 0.029603
0.450172 0.061952 0.027314
0.508568 0.062562 0.028595
0.574853 0.063478 0.029267
0.643763 0.062104 0.033448
0.722805 0.060426 0.036591
0.798367 0.062226 0.041169
0.855558 0.067170 0.049317
0.881926 0.080659 0.066529
0.889311 0.101472 0.091737
0.035889 0.079530 0.027924
0.050782 0.090639 0.023713
0.085054 0.091524 0.024506
0.131289 0.093782 0.026398
0.188235 0.092592 0.025483
0.252232 0.090089 0.024170
0.334966 0.099214 0.023529
0.399695 0.103761 0.025727
0.466209 0.103243 0.025513
0.527398 0.103517 0.027070
0.592157 0.104616 0.028107
0.655238 0.106294 0.032013
0.728878 0.102235 0.033967
0.799771 0.101625 0.038239
0.854856 0.106844 0.045838
0.881285 0.124697 0.064302
0.890410 0.151919 0.090974
0.044282 0.114015 0.026429
0.061982 0.131472 0.017578
0.096193 0.133211 0.018433
0.140658 0.132845 0.021393
0.196933 0.140261 0.022766
0.257359 0.143008 0.021088
0.332555 0.142428 0.019074
0.398306 0.145876 0.022126
0.470176 0.155245 0.022644
0.536004 0.160067 0.024323
0.601892 0.161898 0.025238
0.661372 0.156283 0.029389
0.734005 0.155978 0.030945
0.803952 0.156619 0.033997
0.858213 0.161654 0.041047
0.884367 0.177615 0.059449
0.894377 0.204135 0.087098
0.056519 0.157107 0.024750
0.077211 0.182528 0.013916
0.116121 0.186465 0.014618
0.156558 0.184695 0.016327
0.216770 0.189364 0.017914
0.276997 0.199557 0.019135
0.346487 0.204990 0.017578
0.407828 0.208499 0.020172
0.479423 0.216342 0.020539
0.543328 0.220401 0.022034
0.609766 0.225834 0.022950
0.670741 0.225895 0.026032
0.737423 0.217350 0.027222
0.806302 0.215518 0.030060
0.860105 0.220157 0.036164
0.890318 0.236667 0.053407
0.900267 0.263218 0.081819
0.075502 0.211551 0.021698
0.095491 0.252506 0.010895
0.140200 0.258045 0.011841
0.188510 0.259571 0.012818
0.245853 0.260822 0.014008
0.308415 0.268238 0.015625
0.377371 0.282032 0.017090
0.430869 0.281971 0.019745
0.491081 0.289082 0.019745
0.555261 0.302831 0.020844
0.620661 0.307744 0.021271
0.682338 0.298482 0.022827
0.748623 0.294255 0.024201
0.811887 0.288121 0.025788
0.864622 0.289036 0.031403
0.898009 0.297581 0.045228
0.903838 0.319188 0.072847
0.097108 0.278767 0.020294
0.119966 0.325978 0.011078
0.163516 0.335897 0.012207
0.215122 0.339590 0.013947
0.268589 0.338216 0.015473
0.330083 0.340566 0.017365
0.396323 0.349996 0.018891
0.459373 0.362692 0.020020
0.514076 0.364920 0.019684
0.565911 0.371084 0.020722
0.631464 0.384802 0.020752
0.697078 0.383810 0.021637
0.762020 0.373281 0.022736
0.823575 0.364584 0.024079
0.870024 0.357870 0.028809
0.900542 0.360357 0.039429
0.904143 0.375494 0.065309
0.123842 0.353872 0.020996
0.149020 0.407309 0.010468
0.189181 0.417044 0.011749
0.240269 0.423117 0.014221
0.295079 0.422599 0.015473
0.353323 0.423423 0.016602
0.416953 0.425986 0.017853
0.477623 0.435752 0.018830
0.541787 0.447044 0.019684
0.591638 0.454856 0.020569
0.646662 0.464195 0.020264
0.710536 0.464134 0.020935
0.770901 0.456016 0.021851
0.827268 0.442069 0.022339
0.873320 0.433219 0.026764
0.902770 0.427253 0.036255
0.903716 0.431220 0.058900
0.152071 0.427283 0.021637
0.182986 0.487358 0.010712
0.221592 0.496284 0.012238
0.267063 0.501671 0.013947
0.317388 0.501152 0.015473
0.373632 0.501122 0.016846
0.438575 0.503349 0.017762
0.494911 0.504021 0.018921
0.560388 0.513787 0.019745
0.617838 0.525750 0.020569
0.672389 0.534340 0.020081
0.726741 0.533898 0.020447
0.781155 0.525017 0.021393
0.833860 0.511406 0.021942
0.871672 0.498512 0.024964
0.898955 0.487556 0.033265
0.902281 0.485328 0.053620
0.183536 0.502098 0.022736
0.217807 0.563073 0.011475
0.252567 0.568658 0.012909
0.294957 0.573877 0.014588
0.343999 0.574914 0.015900
0.393683 0.573388 0.016693
0.457252 0.575830 0.016968
0.516045 0.577874 0.017609
0.578546 0.582116 0.018280
0.638804 0.590845 0.019104
0.698604 0.601221 0.020020
0.750546 0.601770 0.020325
0.793637 0.587427 0.020996
0.835599 0.571221 0.021607
0.873533 0.558190 0.024018
0.896635 0.545129 0.030610
0.902342 0.539727 0.049744
0.213107 0.569726 0.022095
0.250340 0.634699 0.011994
0.286381 0.637446 0.013428
0.325994 0.640253 0.014862
0.372503 0.641810 0.016052
0.421271 0.642176 0.016632
0.474403 0.642542 0.016907
0.536950 0.644923 0.017426
0.598138 0.647852 0.017975
0.654963 0.652613 0.018708
0.714931 0.659358 0.019562
0.773404 0.663783 0.020478
0.813352 0.648096 0.021088
0.842649 0.629938 0.021515
0.871946 0.616114 0.023590
0.892699 0.600122 0.029999
0.902403 0.592767 0.046906
0.233768 0.637140 0.019867
0.271977 0.700679 0.012421
0.308873 0.702602 0.013672
0.352667 0.704463 0.015015
0.399145 0.706386 0.016266
0.446876 0.708431 0.016846
0.500694 0.710018 0.017365
0.559960 0.712093 0.017823
0.620996 0.712642 0.018524
0.672969 0.712764 0.019226
0.729244 0.714015 0.020081
0.785794 0.717433 0.020935
0.824277 0.716060 0.021393
0.850492 0.693538 0.021698
0.875029 0.671412 0.023621
0.889921 0.656031 0.029755
0.898955 0.647730 0.046204
0.240543 0.703883 0.017945
0.271031 0.765805 0.012451
0.314519 0.765194 0.013581
0.369146 0.764004 0.014893
0.417823 0.766506 0.016083
0.465736 0.769833 0.016846
0.521538 0.771878 0.017456
0.579614 0.774075 0.017914
0.639277 0.775021 0.018921
0.690394 0.773617 0.019593
0.742245 0.770901 0.020539
0.792233 0.770016 0.021302
0.833036 0.768124 0.021851
0.852262 0.767147 0.022217
0.871122 0.748074 0.023835
0.885344 0.725521 0.028779
0.894987 0.709590 0.046113
0.232425 0.768002 0.013794
0.258183 0.817349 0.012268
0.310246 0.815152 0.013458
0.374304 0.812528 0.014862
0.425513 0.814603 0.016205
0.473304 0.818265 0.017090
0.531334 0.820829 0.018280
0.590723 0.823880 0.019196
0.651270 0.825589 0.020600
0.704524 0.826078 0.022004
0.754635 0.824308 0.022522
0.800687 0.821256 0.023194
0.845457 0.817136 0.023835
0.857847 0.815579 0.024292
0.871519 0.813901 0.024537
0.881224 0.788510 0.029908
0.889494 0.774777 0.044221
0.218326 0.826688 0.011963
0.243900 0.858396 0.012177
0.310307 0.855558 0.013672
0.372839 0.852537 0.015045
0.428656 0.854337 0.017334
0.480903 0.857969 0.018952
0.538872 0.859953 0.020600
0.593469 0.861051 0.022522
0.654047 0.863584 0.024018
0.709377 0.864652 0.026246
0.758877 0.864958 0.027253
0.805753 0.861936 0.028840
0.841917 0.859495 0.029816
0.863554 0.856992 0.030671
0.873655 0.855192 0.031006
0.876005 0.854673 0.031373
0.884001 0.834928 0.045228
0.201846 0.869902 0.011444
0.233738 0.882994 0.012360
0.302220 0.880766 0.014435
0.365423 0.879240 0.016602
0.424811 0.880858 0.020081
0.480446 0.882170 0.023896
0.537255 0.881590 0.026856
0.588678 0.879576 0.030304
0.641505 0.877562 0.034028
0.696803 0.876951 0.039094
0.747951 0.877531 0.042054
0.796658 0.877867 0.044709
0.836240 0.878019 0.045411
0.866026 0.877134 0.046662
0.875822 0.876249 0.047364
0.879179 0.875853 0.047822
0.879454 0.875792 0.048157
0.026062 0.025910 0.061707
0.032715 0.025635 0.063874
0.053590 0.024628 0.071656
0.093629 0.023804 0.074891
0.143191 0.023285 0.078737
0.199619 0.023560 0.085725
0.254368 0.024414 0.085512
0.312230 0.024384 0.082673
0.365759 0.024720 0.081270
0.426978 0.024933 0.082185
0.486671 0.025391 0.084688
0.553887 0.025483 0.086427
0.620478 0.025849 0.089662
0.687312 0.026368 0.094820
0.750942 0.028809 0.101930
0.813504 0.033234 0.111482
0.842741 0.046235 0.130251
0.026032 0.034089 0.059205
0.039399 0.036072 0.070863
0.066377 0.034668 0.081697
0.116884 0.035248 0.076967
0.175021 0.034394 0.074617
0.242954 0.032624 0.074678
0.304631 0.031556 0.071290
0.359197 0.031739 0.065858
0.417823 0.029053 0.064271
0.481483 0.028748 0.062898
0.547723 0.027649 0.064820
0.618219 0.028840 0.066529
0.696162 0.027955 0.069276
0.770382 0.028687 0.075746
0.832181 0.032929 0.084779
0.860655 0.046052 0.102113
0.871122 0.066621 0.126131
0.028046 0.054932 0.052003
0.041657 0.063233 0.062257
0.069154 0.057465 0.064179
0.123507 0.060609 0.063813
0.184787 0.058961 0.062531
0.258793 0.056031 0.058991
0.325597 0.051789 0.054170
0.390845 0.048219 0.049958
0.448875 0.046265 0.048219
0.517510 0.042817 0.044831
0.590570 0.040772 0.045258
0.675441 0.036896 0.045441
0.756527 0.037018 0.050507
0.833341 0.037842 0.055879
0.876432 0.045686 0.069062
0.891661 0.064027 0.091554
0.888334 0.103822 0.131411
0.034424 0.085542 0.047791
0.048676 0.098054 0.050324
0.075257 0.096071 0.051637
0.124300 0.096956 0.055055
0.182712 0.093690 0.053590
0.251865 0.094240 0.052094
0.331701 0.097536 0.049317
0.405829 0.095338 0.046357
0.469200 0.089418 0.046235
0.537987 0.089357 0.043519
0.605097 0.085237 0.044129
0.685054 0.082490 0.043671
0.762692 0.077333 0.047822
0.833921 0.077180 0.052796
0.874662 0.088685 0.066072
0.890745 0.113466 0.091096
0.888548 0.155306 0.132021
0.043336 0.123690 0.043946
0.061219 0.146456 0.042420
0.088167 0.146304 0.039765
0.136629 0.147036 0.042695
0.196231 0.152895 0.047395
0.262638 0.149569 0.044526
0.334035 0.144350 0.042023
0.423545 0.152682 0.040192
0.488762 0.153475 0.042573
0.554284 0.149355 0.041810
0.620996 0.143496 0.042908
0.694392 0.135897 0.041627
0.767758 0.133577 0.045045
0.833982 0.130861 0.048829
0.874479 0.140749 0.062623
0.890684 0.165499 0.087953
0.891295 0.213291 0.134218
0.056184 0.172152 0.043214
0.077668 0.201724 0.036439
0.108827 0.207553 0.030640
0.158206 0.210544 0.033448
0.215885 0.212772 0.039429
0.288045 0.224338 0.043061
0.355154 0.222751 0.041047
0.438560 0.223728 0.034974
0.504829 0.222721 0.037415
0.570977 0.224796 0.037842
0.633814 0.217304 0.038544
0.706325 0.209049 0.037140
0.773709 0.196750 0.039979
0.838804 0.197452 0.044221
0.879637 0.207828 0.057801
0.896025 0.231144 0.083772
0.896513 0.276097 0.130526
0.075807 0.228489 0.041810
0.097444 0.272206 0.033478
0.131472 0.282216 0.025971
0.186252 0.288838 0.028595
0.241611 0.287739 0.033021
0.313191 0.293996 0.038087
0.388113 0.308095 0.040925
0.460288 0.308797 0.035096
0.522835 0.311116 0.036042
0.588769 0.310689 0.034913
0.650721 0.301625 0.035248
0.719356 0.289509 0.033600
0.789883 0.280140 0.034668
0.845792 0.271031 0.038483
0.886900 0.278080 0.051637
0.898497 0.295720 0.076997
0.894469 0.334173 0.123812
0.100404 0.296468 0.040040
0.125277 0.345480 0.030610
0.154665 0.370809 0.019684
0.213809 0.379263 0.023011
0.276432 0.382589 0.026673
0.345388 0.384939 0.030640
0.417075 0.392294 0.034180
0.494560 0.406149 0.036133
0.548806 0.402029 0.036439
0.606683 0.400687 0.034180
0.670253 0.399069 0.033722
0.738186 0.388571 0.031312
0.810727 0.366720 0.029175
0.857053 0.355856 0.033112
0.888701 0.352224 0.044251
0.898802 0.364569 0.069123
0.892821 0.393133 0.112367
0.127199 0.367330 0.039734
0.154055 0.422538 0.028260
0.184634 0.456840 0.018677
0.239658 0.466850 0.022339
0.302342 0.471092 0.026368
0.366644 0.468925 0.029847
0.436027 0.470695 0.033295
0.509194 0.478813 0.035523
0.578042 0.489067 0.036469
0.631983 0.486534 0.033936
0.684901 0.482231 0.033661
0.750423 0.474296 0.030701
0.820249 0.455711 0.026398
0.864897 0.436576 0.029389
0.894682 0.429068 0.040040
0.899931 0.427817 0.063661
0.891661 0.442634 0.102235
0.155581 0.439063 0.039216
0.184909 0.497292 0.027863
0.215305 0.533593 0.017700
0.263188 0.541650 0.020417
0.321538 0.546624 0.024689
0.384741 0.546258 0.026917
0.451423 0.547478 0.028901
0.522362 0.550866 0.030976
0.590555 0.560021 0.031891
0.660563 0.568368 0.032715
0.712032 0.563958 0.032197
0.768093 0.554299 0.029816
0.828550 0.537774 0.025238
0.869017 0.517021 0.027619
0.891997 0.497871 0.036042
0.898100 0.493263 0.058656
0.891447 0.497505 0.094881
0.182803 0.508171 0.039796
0.206363 0.565484 0.025177
0.241215 0.611017 0.014160
0.286076 0.616541 0.016693
0.340826 0.619440 0.019989
0.398718 0.619196 0.023529
0.463325 0.619104 0.025849
0.536522 0.622766 0.027741
0.602487 0.624231 0.030091
0.674327 0.631678 0.031067
0.738369 0.637415 0.031861
0.790280 0.628473 0.029206
0.837186 0.602930 0.024964
0.871122 0.582483 0.026856
0.891936 0.564355 0.034699
0.900206 0.551019 0.053285
0.897154 0.549493 0.087160
0.204593 0.572564 0.038666
0.227085 0.634913 0.023529
0.263127 0.684260 0.013581
0.311101 0.684962 0.015351
0.362432 0.687343 0.018555
0.421393 0.689601 0.020874
0.480293 0.689052 0.022827
0.554009 0.692470 0.024170
0.620874 0.693111 0.025940
0.691112 0.696437 0.027619
0.752773 0.697841 0.028229
0.812894 0.699336 0.028870
0.851804 0.677546 0.024750
0.873045 0.650813 0.026429
0.890105 0.628260 0.033509
0.899168 0.611719 0.050446
0.901061 0.602930 0.080964
0.209934 0.638361 0.032044
0.233677 0.701167 0.018982
0.272496 0.759793 0.012512
0.328771 0.758450 0.014160
0.384863 0.759182 0.015686
0.445136 0.763333 0.017121
0.508873 0.766140 0.018250
0.577417 0.768002 0.019409
0.644800 0.766567 0.021027
0.710887 0.765530 0.022705
0.770718 0.762356 0.024231
0.823148 0.761044 0.024842
0.860777 0.758328 0.025147
0.878660 0.727169 0.026703
0.886778 0.699153 0.033112
0.896391 0.679683 0.048249
0.901884 0.663874 0.079011
0.206149 0.705379 0.025574
0.227451 0.766659 0.015259
0.260929 0.821408 0.012360
0.331060 0.817014 0.013886
0.396643 0.817044 0.015412
0.455360 0.821256 0.016571
0.519921 0.821988 0.018372
0.588281 0.822782 0.020417
0.653635 0.823606 0.021942
0.717922 0.821469 0.024231
0.772824 0.816159 0.026001
0.826047 0.813474 0.027253
0.865446 0.810269 0.027649
0.874479 0.809812 0.027680
0.882383 0.780423 0.033356
0.891508 0.753292 0.047272
0.898711 0.728084 0.077729
0.196292 0.769619 0.019715
0.213321 0.819211 0.013275
0.244358 0.859525 0.012207
0.319585 0.855100 0.013794
0.392706 0.854063 0.015686
0.454414 0.857694 0.017700
0.517357 0.859220 0.019837
0.583703 0.858152 0.023285
0.648539 0.859098 0.025238
0.711360 0.858976 0.029847
0.766598 0.856107 0.031250
0.818662 0.852476 0.033906
0.858640 0.849119 0.035004
0.873259 0.848051 0.035676
0.877073 0.847684 0.035798
0.885588 0.817502 0.049012
0.893187 0.803250 0.075074
0.183169 0.829831 0.014710
0.205325 0.863157 0.012787
0.240604 0.881376 0.013245
0.316930 0.877287 0.015290
0.385382 0.875700 0.018860
0.450996 0.876249 0.023499
0.513298 0.877226 0.026368
0.572625 0.874144 0.032502
0.635157 0.876005 0.036469
0.695735 0.877195 0.042267
0.752010 0.878813 0.047059
0.807004 0.878050 0.048676
0.848692 0.877592 0.050172
0.873045 0.875486 0.051301
0.879271 0.875608 0.051911
0.880522 0.875395 0.052094
0.889464 0.850278 0.078584
0.172946 0.875212 0.013794
0.202548 0.889738 0.014893
0.244999 0.893034 0.017243
0.313787 0.890166 0.021393
0.381384 0.888365 0.025696
0.448737 0.886320 0.034211
0.508690 0.884520 0.040314
0.564538 0.880400 0.047791
0.616175 0.879362 0.055329
0.673579 0.880674 0.062715
0.728756 0.883635 0.070893
0.780880 0.885466 0.075288
0.831022 0.886076 0.079438
0.864042 0.886290 0.081849
0.882414 0.886778 0.084108
0.885832 0.886564 0.084230
0.886473 0.886564 0.084108
0.025605 0.025574 0.099672
0.035615 0.025513 0.106600
0.052461 0.024872 0.115572
0.079591 0.024018 0.117159
0.121004 0.023133 0.124025
0.174990 0.022644 0.124300
0.226596 0.023285 0.122011
0.286503 0.023499 0.124636
0.349737 0.024231 0.123690
0.413458 0.024506 0.124544
0.478096 0.025055 0.122255
0.546532 0.025177 0.127138
0.612177 0.025483 0.131899
0.674586 0.025971 0.136995
