assets/luts/impulz-kodak-gold-gen-6-200-fc-rec709-b754de51.cube
# (C) 2014 VisionColor & Patchflyer [www.vision-color.com]
# Generator: VC Patchmatch v.2.1.1 [64/53]
# All work and no play makes Jack a dull boy.
# LUT generated from: Kodak Gold Gen.6 200_FC
LUT_3D_SIZE 5
0.033845 0.031281 0.031525
0.266514 0.039643 0.035859
0.440375 0.052735 0.043549
0.597498 0.071382 0.061250
0.783200 0.083375 0.080629
0.075410 0.161868 0.017182
0.268772 0.195377 0.021057
0.491981 0.248325 0.038758
0.644953 0.287358 0.059022
0.802579 0.281468 0.075380
0.171633 0.398932 0.023926
0.366613 0.433997 0.035615
0.559747 0.471473 0.041962
0.694331 0.495583 0.062074
0.816526 0.470588 0.074434
0.256931 0.580011 0.035737
0.427527 0.601862 0.049104
0.605402 0.636500 0.057527
0.746242 0.649165 0.059693
0.844816 0.613275 0.074403
0.277836 0.736690 0.031434
0.457038 0.743526 0.049592
0.623011 0.770962 0.063813
0.768124 0.798337 0.075563
0.874479 0.797940 0.076844
0.031434 0.036469 0.202579
0.161044 0.030243 0.228458
0.375189 0.037690 0.224033
0.547265 0.049409 0.218326
0.716731 0.060731 0.215854
0.058137 0.194095 0.178225
0.214298 0.213016 0.210422
0.402960 0.239963 0.225803
0.563134 0.267430 0.245731
0.776028 0.268833 0.248997
0.143984 0.428504 0.181704
0.320043 0.434150 0.220432
0.495613 0.470253 0.249577
0.631342 0.489448 0.261112
0.785245 0.464485 0.256992
0.217044 0.589563 0.176638
0.389105 0.581170 0.225223
0.546868 0.617487 0.263737
0.689387 0.633692 0.267979
0.812711 0.613092 0.253178
0.237766 0.739437 0.135897
0.382971 0.743587 0.162570
0.552239 0.762783 0.218082
0.703212 0.801633 0.255436
0.870665 0.825986 0.268376
0.030701 0.047700 0.405035
0.111055 0.035889 0.414771
0.290745 0.036988 0.360571
0.483436 0.049287 0.381292
0.673182 0.060700 0.375860
0.057618 0.200900 0.402380
0.176272 0.213016 0.385748
0.337438 0.213931 0.395087
0.502251 0.233280 0.396277
0.735866 0.234775 0.366552
0.102144 0.414496 0.430274
0.254215 0.425666 0.420142
0.434791 0.455451 0.444923
0.574243 0.463691 0.442634
0.816403 0.456672 0.410773
0.152102 0.584283 0.393606
0.320958 0.577996 0.418463
0.496071 0.602197 0.450019
0.649226 0.631586 0.466682
0.837827 0.627405 0.410956
0.195956 0.748562 0.315251
0.333318 0.752651 0.339727
0.488930 0.793881 0.355123
0.685939 0.835691 0.425208
0.898436 0.874266 0.447089
0.028992 0.066102 0.648341
0.080629 0.044770 0.576471
0.227420 0.046540 0.511559
0.427405 0.051667 0.553613
0.618494 0.058808 0.529046
0.052644 0.230015 0.621759
0.148531 0.220829 0.529992
0.272679 0.211978 0.520104
0.439094 0.225376 0.534020
0.665003 0.212680 0.480720
0.090089 0.416602 0.617578
0.224399 0.418647 0.560418
0.366262 0.433082 0.569512
0.513390 0.440070 0.581231
0.754360 0.404547 0.509911
0.112215 0.577752 0.626459
0.260899 0.573816 0.590814
0.433143 0.591852 0.603937
0.610437 0.637415 0.643305
0.846036 0.623652 0.568353
0.124483 0.741848 0.514183
0.236942 0.757443 0.526879
0.413413 0.814481 0.582910
0.660822 0.883177 0.629908
0.923583 0.914672 0.664790
0.024598 0.086122 0.860441
0.050996 0.052491 0.782162
0.154360 0.055268 0.718044
0.334264 0.061341 0.727352
0.551720 0.061341 0.737942
0.031159 0.260746 0.844724
0.085023 0.219028 0.742611
0.161379 0.196017 0.718379
0.319493 0.210086 0.730373
0.553246 0.211948 0.727932
0.053254 0.436011 0.821073
0.129397 0.396368 0.764920
0.193301 0.378210 0.780240
0.345464 0.376440 0.784817
0.618799 0.386145 0.800046
0.071962 0.562402 0.822324
0.171725 0.549706 0.788357
0.284398 0.571099 0.827665
0.461219 0.594965 0.875151
0.754269 0.598108 0.881376
0.061891 0.718532 0.776516
0.151980 0.735317 0.793332
0.277867 0.802365 0.868101
0.558373 0.890837 0.911803
0.953887 0.953887 0.945678
