assets/luts/impulz-fuji-superior-200-fc-log-4cf71de8.cube
# (C) 2014 VisionColor & Patchflyer [www.vision-color.com]
# Generator: VC Patchmatch v.2.1.1 [64/53]
# All work and no play makes Jack a dull boy.
# LUT generated from: Fuji Superior 200_FC
LUT_3D_SIZE 9
0.025147 0.025147 0.025147
0.075654 0.026062 0.026032
0.174777 0.025422 0.025391
0.323095 0.026673 0.026429
0.475563 0.026825 0.026642
0.587060 0.028351 0.027588
0.687282 0.028290 0.027771
0.777798 0.032380 0.031861
0.842252 0.060914 0.058747
0.032532 0.062379 0.019989
0.078035 0.060456 0.021302
0.183444 0.066438 0.020203
0.337545 0.082612 0.024445
0.500282 0.090669 0.026825
0.622950 0.104555 0.030976
0.708247 0.106874 0.032776
0.786130 0.118776 0.040253
0.845762 0.156954 0.070619
0.049561 0.135500 0.015167
0.104128 0.142916 0.018433
0.204135 0.150179 0.025299
0.349844 0.174746 0.032990
0.507973 0.194430 0.038117
0.639948 0.222385 0.044434
0.735531 0.234104 0.049317
0.818662 0.259281 0.060243
0.875975 0.296910 0.086854
0.104067 0.254215 0.019532
0.192569 0.275898 0.031861
0.297414 0.289113 0.046143
0.414603 0.308278 0.055451
0.549630 0.332753 0.061250
0.679194 0.370062 0.068940
0.772671 0.394202 0.076661
0.849332 0.424414 0.085634
0.895994 0.451606 0.105776
0.234333 0.422049 0.041566
0.328542 0.443259 0.060945
0.441062 0.462760 0.079896
0.549264 0.478691 0.095064
0.644480 0.503029 0.101442
0.735927 0.519722 0.103273
0.817807 0.547311 0.106935
0.873259 0.579171 0.112795
0.902220 0.602274 0.127504
0.395178 0.590234 0.072847
0.470436 0.607691 0.097749
0.567926 0.624781 0.118044
0.664088 0.637812 0.133455
0.751217 0.656123 0.144350
0.818570 0.676966 0.147768
0.856504 0.686091 0.143404
0.893523 0.709773 0.142611
0.913237 0.729915 0.150454
0.534325 0.721553 0.101625
0.590326 0.739254 0.131197
0.667536 0.752712 0.153903
0.750118 0.759915 0.165377
0.822202 0.772305 0.176059
0.867948 0.791074 0.182254
0.891325 0.802701 0.183413
0.909483 0.819303 0.175662
0.917876 0.821530 0.169924
0.625544 0.814420 0.110597
0.687709 0.840177 0.145266
0.762173 0.854948 0.181430
0.831662 0.858122 0.195193
0.873350 0.863462 0.202701
0.894530 0.870390 0.209018
0.911162 0.878050 0.211337
0.921630 0.882780 0.201633
0.923186 0.888548 0.193545
0.674495 0.876341 0.108675
0.745754 0.894224 0.138979
0.827970 0.911131 0.185946
0.880400 0.912077 0.212650
0.905364 0.911345 0.224704
0.916197 0.911528 0.231815
0.921782 0.913756 0.237339
0.926268 0.914885 0.231235
0.927550 0.919310 0.215244
0.026917 0.027008 0.086366
0.056153 0.025696 0.075532
0.146517 0.024506 0.072145
0.281529 0.025605 0.076448
0.439109 0.026398 0.077638
0.569604 0.027741 0.085206
0.674525 0.027863 0.085512
0.768277 0.032136 0.093294
0.836240 0.054749 0.123201
0.026123 0.067842 0.061402
0.072328 0.072236 0.071168
0.214328 0.065003 0.060060
0.400900 0.056519 0.052277
0.559487 0.055207 0.048463
0.668116 0.047150 0.042298
0.763424 0.043427 0.040406
0.831540 0.060182 0.057374
0.875517 0.142641 0.130953
0.051484 0.165682 0.063539
0.106630 0.192172 0.051820
0.254429 0.203372 0.059602
0.433677 0.188022 0.055787
0.595041 0.191745 0.057038
0.709773 0.181643 0.053712
0.791928 0.178531 0.054841
0.854765 0.199069 0.075166
0.894377 0.278904 0.142489
0.111177 0.291234 0.083131
0.198199 0.353872 0.050629
0.349416 0.381918 0.074098
0.522774 0.402243 0.090486
0.658274 0.395651 0.087831
0.758572 0.386313 0.083558
0.836423 0.386282 0.084779
0.891386 0.397391 0.100404
0.908873 0.436194 0.154879
0.223484 0.440299 0.110109
0.357473 0.545205 0.076905
0.496971 0.579019 0.106966
0.637369 0.591348 0.130007
0.760754 0.619821 0.141909
0.827207 0.599405 0.130587
0.876860 0.602121 0.122744
0.902373 0.595712 0.129061
0.915801 0.590036 0.170413
0.356725 0.594751 0.150301
0.516197 0.705653 0.107454
0.610834 0.729274 0.140322
0.726009 0.739528 0.160555
0.827237 0.756222 0.177493
0.882536 0.779110 0.183474
0.902373 0.768185 0.166232
0.916564 0.756130 0.159487
0.923125 0.728420 0.193637
0.459083 0.724727 0.182162
0.624567 0.809934 0.114748
0.711849 0.845121 0.164096
0.812772 0.857206 0.190433
0.872648 0.862516 0.202792
0.903471 0.869291 0.211154
0.921935 0.880369 0.206302
0.924529 0.866270 0.190433
0.926635 0.833188 0.209018
0.526604 0.823545 0.187381
0.663600 0.874083 0.108553
0.763119 0.898650 0.153811
0.858427 0.907958 0.200870
0.900572 0.909697 0.222446
0.916869 0.912474 0.233463
0.925566 0.912657 0.236912
0.927642 0.917266 0.218875
0.927489 0.896635 0.233494
0.551385 0.887541 0.171206
0.634302 0.899351 0.099702
0.729641 0.910369 0.124025
0.841794 0.923278 0.191165
0.895354 0.926452 0.237308
0.917235 0.926879 0.254002
0.925872 0.926818 0.264591
0.927642 0.926879 0.267918
0.928008 0.927672 0.254246
0.027588 0.027741 0.194400
0.050111 0.026520 0.185275
0.136507 0.024353 0.163455
0.265904 0.024872 0.156649
0.417990 0.026337 0.163973
0.558770 0.028870 0.176516
0.670466 0.030274 0.180179
0.758694 0.034211 0.187381
0.820127 0.053590 0.206729
0.022370 0.073396 0.156802
0.048524 0.060182 0.205264
0.178347 0.057008 0.194797
0.354330 0.048676 0.160861
0.518074 0.048585 0.152438
0.647486 0.044587 0.141421
0.752468 0.042573 0.138064
0.828855 0.055360 0.150362
0.867308 0.121431 0.209873
0.042786 0.171054 0.147005
0.082216 0.207065 0.179751
0.180453 0.183261 0.161746
0.383047 0.166629 0.147829
0.572061 0.149142 0.130312
0.707759 0.135409 0.116396
0.808499 0.125032 0.111452
0.869261 0.146487 0.132631
0.898039 0.260471 0.231357
0.096376 0.299565 0.169589
0.171572 0.383230 0.174777
0.269566 0.376272 0.140047
0.464500 0.384756 0.164126
0.634531 0.366049 0.147860
0.764858 0.353567 0.138277
0.850523 0.336294 0.132265
0.900359 0.342245 0.150149
0.908476 0.412055 0.241917
0.200076 0.448600 0.204746
0.303166 0.560830 0.207919
0.403830 0.572793 0.139467
0.580636 0.594675 0.172091
0.729961 0.608103 0.196597
0.834104 0.592172 0.179355
0.889586 0.580819 0.164279
0.913603 0.554971 0.172244
0.912810 0.560265 0.256626
0.308751 0.599115 0.260288
0.422339 0.708309 0.233585
0.537987 0.737606 0.153719
0.678920 0.761929 0.180453
0.804562 0.766598 0.210727
0.878080 0.780545 0.230961
0.906249 0.768933 0.210056
0.923766 0.740612 0.203250
0.922850 0.701885 0.277348
0.403235 0.729091 0.302159
0.491798 0.819425 0.231968
0.618372 0.847715 0.130953
0.752255 0.872740 0.172152
0.861204 0.876585 0.217563
0.899687 0.875242 0.243351
0.920897 0.882231 0.251286
0.926757 0.862760 0.234073
0.929900 0.822232 0.295384
0.455848 0.830533 0.307256
0.522728 0.889616 0.202274
0.629267 0.898070 0.100649
0.770687 0.912932 0.151431
0.880064 0.922484 0.221225
0.913542 0.921233 0.254246
0.924926 0.919829 0.269566
0.927916 0.921508 0.265141
0.932647 0.889677 0.321813
0.484504 0.894194 0.281956
0.527733 0.916045 0.181033
0.595514 0.912413 0.110323
0.750179 0.921935 0.182773
0.863951 0.928801 0.265293
0.903014 0.931151 0.307774
0.918547 0.932403 0.331426
0.928405 0.932708 0.343450
0.934417 0.934417 0.347967
0.027710 0.027955 0.279393
0.047944 0.027863 0.317906
0.119509 0.026581 0.299962
0.244327 0.024018 0.257847
0.403983 0.027344 0.258518
0.549676 0.031159 0.273533
0.654810 0.032807 0.278965
0.730068 0.033448 0.278111
0.785946 0.049378 0.282170
0.023835 0.082765 0.260197
0.035828 0.047486 0.344671
0.107973 0.048463 0.371618
0.300969 0.045472 0.303410
0.491081 0.043366 0.284153
0.628733 0.042725 0.271366
0.729030 0.039796 0.260868
0.797208 0.051759 0.257450
0.835233 0.106630 0.284367
0.041169 0.174716 0.251133
0.054078 0.168032 0.310948
0.111604 0.140810 0.323033
0.298985 0.133944 0.298650
0.494697 0.120943 0.270909
0.640818 0.113527 0.251926
0.769406 0.107149 0.242069
0.851530 0.119356 0.242741
0.873777 0.223392 0.309697
0.077760 0.287175 0.259831
0.116854 0.348974 0.326436
0.179049 0.343450 0.314305
0.341527 0.326329 0.301885
0.529793 0.310765 0.290196
0.686015 0.291920 0.262348
0.814939 0.271748 0.241169
0.890440 0.280369 0.249454
0.897368 0.384314 0.346593
0.152590 0.429206 0.304250
0.214115 0.532601 0.360433
0.294347 0.557809 0.325032
0.440696 0.548501 0.288762
0.641398 0.556374 0.322896
0.776761 0.547494 0.296651
0.865415 0.521737 0.273854
0.903288 0.496910 0.274662
0.909300 0.529397 0.369329
0.240482 0.577096 0.363470
0.323507 0.695552 0.393225
0.412589 0.733989 0.329503
0.546502 0.734234 0.260334
0.733089 0.746960 0.311330
0.853239 0.755932 0.344549
0.894286 0.738293 0.312901
0.918853 0.695933 0.301396
0.924285 0.678096 0.390814
0.327306 0.714534 0.412787
0.403845 0.826505 0.407019
0.480995 0.859129 0.289998
0.601373 0.861082 0.197467
0.785031 0.868894 0.270924
0.879881 0.867979 0.333288
0.918090 0.869932 0.355688
0.930510 0.848203 0.340490
0.937224 0.815274 0.419135
0.394171 0.829923 0.437659
0.460883 0.898253 0.371786
0.514031 0.919402 0.239277
0.604089 0.907652 0.138613
0.806607 0.920409 0.244556
0.892851 0.921294 0.325567
0.918608 0.920928 0.365728
0.936461 0.923400 0.378454
0.940581 0.889586 0.449500
0.445258 0.903807 0.425513
0.495369 0.925475 0.343923
0.533989 0.933410 0.263966
0.645075 0.931853 0.259052
0.797177 0.935699 0.354482
0.879332 0.938506 0.414130
0.906188 0.940276 0.454566
0.930266 0.940398 0.476936
0.941741 0.941466 0.487648
0.028351 0.028382 0.380255
0.039796 0.029175 0.455589
0.090242 0.030640 0.479118
0.194247 0.027405 0.399420
0.350622 0.025055 0.334203
0.502663 0.028107 0.340856
0.605982 0.029877 0.349126
0.680262 0.029938 0.350591
0.738186 0.042237 0.349920
0.024475 0.079622 0.378088
0.030243 0.037781 0.493400
0.071412 0.040131 0.548043
0.199588 0.038849 0.474159
0.417517 0.036683 0.388312
0.561868 0.034516 0.370398
0.665370 0.031861 0.360388
0.735592 0.044038 0.346349
0.790036 0.092653 0.354711
0.041413 0.171145 0.352941
0.044038 0.149294 0.455833
0.062013 0.103090 0.493675
0.186557 0.100862 0.452583
0.401312 0.099763 0.401892
0.565408 0.090394 0.373373
0.698131 0.084840 0.357122
0.793362 0.099886 0.342290
0.824338 0.195926 0.378210
0.076997 0.277928 0.361700
0.092866 0.304448 0.442069
0.115389 0.280522 0.455985
0.208804 0.250187 0.432746
0.415534 0.248508 0.412604
0.582498 0.235019 0.391440
0.725841 0.220340 0.366140
0.829190 0.232547 0.354376
0.861753 0.342992 0.416754
0.123049 0.410681 0.394278
0.157748 0.497490 0.496818
0.196597 0.505257 0.499168
0.305699 0.486015 0.474754
0.503548 0.481926 0.465904
0.658991 0.467338 0.447807
0.786313 0.448386 0.422293
0.875486 0.430625 0.395254
0.890532 0.508339 0.471275
0.183749 0.553155 0.451911
0.222171 0.667857 0.530724
0.266987 0.700633 0.517159
0.382025 0.702068 0.480430
0.574609 0.685039 0.461295
0.760449 0.696391 0.503624
0.857954 0.682902 0.468132
0.903105 0.647135 0.439734
0.913939 0.670451 0.521141
0.242863 0.696803 0.508141
0.294087 0.817441 0.571145
0.354147 0.853635 0.513680
0.453193 0.857145 0.446525
0.636378 0.848875 0.418997
0.811475 0.850675 0.489311
0.897032 0.849363 0.519692
0.928923 0.831479 0.494347
0.936614 0.812497 0.564904
0.308721 0.826993 0.556146
0.367636 0.905943 0.563943
0.428702 0.930663 0.492973
0.507927 0.927459 0.396689
0.663325 0.923125 0.355245
0.835431 0.923705 0.455543
0.899962 0.921660 0.521279
0.938201 0.922301 0.544381
0.944152 0.894652 0.605966
0.370886 0.912322 0.573739
0.418067 0.935760 0.543496
0.475257 0.940703 0.497612
0.568566 0.939483 0.479484
0.697505 0.941466 0.515328
0.807324 0.944244 0.567895
0.878630 0.944335 0.600351
0.920745 0.944488 0.626261
0.945830 0.945495 0.642527
0.029694 0.029694 0.500603
0.034577 0.029450 0.568627
0.074403 0.029541 0.607202
0.155886 0.028779 0.548196
0.288441 0.025971 0.446799
0.438575 0.025422 0.401831
0.537713 0.026734 0.404669
0.623957 0.028077 0.412573
0.694057 0.037995 0.419409
0.026062 0.082155 0.510948
0.028626 0.033478 0.617395
0.048096 0.032624 0.667506
0.131243 0.031800 0.627482
0.293935 0.029908 0.517281
0.479713 0.030091 0.472908
0.593591 0.029267 0.455940
0.680293 0.040131 0.439765
0.736721 0.086152 0.429847
0.046632 0.178378 0.475044
0.036408 0.133242 0.613397
0.034913 0.078859 0.678752
0.115572 0.073548 0.621805
0.281483 0.074128 0.534218
0.480262 0.076081 0.498543
0.620691 0.070344 0.471290
0.723445 0.087373 0.443610
0.767727 0.172549 0.445075
0.077913 0.281163 0.462379
0.076875 0.283101 0.577600
0.073487 0.248005 0.620279
0.112627 0.193317 0.577829
0.278370 0.189166 0.523186
0.469001 0.192523 0.495766
0.625116 0.177234 0.468513
0.751217 0.194156 0.449226
0.798642 0.300587 0.473732
0.118471 0.399634 0.490822
0.121431 0.454368 0.597406
0.130861 0.451316 0.620386
0.188251 0.415396 0.587671
0.337346 0.387350 0.554742
0.534752 0.396414 0.547906
0.680140 0.373495 0.513115
0.796994 0.364767 0.483467
0.851743 0.464805 0.537255
0.163241 0.540398 0.546258
0.183658 0.656306 0.677989
0.196262 0.666224 0.678843
0.266041 0.647440 0.646220
0.435233 0.635187 0.628748
0.644892 0.630518 0.631067
0.769009 0.610162 0.597894
0.867704 0.588312 0.563241
0.900664 0.647852 0.622034
0.203525 0.682857 0.606043
0.227085 0.803433 0.715602
0.237308 0.831022 0.706279
0.296315 0.826535 0.671580
0.466056 0.820493 0.652445
0.680690 0.810575 0.633951
0.838254 0.809903 0.659602
0.910491 0.799466 0.635294
0.930114 0.800076 0.684962
0.242618 0.815457 0.665858
0.264805 0.900664 0.741360
0.290135 0.922698 0.728923
0.361868 0.924865 0.693797
0.515358 0.925994 0.646342
0.699519 0.916472 0.620188
0.853117 0.913054 0.670146
0.926940 0.913146 0.698390
0.945342 0.891386 0.734493
0.285527 0.910521 0.712612
0.302434 0.930938 0.722606
0.351308 0.936889 0.719951
0.462150 0.941772 0.711284
0.583993 0.943908 0.701762
0.726955 0.946410 0.714733
0.839841 0.946746 0.734615
0.909941 0.946227 0.755856
0.947417 0.946441 0.771542
0.029480 0.029480 0.618036
0.032197 0.029267 0.649653
0.059571 0.028595 0.683833
0.121462 0.027863 0.649866
0.228138 0.026062 0.556313
0.359472 0.025574 0.497688
0.483497 0.025788 0.480232
0.583062 0.027741 0.484413
0.666712 0.035554 0.493080
0.027100 0.080873 0.643000
0.029236 0.030732 0.709804
0.035615 0.029786 0.723018
0.092592 0.028931 0.705165
0.217792 0.027436 0.617761
0.380987 0.027192 0.563745
0.543938 0.028534 0.559319
0.646387 0.038331 0.539361
0.693233 0.081697 0.512566
0.050568 0.181796 0.609430
0.031769 0.120394 0.754849
0.025696 0.063539 0.804837
0.067262 0.050813 0.774762
0.191058 0.051637 0.679545
0.372168 0.056550 0.613886
0.565301 0.064485 0.602136
0.673487 0.081971 0.565209
0.708400 0.155367 0.517357
0.078981 0.288792 0.586786
0.066285 0.282139 0.717800
0.044343 0.221149 0.786999
0.054902 0.153170 0.753552
0.162036 0.139452 0.671458
0.339727 0.146731 0.615869
0.532799 0.155795 0.597467
0.674647 0.164858 0.556085
0.731319 0.261769 0.533776
0.103609 0.404181 0.594629
0.091737 0.451774 0.713558
0.073213 0.419211 0.745815
0.092454 0.361807 0.719631
0.187060 0.308766 0.656886
0.377844 0.318105 0.634668
0.562188 0.322835 0.620050
0.699184 0.303883 0.567590
0.791470 0.422110 0.593500
0.142336 0.539849 0.641505
0.143343 0.640330 0.770596
0.128939 0.635996 0.790188
0.152132 0.588357 0.751705
0.278492 0.558755 0.715419
0.470329 0.544198 0.687007
0.663081 0.549325 0.689113
0.782773 0.521645 0.642451
0.870390 0.615549 0.682765
0.189029 0.681422 0.707179
0.179660 0.791104 0.821042
0.160678 0.791196 0.821714
0.193759 0.770871 0.787472
0.327749 0.769589 0.780392
0.541558 0.768704 0.771664
0.760037 0.777340 0.770443
0.876554 0.753902 0.736446
0.923003 0.797543 0.768612
0.217380 0.807157 0.758297
0.202762 0.879759 0.824033
0.199008 0.893156 0.829679
0.248905 0.898497 0.827176
0.379538 0.913390 0.828977
0.554711 0.909087 0.799283
0.762997 0.900603 0.784878
0.908568 0.901946 0.801541
0.945891 0.892912 0.818631
0.232212 0.899138 0.803250
0.235874 0.916075 0.818998
0.269902 0.923003 0.828489
0.372824 0.936004 0.842741
0.492882 0.940764 0.832975
0.632807 0.944366 0.812802
0.792905 0.947326 0.836576
0.904326 0.948852 0.844419
0.951019 0.950896 0.860502
0.029572 0.029694 0.711147
0.030488 0.029297 0.704952
0.047333 0.028962 0.726680
0.101167 0.028229 0.701930
0.193881 0.027131 0.631739
0.308141 0.026368 0.575280
0.425238 0.026612 0.558282
0.547295 0.027344 0.558709
0.643061 0.034424 0.567193
0.026825 0.076265 0.767666
0.029084 0.034974 0.820462
0.033051 0.031708 0.781003
0.075013 0.030396 0.779568
0.175280 0.030243 0.705623
0.309361 0.031403 0.641657
0.449714 0.033326 0.626581
0.610193 0.036469 0.625330
0.666682 0.077852 0.600855
0.049042 0.186526 0.741054
0.028870 0.122042 0.846433
0.023621 0.066865 0.874205
0.051881 0.051972 0.852872
0.143740 0.052705 0.791684
0.281315 0.058839 0.709621
0.442084 0.065736 0.681544
0.628656 0.075959 0.673854
0.666896 0.146304 0.608667
0.071290 0.308568 0.713619
0.051789 0.278019 0.815061
0.028290 0.207156 0.868132
0.030701 0.141268 0.850278
0.103243 0.124422 0.795102
0.236393 0.131106 0.728481
0.411048 0.142947 0.704829
0.603021 0.152377 0.698940
0.666346 0.237247 0.618921
0.083314 0.426123 0.707546
0.061372 0.439872 0.794522
0.042023 0.399161 0.831205
0.045106 0.327810 0.812192
0.090623 0.256550 0.766781
0.230015 0.258045 0.735744
0.422858 0.270985 0.719448
0.609888 0.278279 0.703975
0.728389 0.387594 0.665461
0.112978 0.560937 0.739925
0.095949 0.617533 0.829343
0.077211 0.602853 0.851926
0.081666 0.546517 0.830106
0.153414 0.490806 0.794888
0.293385 0.456992 0.762448
0.510506 0.475914 0.762173
0.691218 0.481132 0.758236
0.823362 0.578866 0.740749
0.156069 0.694453 0.794980
0.136812 0.762661 0.875090
0.121767 0.763790 0.890288
0.123629 0.725612 0.870512
0.196063 0.695857 0.848844
0.398581 0.700526 0.839109
0.610773 0.694148 0.818936
0.808957 0.704067 0.829160
0.899901 0.764950 0.827726
0.175937 0.793240 0.823758
0.131106 0.846769 0.875029
0.110292 0.841123 0.876158
0.124788 0.842985 0.870420
0.209003 0.868406 0.880339
0.412619 0.885039 0.885283
0.645899 0.886595 0.880766
0.876951 0.888792 0.882750
0.948974 0.899748 0.883879
0.184695 0.878416 0.846036
0.171450 0.884947 0.845823
0.193057 0.891447 0.853697
0.266209 0.910979 0.872770
0.396170 0.931517 0.881346
0.555535 0.940459 0.881315
0.724147 0.945830 0.894835
0.893523 0.950744 0.909850
0.953796 0.953765 0.908415
0.029664 0.032776 0.830442
0.030060 0.030549 0.764858
0.043946 0.029999 0.784451
0.092653 0.029053 0.768734
0.174899 0.029084 0.705287
0.277684 0.029297 0.650050
0.381048 0.029786 0.629816
0.491249 0.030854 0.628382
0.618158 0.033082 0.627436
0.026734 0.083680 0.858579
0.024781 0.064210 0.876036
0.035187 0.052705 0.853056
0.080140 0.049470 0.839811
0.157321 0.052552 0.780972
0.258976 0.057221 0.714412
0.369299 0.061524 0.689326
0.489387 0.066773 0.679103
0.630915 0.073091 0.675868
0.043000 0.198489 0.844785
0.025818 0.157778 0.877623
0.026154 0.127504 0.867002
0.062806 0.108736 0.836942
0.131075 0.109346 0.805631
0.229709 0.114229 0.747829
0.348180 0.122744 0.722805
0.480934 0.131289 0.716457
0.620325 0.137545 0.711910
0.056977 0.322484 0.815366
0.035096 0.288792 0.849912
0.029969 0.243870 0.844724
0.055726 0.214267 0.817472
0.117617 0.204746 0.784939
0.220462 0.207095 0.758450
0.350134 0.216709 0.741268
0.496803 0.231418 0.738888
0.621424 0.233097 0.729915
0.059510 0.445182 0.798825
0.042267 0.432731 0.829862
0.042054 0.392416 0.830472
0.078737 0.360555 0.800076
0.158724 0.354940 0.795071
0.273594 0.358602 0.781826
0.418524 0.368582 0.776455
0.560174 0.381125 0.778134
0.681025 0.382803 0.769436
0.081849 0.575586 0.816220
0.067781 0.581109 0.844999
0.069978 0.556008 0.847074
0.110780 0.522789 0.832364
0.229465 0.529274 0.827054
0.361563 0.536141 0.827909
0.517861 0.547768 0.826719
0.660365 0.557748 0.831693
0.771542 0.560678 0.831083
0.120363 0.704189 0.860716
0.107546 0.715084 0.882048
0.101442 0.690272 0.878019
0.135561 0.667720 0.871214
0.270008 0.683040 0.870024
0.447623 0.697566 0.871000
0.616251 0.720211 0.875547
0.774777 0.728054 0.877806
0.865141 0.729885 0.876616
0.136690 0.792813 0.882780
0.121859 0.801663 0.895262
0.118013 0.785153 0.893156
0.148348 0.779019 0.889189
0.277272 0.805753 0.891447
0.465751 0.834287 0.902312
0.655116 0.860227 0.911162
0.844999 0.878691 0.919676
0.931426 0.882017 0.922301
0.129580 0.855070 0.881865
0.107179 0.845090 0.879332
0.109743 0.847959 0.879728
0.146456 0.879332 0.892729
0.278706 0.908293 0.914275
0.469017 0.935760 0.929259
0.657984 0.943664 0.935699
0.853819 0.949371 0.941314
0.959869 0.959869 0.951537
