assets/luts/impulz-kodak-gold-gen-6-200-fpe-rec709-06167b89.cube
# (C) 2014 VisionColor & Patchflyer [www.vision-color.com]
# Generator: VC Patchmatch v.2.1.1 [64/53]
# All work and no play makes Jack a dull boy.
# LUT generated from: Kodak Gold Gen.6 200_FPE
LUT_3D_SIZE 17
0.036072 0.040314 0.040894
0.055756 0.042847 0.040192
0.093843 0.049439 0.041627
0.142306 0.056489 0.044373
0.193271 0.059419 0.042786
0.229435 0.063264 0.045563
0.258091 0.062928 0.045197
0.284337 0.062409 0.044953
0.313115 0.067292 0.047761
0.338689 0.069978 0.050874
0.365026 0.069398 0.050690
0.392523 0.075807 0.051514
0.416602 0.076448 0.057099
0.442542 0.081422 0.062501
0.466468 0.079713 0.062379
0.492012 0.086732 0.062287
0.511955 0.080354 0.066163
0.037629 0.048615 0.041291
0.064515 0.056886 0.041657
0.102449 0.063905 0.042725
0.154910 0.073854 0.043915
0.215274 0.084871 0.042481
0.261784 0.087556 0.046204
0.305791 0.095399 0.046510
0.346105 0.105226 0.046723
0.374487 0.104860 0.049989
0.401556 0.107942 0.053559
0.431067 0.118929 0.053498
0.458076 0.127565 0.054322
0.479194 0.124697 0.059815
0.500816 0.129671 0.065278
0.520714 0.128847 0.064759
0.544549 0.134493 0.064607
0.562707 0.125887 0.068391
0.044465 0.066407 0.042451
0.073854 0.076509 0.043183
0.120699 0.089937 0.043763
0.173739 0.102144 0.045106
0.236728 0.112337 0.042573
0.297154 0.128328 0.047059
0.351873 0.138186 0.047913
0.399451 0.146334 0.048554
0.437079 0.161013 0.052155
0.467201 0.171054 0.055634
0.493812 0.174929 0.056001
0.519646 0.181613 0.057374
0.540276 0.189090 0.062867
0.560693 0.196048 0.068269
0.578515 0.192081 0.067597
0.595911 0.185367 0.067414
0.614404 0.185214 0.072267
0.056855 0.093446 0.046479
0.093568 0.107485 0.046052
0.150332 0.126406 0.046082
0.209354 0.143008 0.046021
0.284977 0.165286 0.043519
0.332952 0.171328 0.048493
0.389975 0.186923 0.050080
0.449439 0.209232 0.050782
0.487922 0.220706 0.055238
0.518730 0.229618 0.059236
0.547967 0.241459 0.060761
0.575586 0.251621 0.062348
0.594629 0.256352 0.067414
0.612512 0.259251 0.072206
0.628595 0.256321 0.072236
0.644617 0.250706 0.072724
0.661311 0.247074 0.076875
0.076509 0.136690 0.044862
0.130526 0.153964 0.044190
0.191440 0.176364 0.043336
0.270024 0.201389 0.043885
0.334783 0.218601 0.044434
0.384955 0.232578 0.049744
0.439261 0.248692 0.052155
0.495277 0.267155 0.052827
0.533715 0.280980 0.058381
0.569482 0.296422 0.064027
0.598138 0.306127 0.065675
0.624933 0.315038 0.067292
0.641901 0.318822 0.072602
0.656855 0.321630 0.078004
0.674128 0.317754 0.077333
0.690272 0.311955 0.077699
0.706477 0.307622 0.081788
0.109071 0.187289 0.046235
0.170474 0.207767 0.046082
0.237736 0.231968 0.046296
0.317784 0.258640 0.049317
0.391028 0.282109 0.050965
0.440955 0.294774 0.053529
0.490440 0.307134 0.055604
0.540093 0.322606 0.058961
0.578210 0.339879 0.064698
0.611994 0.354559 0.070314
0.641230 0.363592 0.071382
0.667201 0.371038 0.075044
0.683192 0.376684 0.079683
0.697383 0.378851 0.084474
0.714046 0.374640 0.083742
0.727779 0.366674 0.084291
0.738155 0.358953 0.086732
0.146822 0.239658 0.047181
0.211826 0.261875 0.047700
0.284855 0.286870 0.048798
0.364523 0.314031 0.052369
0.440208 0.339757 0.056733
0.495537 0.356329 0.059388
0.541176 0.367376 0.064118
0.588403 0.380224 0.067323
0.619287 0.391943 0.072297
0.650416 0.405219 0.077577
0.678340 0.412329 0.080720
0.700984 0.418494 0.086000
0.718959 0.424201 0.088777
0.734188 0.429389 0.093507
0.747127 0.421973 0.092897
0.757656 0.411383 0.094453
0.767727 0.401892 0.094484
0.189914 0.294865 0.045411
0.262608 0.318456 0.047425
0.337011 0.343145 0.049836
0.412146 0.368750 0.054597
0.485451 0.393439 0.060670
0.546654 0.413764 0.066011
0.592981 0.425910 0.070954
0.635248 0.436103 0.075441
0.660914 0.441169 0.080659
0.684169 0.446143 0.085725
0.712551 0.456580 0.089387
0.734615 0.463508 0.095583
0.751247 0.466651 0.097108
0.764431 0.466072 0.100710
0.775906 0.462989 0.101381
0.785733 0.453681 0.104189
0.796231 0.443671 0.103304
0.235843 0.342779 0.047761
0.308080 0.365545 0.050874
0.378820 0.387915 0.053956
0.447425 0.409827 0.060609
0.516350 0.431952 0.067018
0.573327 0.449928 0.075196
0.622766 0.464973 0.081483
0.662348 0.473732 0.085664
0.692653 0.479561 0.089570
0.716793 0.485115 0.094240
0.742855 0.493843 0.097200
0.763241 0.500114 0.103090
0.778256 0.500908 0.104097
0.791196 0.500206 0.107668
0.802029 0.496559 0.108309
0.814511 0.492561 0.111940
0.820127 0.479500 0.109834
0.283024 0.384985 0.052735
0.349004 0.405432 0.056519
0.415747 0.425788 0.061555
0.478584 0.445014 0.067811
0.539666 0.464149 0.074800
0.594965 0.481422 0.082612
0.645869 0.497414 0.090639
0.686671 0.507317 0.095216
0.718318 0.513542 0.099001
0.743954 0.518303 0.102693
0.767056 0.522698 0.105348
0.785977 0.526848 0.110750
0.799191 0.527672 0.111238
0.813016 0.529229 0.114809
0.824582 0.526360 0.115206
0.834043 0.519860 0.116945
0.839384 0.509422 0.114046
0.323980 0.420050 0.056489
0.385962 0.438483 0.061311
0.448310 0.456855 0.067018
0.508080 0.474311 0.072694
0.561425 0.489693 0.079805
0.615198 0.505760 0.086885
0.663264 0.520317 0.094728
0.707454 0.533196 0.101717
0.742733 0.541253 0.105806
0.766751 0.545495 0.109529
0.789700 0.549432 0.113191
0.808164 0.553094 0.118441
0.820829 0.553246 0.118746
0.830747 0.552728 0.121248
0.838529 0.549187 0.121675
0.847654 0.542779 0.123995
0.854826 0.532616 0.120424
0.360784 0.450507 0.059510
0.420081 0.467109 0.065522
0.478035 0.483589 0.071229
0.532677 0.499001 0.077394
0.583459 0.513573 0.084901
0.633631 0.528405 0.092348
0.678767 0.542168 0.100832
0.722286 0.555413 0.109071
0.761166 0.566186 0.115023
0.785428 0.570764 0.118837
0.807919 0.574639 0.122408
0.829587 0.578393 0.125887
0.839719 0.576257 0.124819
0.847990 0.574151 0.126497
0.854612 0.570428 0.127138
0.860899 0.565118 0.130861
0.868711 0.555169 0.126894
0.384253 0.473213 0.063813
0.441993 0.489357 0.069673
0.498329 0.505089 0.075776
0.550896 0.519371 0.083009
0.599451 0.532708 0.089174
0.647089 0.546319 0.096223
0.691066 0.559167 0.103456
0.732906 0.571313 0.110323
0.769924 0.582605 0.116915
0.798856 0.590417 0.122255
0.820829 0.594202 0.125765
0.839811 0.596277 0.128237
0.856352 0.597253 0.130068
0.865049 0.595331 0.131685
0.871733 0.591669 0.132326
0.877317 0.587457 0.136751
0.881376 0.578363 0.133791
0.399756 0.489937 0.065095
0.454109 0.504814 0.070649
0.513420 0.521416 0.078218
0.565637 0.535576 0.085298
0.612390 0.548302 0.091890
0.658625 0.561944 0.100008
0.701259 0.574304 0.107668
0.740658 0.586053 0.114778
0.775540 0.596857 0.121370
0.807614 0.606683 0.127657
0.831418 0.612055 0.131868
0.848630 0.613153 0.133730
0.865660 0.614221 0.135592
0.878416 0.614557 0.137270
0.886351 0.612116 0.137819
0.892546 0.609674 0.141604
0.896605 0.603265 0.139345
0.417975 0.507378 0.068666
0.470588 0.521172 0.074830
0.529900 0.537774 0.082795
0.581201 0.551904 0.089815
0.625360 0.564263 0.096986
0.670710 0.577508 0.104768
0.712886 0.589654 0.112123
0.748775 0.600092 0.118746
0.783078 0.610529 0.125002
0.816342 0.620661 0.131106
0.840116 0.628168 0.136172
0.859281 0.631647 0.139193
0.876341 0.632715 0.141054
0.889982 0.633143 0.142672
0.897124 0.632227 0.143740
0.903593 0.630365 0.147677
0.908080 0.624537 0.145541
0.419837 0.519432 0.069947
0.479774 0.534905 0.077302
0.537591 0.550835 0.084901
0.591241 0.565759 0.092500
0.639704 0.579278 0.100587
0.683742 0.592248 0.108309
0.724147 0.604486 0.116365
0.757809 0.614313 0.123232
0.790890 0.624262 0.129946
0.822446 0.634546 0.136812
0.845701 0.642603 0.142794
0.867460 0.650019 0.148226
0.886595 0.653834 0.151644
0.900175 0.653925 0.151858
0.907530 0.653010 0.152926
0.915221 0.652033 0.154086
0.919707 0.647272 0.152163
0.425727 0.533684 0.073304
0.484047 0.548760 0.080446
0.539696 0.563195 0.087312
0.598321 0.579583 0.096712
0.645106 0.592401 0.104463
0.691707 0.606348 0.112459
0.731716 0.619410 0.122530
0.764401 0.628565 0.128054
0.795987 0.637415 0.133394
0.823911 0.646754 0.138827
0.848234 0.655024 0.143954
0.869230 0.661799 0.147799
0.889677 0.669398 0.152102
0.907378 0.675380 0.156283
0.915099 0.674464 0.157351
0.922789 0.673579 0.158480
0.928801 0.673793 0.159060
0.033814 0.040101 0.049439
0.045014 0.041993 0.056794
0.079377 0.047272 0.058137
0.122042 0.052888 0.060090
0.170169 0.055726 0.064210
0.208591 0.059541 0.062196
0.237461 0.058473 0.061097
0.268254 0.057679 0.064363
0.298344 0.058625 0.061707
0.322118 0.060395 0.063722
0.346288 0.058778 0.064332
0.368963 0.057923 0.068269
0.394171 0.062623 0.068696
0.418891 0.066896 0.072267
0.441444 0.064485 0.071870
0.463172 0.061707 0.076600
0.486030 0.063508 0.075593
0.034089 0.051484 0.054749
0.054444 0.058015 0.061219
0.097810 0.068116 0.063783
0.145571 0.075502 0.065370
0.193057 0.080171 0.066072
0.241733 0.087434 0.066224
0.279698 0.091096 0.069520
0.310765 0.093019 0.070985
0.343053 0.094972 0.067628
0.374182 0.100374 0.071626
0.401251 0.107240 0.079286
0.427344 0.110811 0.082673
0.453315 0.117556 0.082673
0.478676 0.123629 0.088228
0.500053 0.119966 0.092683
0.523857 0.121065 0.096101
0.545617 0.116335 0.091676
0.040375 0.070375 0.056916
0.066743 0.083955 0.064332
0.118624 0.098360 0.065156
0.169924 0.109621 0.066896
0.231937 0.123140 0.066987
0.286412 0.133425 0.066529
0.327672 0.134646 0.070222
0.374853 0.147799 0.072633
0.410986 0.157656 0.069215
0.440223 0.161288 0.073182
0.465370 0.166445 0.081605
0.490028 0.175937 0.085725
0.513756 0.183871 0.085542
0.537621 0.188296 0.091005
0.557336 0.183688 0.095705
0.575891 0.181643 0.100587
0.597162 0.179934 0.096101
0.051392 0.101564 0.060945
0.089967 0.123995 0.066835
0.141299 0.139315 0.067567
0.210727 0.161074 0.070069
0.269444 0.172793 0.070954
0.328771 0.184268 0.071748
0.383703 0.199374 0.072938
0.431373 0.211887 0.075044
0.471382 0.218082 0.070802
0.504845 0.230533 0.076081
0.529961 0.242313 0.085481
0.552636 0.249485 0.089479
0.573754 0.252842 0.088899
0.593256 0.256352 0.096132
0.611414 0.257481 0.103090
0.628412 0.253300 0.107759
0.646723 0.242618 0.100954
0.066285 0.146456 0.068757
0.120302 0.170077 0.069093
0.184115 0.190677 0.069429
0.255436 0.215854 0.071077
0.324193 0.236027 0.072297
0.380377 0.248386 0.075166
0.432563 0.260288 0.075319
0.477211 0.272801 0.079286
0.520348 0.285740 0.077028
0.554711 0.296544 0.081209
0.580499 0.307622 0.090822
0.602167 0.314580 0.095399
0.621576 0.317052 0.094148
0.640284 0.321141 0.102296
0.658381 0.321141 0.108614
0.674952 0.315953 0.113130
0.688014 0.301732 0.106020
0.101350 0.197971 0.066896
0.162661 0.225040 0.068818
0.229038 0.245426 0.069337
0.299413 0.270848 0.071595
0.373846 0.296178 0.074617
0.436835 0.313817 0.076081
0.481453 0.321569 0.078431
0.523796 0.333928 0.083955
0.565240 0.348577 0.084016
0.599481 0.358343 0.087221
0.623041 0.365454 0.096132
0.643091 0.371618 0.101381
0.662501 0.375525 0.100862
0.680140 0.378637 0.109834
0.696376 0.376745 0.114870
0.708797 0.366705 0.117159
0.721157 0.353307 0.110079
0.139956 0.250187 0.065980
0.211795 0.280247 0.068727
0.277104 0.300389 0.069429
0.345190 0.324926 0.073091
0.416236 0.349615 0.077241
0.481331 0.370184 0.080201
0.532250 0.383001 0.083314
0.569787 0.391394 0.088441
0.605768 0.401862 0.090181
0.638514 0.411841 0.093843
0.659937 0.418097 0.102235
0.680476 0.423224 0.106905
0.699580 0.427283 0.107424
0.713130 0.427771 0.116457
0.724666 0.422217 0.119905
0.736568 0.411719 0.122713
0.750088 0.401831 0.116091
0.175448 0.303166 0.073060
0.254398 0.330877 0.073823
0.323491 0.352758 0.076875
0.388067 0.374670 0.080781
0.456397 0.397681 0.085847
0.517510 0.416632 0.089754
0.571862 0.431983 0.092683
0.611475 0.440711 0.096864
0.642512 0.444953 0.098573
0.668544 0.451148 0.104799
0.693233 0.461280 0.110597
0.713283 0.466835 0.115297
0.727108 0.465766 0.117586
0.741878 0.465522 0.124636
0.751949 0.463081 0.126772
0.763607 0.453925 0.130098
0.775357 0.442573 0.122530
0.219181 0.348821 0.072786
0.301091 0.374914 0.070863
0.367163 0.394873 0.076326
0.429633 0.414984 0.080781
0.490578 0.435370 0.086397
0.547295 0.453407 0.094331
0.604120 0.471138 0.098726
0.642664 0.479652 0.103059
0.678248 0.486854 0.106783
0.703304 0.491920 0.112764
0.721675 0.495491 0.117403
0.739773 0.499306 0.121981
0.753780 0.500206 0.126253
0.768277 0.499763 0.133669
0.779568 0.496406 0.133364
0.787533 0.490089 0.137667
0.794736 0.473640 0.127962
0.268132 0.389013 0.067842
0.339605 0.414313 0.076936
0.403693 0.433570 0.082551
0.464302 0.451881 0.088228
0.520500 0.469978 0.095979
0.574792 0.486427 0.102296
0.625666 0.502190 0.108980
0.668238 0.513603 0.113161
0.702907 0.520623 0.116793
0.733486 0.525841 0.118563
0.750362 0.527306 0.122621
0.764675 0.528588 0.127535
0.777951 0.529931 0.133303
0.793149 0.532128 0.142306
0.801297 0.524834 0.137057
0.807950 0.517174 0.140414
0.815518 0.503075 0.131472
0.302800 0.421759 0.070954
0.373510 0.443519 0.075929
0.435187 0.461952 0.081392
0.491157 0.478950 0.089082
0.544793 0.495796 0.097536
0.595911 0.511284 0.105074
0.642603 0.526085 0.113985
0.685512 0.538811 0.121431
0.720760 0.547051 0.125185
0.749935 0.551751 0.126528
0.775540 0.555962 0.128817
0.790829 0.557885 0.132906
0.802731 0.557794 0.137331
0.811978 0.556512 0.146487
0.821103 0.551080 0.139925
0.827604 0.543297 0.143099
0.834775 0.530877 0.135286
0.329046 0.449775 0.078492
0.404761 0.471229 0.083986
0.460487 0.487373 0.090547
0.513451 0.503532 0.099092
0.564141 0.519036 0.107118
0.610925 0.533074 0.114778
0.656062 0.546777 0.122286
0.699031 0.559625 0.129335
0.734157 0.568872 0.133394
0.764126 0.574487 0.134859
0.790768 0.578790 0.136507
0.809659 0.580835 0.138979
0.820462 0.579675 0.142336
0.830442 0.578912 0.150637
0.837980 0.574029 0.145327
0.845518 0.568322 0.146975
0.852903 0.557000 0.140108
0.353155 0.472450 0.082399
0.417853 0.488045 0.083131
0.477882 0.504845 0.091005
0.530083 0.520653 0.099275
0.578943 0.535363 0.106996
0.624903 0.548882 0.114504
0.668391 0.562249 0.122713
0.708431 0.574853 0.131044
0.743435 0.585870 0.138277
0.775479 0.594141 0.142733
0.802518 0.598535 0.143954
0.820493 0.599756 0.145663
0.837461 0.600824 0.147494
0.847593 0.600214 0.155856
0.855222 0.595483 0.150576
0.860868 0.591119 0.152438
0.865415 0.580896 0.147829
0.365637 0.487587 0.079286
0.428595 0.504540 0.088930
0.487617 0.521050 0.096834
0.541955 0.536767 0.104616
0.590723 0.551843 0.115236
0.635126 0.565087 0.123445
0.678065 0.578058 0.131533
0.715938 0.591089 0.141695
0.749874 0.601831 0.148745
0.783230 0.612177 0.154757
0.811368 0.618524 0.156527
0.830839 0.620142 0.157687
0.847929 0.621210 0.159579
0.864591 0.622065 0.160922
0.871489 0.618311 0.155123
0.877348 0.614710 0.157015
0.880705 0.606439 0.153628
0.374945 0.502312 0.079316
0.433600 0.518059 0.087251
0.491157 0.534173 0.094942
0.549310 0.550500 0.103456
0.600977 0.566155 0.114534
0.643549 0.578271 0.120790
0.684443 0.590936 0.128420
0.722805 0.603998 0.137881
0.756466 0.614435 0.143282
0.788083 0.624598 0.148623
0.816861 0.635065 0.155184
0.840757 0.640864 0.158419
0.858000 0.641932 0.160311
0.872984 0.642206 0.160189
0.888304 0.642390 0.159792
0.894560 0.639307 0.161776
0.898497 0.631861 0.158541
0.369390 0.511467 0.071412
0.433600 0.529198 0.078004
0.489937 0.544915 0.085542
0.551324 0.562158 0.095552
0.610010 0.578607 0.105135
0.651270 0.590295 0.112215
0.691005 0.603937 0.123720
0.729335 0.617182 0.134981
0.763302 0.627955 0.142794
0.792660 0.638483 0.150484
0.821103 0.649073 0.158419
0.848600 0.659052 0.165591
0.867094 0.663417 0.168154
0.882109 0.663600 0.167727
0.897765 0.663752 0.167300
0.908049 0.663233 0.167941
0.910735 0.658442 0.165072
0.376684 0.525963 0.074739
0.433082 0.540795 0.079255
0.495125 0.557366 0.087404
0.555413 0.574304 0.097261
0.612757 0.590417 0.106600
0.658320 0.603357 0.114473
0.697383 0.616236 0.124422
0.734646 0.628687 0.134188
0.766934 0.639277 0.141451
0.793393 0.648707 0.146761
0.820920 0.658564 0.152956
0.849088 0.668788 0.160281
0.868772 0.677760 0.166690
0.887694 0.685206 0.171969
0.903899 0.685389 0.171511
0.913970 0.685878 0.171633
0.920226 0.686091 0.172244
0.031525 0.040589 0.065919
0.041535 0.041840 0.074037
0.063081 0.045319 0.084443
0.101595 0.050324 0.089662
0.146120 0.053498 0.091646
0.187137 0.057923 0.095460
0.226505 0.058595 0.094972
0.260410 0.058167 0.095186
0.291508 0.059052 0.092073
0.320836 0.060548 0.093294
0.346929 0.058625 0.093538
0.369574 0.057771 0.096895
0.394751 0.062470 0.096559
0.417517 0.066102 0.101808
0.438727 0.064363 0.102510
0.460548 0.061585 0.106508
0.483619 0.063416 0.103792
0.031769 0.052644 0.071748
0.051911 0.060945 0.082460
0.077424 0.063874 0.093385
0.125032 0.070802 0.093721
0.172183 0.076326 0.097078
0.219455 0.080110 0.098634
0.259495 0.083925 0.096468
0.293156 0.084993 0.096101
0.322148 0.080781 0.096803
0.352453 0.084779 0.097810
0.381933 0.091890 0.098665
0.406409 0.094057 0.101137
0.427863 0.091432 0.105318
0.452033 0.095766 0.109224
0.475868 0.098970 0.109316
0.498817 0.099458 0.110353
0.518822 0.088441 0.106325
0.033814 0.075593 0.082551
0.055909 0.089998 0.095460
0.097353 0.099214 0.101472
0.151034 0.114687 0.108614
0.202060 0.121767 0.110323
0.248447 0.126101 0.110903
0.297063 0.137026 0.113741
0.338018 0.142336 0.114809
0.371160 0.148257 0.119387
0.402747 0.152132 0.119112
0.434577 0.163272 0.125002
0.462867 0.168276 0.127840
0.487312 0.173556 0.134554
0.511345 0.174685 0.136355
0.535576 0.179599 0.138857
0.560357 0.176608 0.138643
0.583429 0.172641 0.139376
0.042267 0.108522 0.091402
0.079713 0.130007 0.096529
0.126070 0.145144 0.109560
0.191287 0.165621 0.112245
0.247959 0.179416 0.115785
0.307134 0.193790 0.115541
0.357061 0.203128 0.115450
0.396338 0.206577 0.116487
0.433783 0.217227 0.124605
0.467414 0.228092 0.123018
0.497566 0.237278 0.128786
0.524041 0.240146 0.131502
0.544030 0.244541 0.140780
0.565362 0.248753 0.144167
0.588403 0.251621 0.146059
0.611719 0.246708 0.145663
0.631617 0.232853 0.143862
0.056123 0.156649 0.093812
0.099336 0.177157 0.105806
0.164553 0.200168 0.115602
0.229404 0.221317 0.118776
0.300816 0.244999 0.124269
0.356115 0.256962 0.125032
0.407050 0.266423 0.125368
0.451698 0.278965 0.126284
0.490364 0.290288 0.133700
0.524681 0.299870 0.130648
0.555047 0.308171 0.135439
0.578271 0.314366 0.140658
0.595911 0.318059 0.150942
0.615991 0.320500 0.154086
0.638422 0.320745 0.153872
0.658381 0.314672 0.155337
0.673609 0.300938 0.157809
0.080690 0.206882 0.101320
0.133852 0.231144 0.112612
0.208072 0.255253 0.118532
0.273869 0.276493 0.122194
0.346532 0.302678 0.126680
0.407843 0.320531 0.129641
0.453101 0.327977 0.134951
0.498665 0.340307 0.133944
0.536492 0.353216 0.140902
0.567468 0.359625 0.138918
0.596216 0.366674 0.144961
0.620417 0.374304 0.149538
0.639490 0.380804 0.159487
0.658625 0.380591 0.160616
0.675380 0.376318 0.161227
0.695186 0.372808 0.163973
0.710475 0.359716 0.166751
0.113954 0.257328 0.106142
0.185061 0.286320 0.109834
0.255894 0.309209 0.119753
0.316716 0.328405 0.123598
0.384283 0.353033 0.129030
0.450446 0.375494 0.135683
0.503227 0.389044 0.137881
0.541009 0.395087 0.140261
0.575921 0.403296 0.148287
0.604669 0.411872 0.146609
0.632044 0.419074 0.153841
0.657069 0.425605 0.156466
0.673945 0.427588 0.165347
0.687617 0.425788 0.166476
0.703334 0.421515 0.167910
0.723262 0.417945 0.170382
0.741115 0.407355 0.170504
0.157443 0.310155 0.104372
0.229801 0.336004 0.111971
0.301762 0.357916 0.122438
0.360815 0.376532 0.126162
0.419898 0.397436 0.133639
0.482216 0.418524 0.140200
0.537926 0.435340 0.142977
0.585107 0.447456 0.145998
0.615351 0.451789 0.154726
0.640040 0.457496 0.155428
0.666957 0.465614 0.160708
0.686488 0.468116 0.165103
0.704616 0.468574 0.170809
0.718166 0.466712 0.172335
0.730343 0.463813 0.174380
0.748867 0.459663 0.176333
0.761501 0.443793 0.174960
0.198978 0.354803 0.105898
0.266087 0.376715 0.118685
0.344854 0.401526 0.126101
0.402350 0.419348 0.131350
0.456367 0.437537 0.140963
0.511406 0.456458 0.149966
0.565454 0.473396 0.154452
0.614099 0.487343 0.158267
0.653071 0.496315 0.161532
0.675013 0.498116 0.160678
0.692653 0.499306 0.170535
0.714260 0.503899 0.172274
0.733516 0.507103 0.176394
0.745083 0.505058 0.180117
0.756466 0.499763 0.181003
0.765957 0.491646 0.180423
0.778866 0.476051 0.178775
0.235752 0.391546 0.113039
0.303624 0.415564 0.125429
0.379980 0.435370 0.126833
0.434852 0.452094 0.134981
0.486000 0.468360 0.143496
0.537926 0.485847 0.151431
0.586053 0.500969 0.158114
0.635554 0.515892 0.161990
0.674495 0.525261 0.164584
0.703731 0.529961 0.165927
0.720638 0.530327 0.175631
0.738308 0.532586 0.179446
0.757748 0.536583 0.183078
0.767361 0.534020 0.184878
0.777249 0.527306 0.185702
0.788052 0.518822 0.181979
0.797726 0.507042 0.184634
0.268193 0.422400 0.110475
0.338964 0.444587 0.120577
0.408881 0.463539 0.130861
0.461646 0.479622 0.139345
0.511315 0.494942 0.147585
0.560479 0.511559 0.159060
0.606165 0.526177 0.167666
0.651881 0.540520 0.174380
0.691585 0.551354 0.178012
0.720150 0.555962 0.179294
0.747707 0.560388 0.180575
0.763577 0.560998 0.183536
0.776944 0.560754 0.186862
0.786130 0.558068 0.188754
0.797330 0.553796 0.190127
0.808286 0.545769 0.187076
0.817441 0.536217 0.190036
0.297551 0.449439 0.102846
0.369482 0.470771 0.118929
0.431586 0.487343 0.133425
0.482948 0.502983 0.141695
0.532769 0.518456 0.151095
0.580072 0.533898 0.162814
0.623743 0.547448 0.169619
0.664942 0.560998 0.177829
0.704067 0.573205 0.183566
0.734462 0.579553 0.185122
0.760891 0.583429 0.185977
0.785092 0.586053 0.185824
0.798215 0.585473 0.189120
0.806943 0.582330 0.190951
0.816312 0.578546 0.195163
0.827970 0.572320 0.191531
0.835599 0.562097 0.191836
0.322667 0.471992 0.102541
0.384894 0.488624 0.112642
0.447608 0.505180 0.127565
0.497719 0.520470 0.135622
0.547814 0.536522 0.147768
0.596765 0.552819 0.159579
0.639246 0.566033 0.166232
0.677485 0.579431 0.176059
0.714473 0.592432 0.186526
0.746212 0.600793 0.191196
0.772213 0.604669 0.191867
0.796139 0.607263 0.191714
0.818601 0.609522 0.192020
0.828275 0.607202 0.193301
0.835935 0.603113 0.197665
0.845426 0.597650 0.195438
0.854215 0.588647 0.193668
0.333135 0.488014 0.107179
0.396155 0.505241 0.118807
0.458869 0.521935 0.130709
0.511589 0.537835 0.140871
0.561028 0.553735 0.153201
0.608728 0.569329 0.164828
0.648707 0.581933 0.172457
0.685542 0.594507 0.181125
0.721431 0.606744 0.189517
0.753780 0.617731 0.196323
0.781216 0.624262 0.198215
0.805631 0.627283 0.198093
0.829557 0.629847 0.198001
0.844572 0.630121 0.197848
0.852689 0.626917 0.201968
0.862821 0.622156 0.199619
0.871580 0.614893 0.197269
0.342321 0.503044 0.109316
0.401984 0.518761 0.116365
0.458473 0.532891 0.122377
0.519829 0.550134 0.132387
0.569574 0.565759 0.144015
0.615717 0.580652 0.155764
0.655512 0.594385 0.167758
0.692592 0.607141 0.177768
0.727413 0.619226 0.186892
0.758175 0.630426 0.196414
0.786831 0.640894 0.203861
0.814206 0.648188 0.207706
0.838010 0.650904 0.207553
0.854246 0.651423 0.207156
0.869963 0.651606 0.206729
0.880644 0.647639 0.204532
0.888792 0.642542 0.203555
0.333806 0.510307 0.094453
0.401526 0.529351 0.104738
0.458442 0.545983 0.119600
0.518273 0.562799 0.129366
0.575555 0.578882 0.138705
0.621118 0.593927 0.154849
0.660304 0.607355 0.166842
0.697444 0.620172 0.176791
0.732143 0.632410 0.186099
0.762692 0.643641 0.194858
0.790585 0.653834 0.200412
0.819120 0.664332 0.206332
0.846433 0.673793 0.213443
0.864134 0.674647 0.213077
0.880369 0.674830 0.212619
0.897398 0.676753 0.211856
0.905425 0.673396 0.211826
0.330846 0.519066 0.077790
0.394202 0.537652 0.088960
0.455238 0.555627 0.096529
0.513848 0.572106 0.106081
0.570031 0.588251 0.116915
0.625299 0.605035 0.131594
0.665217 0.618097 0.141634
0.701625 0.630426 0.149599
0.733883 0.643427 0.167391
0.765011 0.656031 0.184390
0.792264 0.665980 0.191440
0.820096 0.676936 0.201022
0.849058 0.688960 0.212802
0.872404 0.698451 0.220829
0.889464 0.700282 0.220829
0.907073 0.702846 0.219913
0.918517 0.704067 0.219913
0.032166 0.042664 0.086702
0.037110 0.042481 0.094514
0.059693 0.045686 0.108461
0.087831 0.048646 0.116762
0.130739 0.050965 0.123262
0.175357 0.055940 0.128389
0.215579 0.056703 0.128359
0.252842 0.056672 0.129427
0.288457 0.058015 0.129885
0.317418 0.059663 0.130282
0.344091 0.057893 0.128206
0.368933 0.057160 0.128298
0.392828 0.061158 0.133333
0.415137 0.064729 0.137606
