assets/luts/impulz-kodak-ektar-100-fc-rec709-8eb9f0d8.cube
# (C) 2014 VisionColor & Patchflyer [www.vision-color.com]
# Generator: VC Patchmatch v.2.1.1 [64/53]
# All work and no play makes Jack a dull boy.
# LUT generated from: Kodak Ektar 100_FC
LUT_3D_SIZE 9
0.040436 0.024323 0.029633
0.128054 0.041108 0.041810
0.241581 0.053834 0.051118
0.366033 0.069429 0.058595
0.474891 0.084688 0.064179
0.563287 0.098604 0.070069
0.636744 0.119173 0.077516
0.698451 0.132570 0.084657
0.757473 0.146761 0.093080
0.058045 0.122011 0.060945
0.101442 0.128481 0.049561
0.190951 0.146700 0.050050
0.305608 0.170413 0.054444
0.416999 0.198581 0.061158
0.509911 0.221286 0.069490
0.590600 0.248020 0.079377
0.659571 0.266850 0.088472
0.721889 0.272587 0.096620
0.062928 0.243809 0.081117
0.093385 0.248814 0.067872
0.153017 0.247013 0.053559
0.245487 0.252995 0.058808
0.359533 0.283604 0.063905
0.472328 0.322637 0.074189
0.560174 0.351629 0.084627
0.640772 0.377264 0.096895
0.708339 0.385412 0.108095
0.066163 0.350103 0.098512
0.099214 0.364752 0.092439
0.150515 0.376471 0.086641
0.221714 0.371008 0.073945
0.318975 0.375097 0.075959
0.421363 0.396857 0.081270
0.518822 0.423102 0.090517
0.605676 0.439490 0.100801
0.687587 0.443519 0.111208
0.069978 0.450080 0.123507
0.096529 0.472847 0.121614
0.141054 0.490639 0.123781
0.213931 0.497169 0.124666
0.284062 0.478737 0.103182
0.381628 0.480201 0.104768
0.474556 0.484932 0.103914
0.565942 0.490730 0.112642
0.652216 0.477485 0.113039
0.076631 0.530632 0.158389
0.097414 0.551995 0.158236
0.134035 0.577020 0.169192
0.205081 0.589837 0.181827
0.279576 0.586542 0.176059
0.347295 0.563256 0.146365
0.440284 0.556207 0.140108
0.529961 0.541772 0.131258
0.623682 0.517784 0.124392
0.085115 0.603143 0.197971
0.099214 0.619379 0.197147
0.134707 0.639704 0.211185
0.200931 0.659144 0.239078
0.288823 0.674006 0.260716
0.363592 0.661830 0.244450
0.431586 0.643732 0.211246
0.522240 0.624811 0.199527
0.602106 0.581384 0.157198
0.100984 0.661952 0.244633
0.113924 0.670314 0.244388
0.146212 0.684321 0.264042
0.206271 0.707057 0.305425
0.302098 0.728878 0.344884
0.397955 0.742794 0.356847
0.472267 0.731350 0.328496
0.547570 0.715908 0.293553
0.627436 0.680049 0.249241
0.133577 0.721401 0.312352
0.135012 0.721523 0.303716
0.168765 0.731319 0.330938
0.231785 0.752499 0.381415
0.316899 0.777279 0.440589
0.423590 0.800046 0.476509
0.522576 0.810849 0.474250
0.608118 0.805844 0.448432
0.687160 0.793057 0.404059
0.051637 0.028077 0.086458
0.108431 0.029480 0.082429
0.205112 0.040436 0.094820
0.336400 0.049714 0.104799
0.458534 0.059480 0.105470
0.559350 0.067536 0.105135
0.637781 0.078401 0.105837
0.707240 0.086946 0.101717
0.769223 0.093446 0.104463
0.048829 0.096010 0.113222
0.114473 0.104219 0.111482
0.230655 0.117647 0.112398
0.359014 0.132753 0.115969
0.467201 0.145968 0.119112
0.553948 0.158328 0.119875
0.627131 0.163821 0.116030
0.695949 0.163607 0.110964
0.765927 0.153017 0.107729
0.052461 0.212894 0.141421
0.108980 0.227756 0.141848
0.197696 0.239750 0.131289
0.314946 0.251102 0.125368
0.425635 0.268162 0.126955
0.517815 0.282994 0.128511
0.595758 0.293706 0.128695
0.665217 0.288182 0.121645
0.737697 0.269047 0.117494
0.057649 0.325017 0.162722
0.111452 0.341741 0.163790
0.185122 0.362066 0.164279
0.276646 0.359655 0.151949
0.385229 0.364141 0.150362
0.474556 0.371527 0.141695
0.561242 0.384344 0.141512
0.641352 0.381811 0.134371
0.719722 0.362676 0.126253
0.063142 0.426825 0.187472
0.114870 0.436927 0.189120
0.185061 0.460273 0.198245
0.270024 0.472999 0.200717
0.352605 0.463691 0.185855
0.447181 0.457984 0.180331
0.525841 0.459815 0.159976
0.615076 0.459541 0.154482
0.700557 0.440772 0.139803
0.075929 0.514092 0.227604
0.121187 0.517571 0.225650
0.170413 0.539055 0.233249
0.266606 0.565087 0.260533
0.356451 0.573144 0.265415
0.425422 0.557275 0.238895
0.511589 0.548302 0.226474
0.593652 0.531762 0.191501
0.674861 0.490822 0.153994
0.089693 0.590356 0.271214
0.127932 0.589471 0.271305
0.174258 0.608301 0.281163
0.249424 0.629664 0.305394
0.363470 0.660212 0.348638
0.441901 0.658503 0.338537
0.511040 0.647608 0.313878
0.593500 0.626032 0.277501
0.674830 0.584405 0.218357
0.118013 0.655268 0.324224
0.148836 0.656092 0.327062
0.186679 0.666255 0.340520
0.256321 0.687709 0.374151
0.358862 0.716365 0.421180
0.466072 0.742763 0.453895
0.546807 0.745632 0.447364
0.618067 0.735317 0.412848
0.691981 0.692927 0.327306
0.160067 0.720027 0.395880
0.192538 0.726406 0.405707
0.219760 0.733089 0.419562
0.275486 0.749599 0.452003
0.368383 0.776608 0.507378
0.475227 0.803677 0.554498
0.582330 0.828305 0.586847
0.673121 0.832181 0.573419
0.750851 0.825864 0.533898
0.064271 0.033234 0.182559
0.114839 0.028962 0.153689
0.182162 0.032288 0.152712
0.314458 0.043915 0.169497
0.438239 0.053346 0.172061
0.543267 0.060029 0.169650
0.627131 0.066499 0.163394
0.699977 0.073518 0.150576
0.767636 0.080537 0.131197
0.054994 0.090517 0.219821
0.128206 0.098238 0.212772
0.213535 0.091279 0.196109
0.344732 0.101991 0.195499
0.460822 0.111299 0.193515
0.553796 0.114687 0.182528
0.628351 0.117159 0.170108
0.703304 0.115236 0.146029
0.774899 0.111269 0.123110
0.046448 0.191928 0.226383
0.106081 0.211551 0.234073
0.218936 0.223423 0.235325
0.352483 0.237888 0.235569
0.462837 0.245212 0.231510
0.548882 0.251347 0.227176
0.625147 0.248081 0.212589
0.702235 0.216403 0.167605
0.775601 0.177920 0.134401
0.049287 0.307103 0.239658
0.109926 0.329809 0.244999
0.218723 0.342351 0.259953
0.322087 0.351324 0.258427
0.433967 0.359503 0.252476
0.521813 0.367864 0.244755
0.603052 0.370001 0.232914
0.680537 0.341772 0.190280
0.752468 0.292760 0.151003
0.057252 0.414649 0.261662
0.119997 0.427680 0.267735
0.218326 0.438972 0.281895
0.318700 0.451911 0.290929
0.412085 0.454566 0.288518
0.502647 0.459724 0.280613
0.578729 0.461738 0.259159
0.662776 0.446235 0.225681
0.734737 0.393194 0.171878
0.075654 0.504540 0.297063
0.135805 0.509392 0.304021
0.225681 0.517388 0.312322
0.318334 0.536858 0.331060
0.412634 0.547478 0.337560
0.490364 0.546685 0.333165
0.570764 0.545129 0.319310
0.645411 0.529076 0.264591
0.723598 0.484138 0.196536
0.097353 0.584314 0.343755
0.154299 0.584314 0.348638
0.232059 0.590509 0.355383
0.316716 0.607538 0.373297
0.417609 0.633936 0.404150
0.500999 0.645167 0.415503
0.572808 0.642542 0.404059
0.653071 0.628443 0.359045
0.723110 0.583886 0.262425
0.133089 0.651789 0.394446
0.194217 0.657649 0.409461
0.247135 0.665858 0.417060
0.313054 0.681727 0.438758
0.400504 0.705867 0.466102
0.508568 0.735500 0.507134
0.596979 0.749813 0.518700
0.677333 0.751522 0.503838
0.748898 0.708705 0.390600
0.198001 0.723537 0.469612
0.244907 0.731746 0.487251
0.294163 0.747280 0.505089
0.337224 0.758907 0.524712
0.413581 0.780179 0.555108
0.514916 0.806821 0.606256
0.623987 0.832303 0.643824
0.724269 0.846860 0.659815
0.805203 0.847044 0.632258
0.069062 0.041169 0.330709
0.133669 0.034333 0.266239
0.219669 0.035187 0.241917
0.310460 0.039918 0.231662
0.437201 0.050141 0.235874
0.538994 0.057710 0.231357
0.621454 0.064485 0.223423
0.694179 0.071168 0.205264
0.762081 0.078187 0.170871
0.058564 0.093324 0.371908
0.130648 0.095003 0.349706
0.227756 0.084749 0.298589
0.342992 0.092073 0.279423
0.454902 0.098665 0.276677
0.546929 0.101625 0.262150
0.621210 0.099123 0.241154
0.698177 0.098085 0.207706
0.772519 0.096529 0.160372
0.051637 0.181369 0.343481
0.111360 0.196353 0.357641
0.235264 0.215183 0.343572
0.340764 0.211612 0.322667
0.453315 0.214450 0.316503
0.540307 0.216709 0.303319
0.620935 0.209567 0.278172
0.701106 0.175296 0.223514
0.779507 0.140383 0.161074
0.045777 0.287694 0.329870
0.109682 0.315068 0.345739
0.219089 0.330571 0.351965
0.350408 0.352514 0.363684
0.458351 0.361669 0.362249
0.544579 0.369024 0.359289
0.626093 0.358068 0.337072
0.711330 0.316442 0.278264
0.790982 0.241154 0.187472
0.052125 0.399054 0.341619
0.120729 0.419532 0.352605
0.225071 0.431434 0.364996
0.351354 0.448127 0.381079
0.442603 0.452888 0.380774
0.529595 0.462043 0.378882
0.614374 0.465797 0.363165
0.698970 0.436896 0.307683
0.774624 0.360265 0.213687
0.071412 0.492561 0.365240
0.137911 0.505821 0.373541
0.241611 0.513115 0.385016
0.355810 0.527337 0.400641
0.443183 0.534356 0.404791
0.523552 0.542565 0.407630
0.606195 0.548760 0.395697
0.692988 0.537835 0.351446
0.767117 0.482307 0.253880
0.097871 0.577874 0.405768
0.168307 0.582330 0.416815
0.257389 0.588495 0.422278
0.359167 0.602960 0.439704
0.450416 0.621759 0.459052
0.533318 0.636896 0.467994
0.609674 0.643488 0.471321
0.693446 0.635523 0.426215
0.769894 0.592889 0.317266
0.141939 0.650965 0.454780
0.219211 0.658747 0.470436
0.298405 0.672511 0.483040
0.370214 0.688960 0.497902
0.451545 0.705196 0.516655
0.541009 0.730831 0.543328
0.634272 0.751614 0.567224
0.719844 0.758694 0.565393
0.794400 0.726528 0.444007
0.218448 0.727077 0.525933
0.294041 0.740139 0.550256
0.358679 0.759304 0.573022
0.410010 0.781857 0.595178
0.477333 0.797299 0.616114
0.549157 0.817502 0.643519
0.655940 0.842588 0.684901
0.764309 0.860105 0.711116
0.850278 0.865812 0.702022
0.068208 0.043214 0.512856
0.134554 0.037201 0.417746
0.236759 0.037476 0.352728
0.350134 0.041810 0.316533
0.444404 0.048005 0.293889
0.543664 0.056489 0.289158
0.621271 0.064546 0.283970
0.692775 0.072084 0.257939
0.760891 0.078981 0.210361
0.059632 0.086091 0.542107
0.126436 0.085420 0.493858
0.227146 0.079011 0.423957
0.356298 0.085695 0.376806
0.460609 0.092409 0.352789
0.546441 0.095277 0.337438
0.618708 0.098787 0.315526
0.693324 0.098054 0.268315
0.768063 0.098543 0.206851
0.051972 0.167178 0.484718
0.114229 0.185763 0.485267
0.227756 0.196231 0.454994
0.344854 0.192477 0.419593
0.448615 0.199313 0.398688
0.533806 0.200198 0.388556
0.611414 0.196078 0.360800
0.695521 0.161685 0.298161
0.777554 0.132082 0.207980
0.048219 0.269993 0.440009
0.115877 0.291691 0.451820
0.223636 0.313726 0.448798
0.355779 0.338201 0.453223
0.452613 0.343267 0.441474
0.538354 0.346319 0.433478
0.619440 0.334997 0.409873
0.709224 0.289006 0.336507
0.793759 0.214176 0.215030
0.047517 0.377020 0.418860
0.121126 0.404181 0.434730
0.224948 0.421790 0.443702
0.350988 0.441474 0.453437
0.465675 0.465980 0.474159
0.550225 0.470253 0.469886
0.634363 0.467628 0.457969
0.730282 0.429541 0.398367
0.804440 0.330205 0.250523
0.065431 0.475593 0.432441
0.134310 0.496925 0.445563
0.242466 0.508476 0.454810
0.358160 0.521935 0.468086
0.465339 0.542260 0.486549
0.544366 0.550835 0.488319
0.630182 0.556756 0.481361
0.728847 0.541466 0.436133
0.799832 0.474327 0.298619
0.088624 0.565759 0.456641
0.160769 0.576623 0.465980
0.266850 0.588190 0.479133
0.377661 0.604059 0.494606
0.467811 0.619654 0.502403
0.546471 0.632441 0.510338
0.630579 0.645167 0.517754
0.731167 0.650233 0.497810
0.808774 0.612696 0.375219
0.131044 0.642512 0.496193
0.215946 0.655970 0.516289
0.316045 0.675135 0.536980
0.399847 0.692958 0.549279
0.479957 0.716701 0.564752
0.560693 0.734615 0.579583
0.652399 0.759304 0.597681
0.749142 0.770382 0.606073
0.828275 0.747494 0.499733
0.209323 0.725490 0.559930
0.302068 0.743526 0.591180
0.400275 0.768185 0.623133
0.458442 0.790463 0.646204
0.521141 0.818143 0.669459
0.588983 0.832517 0.686702
0.681422 0.853147 0.717983
0.797818 0.873777 0.756558
0.875334 0.880430 0.753689
0.067506 0.046754 0.670954
0.125612 0.040589 0.568399
0.236789 0.041016 0.473106
0.358160 0.043946 0.410254
0.467536 0.049989 0.373724
0.548516 0.055665 0.347814
0.625422 0.064271 0.339513
0.691524 0.073274 0.320073
0.757900 0.080568 0.260044
0.062348 0.080751 0.683848
0.111086 0.082246 0.634089
0.213809 0.070527 0.541756
0.349279 0.078096 0.472267
0.464607 0.087526 0.433051
0.549340 0.091859 0.406714
0.617700 0.095186 0.383886
0.688167 0.099977 0.341497
0.764706 0.101381 0.254948
0.057557 0.147463 0.610483
0.105470 0.154635 0.612284
0.211002 0.175296 0.554376
0.324727 0.165011 0.507897
0.446845 0.179110 0.477729
0.531518 0.187015 0.456092
0.606836 0.186404 0.430579
0.690547 0.166384 0.376318
0.772274 0.138949 0.272007
0.054139 0.249973 0.547433
0.117556 0.273930 0.548074
0.218112 0.292760 0.535821
0.354711 0.323964 0.530571
0.449439 0.322866 0.513756
0.533745 0.335042 0.502068
0.613581 0.323644 0.485115
0.702663 0.284672 0.424445
0.791897 0.210605 0.299626
0.055970 0.355901 0.508110
0.126192 0.377218 0.520897
0.227573 0.396719 0.526848
0.354070 0.427527 0.528771
0.466773 0.451057 0.544488
0.545769 0.458198 0.537011
0.631006 0.454185 0.527092
0.726802 0.415732 0.473365
0.806729 0.308171 0.314855
0.059541 0.452308 0.494148
0.130556 0.476570 0.509758
0.240116 0.498604 0.517784
0.356481 0.517968 0.529015
0.464881 0.539818 0.546288
0.563043 0.563043 0.567315
0.650813 0.564721 0.561303
0.749844 0.540337 0.515465
0.833066 0.461128 0.371664
0.081117 0.545098 0.511650
0.152712 0.560937 0.524102
0.258488 0.580407 0.534142
0.376287 0.603204 0.553918
0.470069 0.619471 0.560296
0.565789 0.645228 0.581140
0.651392 0.657008 0.586419
0.754452 0.660975 0.562097
0.844236 0.629053 0.453483
0.118166 0.629053 0.532555
0.191684 0.645594 0.549920
0.298253 0.668238 0.571038
0.413764 0.697383 0.599664
0.492683 0.719722 0.610864
0.577935 0.745663 0.626795
0.666896 0.762356 0.639704
0.769314 0.777096 0.651667
0.860288 0.774868 0.575891
0.189700 0.714870 0.589075
0.287602 0.738430 0.620691
0.396460 0.769070 0.654322
0.485298 0.796567 0.685145
0.550317 0.822507 0.708247
0.623529 0.850675 0.734615
0.703761 0.863981 0.753658
0.819638 0.882994 0.788205
0.892363 0.891264 0.793545
0.066926 0.047120 0.788083
0.114778 0.042359 0.707179
0.228275 0.043244 0.593317
0.366033 0.046632 0.503044
0.478370 0.051942 0.451728
0.560357 0.057923 0.424353
0.626703 0.063783 0.402930
0.691249 0.072969 0.385931
0.751858 0.082521 0.337591
0.064607 0.069398 0.802060
0.101625 0.068360 0.747921
0.183536 0.062745 0.664363
0.326085 0.068330 0.561425
0.453223 0.079774 0.507744
0.545495 0.085878 0.475715
0.616754 0.091188 0.450965
0.684260 0.098116 0.413886
0.758297 0.105562 0.342077
0.060853 0.129549 0.730617
0.099947 0.132784 0.716793
0.191287 0.144869 0.653895
0.294530 0.140322 0.593805
0.430350 0.157900 0.549279
0.527977 0.169223 0.522606
0.603418 0.178561 0.498726
0.686030 0.168460 0.459815
0.765896 0.146792 0.362646
0.059663 0.221714 0.656947
0.107851 0.228382 0.653651
0.200717 0.254093 0.636133
0.318761 0.269337 0.608515
0.423606 0.273091 0.582971
0.527550 0.292119 0.569848
0.610468 0.309941 0.552270
0.698573 0.285618 0.512871
0.784634 0.226322 0.397253
0.062196 0.334493 0.592371
0.129732 0.354116 0.598474
0.222263 0.374014 0.600793
0.340002 0.400717 0.604059
0.455436 0.424887 0.617243
0.538872 0.428763 0.609155
0.629084 0.447501 0.602716
0.722896 0.414237 0.570123
0.805020 0.312779 0.437293
0.067140 0.432410 0.573114
0.135958 0.447913 0.581750
0.239322 0.468238 0.592340
0.346258 0.489998 0.602899
0.460548 0.521965 0.618647
0.560662 0.545129 0.641382
0.649439 0.560327 0.640528
0.748775 0.536156 0.614557
0.836637 0.442496 0.486427
0.074281 0.521385 0.565118
0.142794 0.541009 0.575280
0.250278 0.564782 0.586847
0.363684 0.588861 0.601526
0.466255 0.616297 0.621027
0.563897 0.644312 0.645869
0.675227 0.675227 0.675532
0.779690 0.672541 0.665583
0.874754 0.630488 0.569848
0.106600 0.607599 0.579095
0.177310 0.628931 0.598169
0.277256 0.654444 0.613184
0.395697 0.686976 0.640955
0.491798 0.720577 0.665278
0.583185 0.748135 0.680629
0.684779 0.781033 0.700496
0.790097 0.793118 0.706630
0.888731 0.795773 0.663447
0.164340 0.700587 0.617548
0.251652 0.723629 0.643275
0.367468 0.760159 0.679683
0.467933 0.791226 0.714473
0.556085 0.825803 0.745602
0.637690 0.854337 0.770321
0.726131 0.879667 0.792630
0.830198 0.892638 0.807431
0.909209 0.906828 0.828916
0.067933 0.048554 0.863035
0.099886 0.043946 0.810422
0.202640 0.044678 0.702571
0.349981 0.049012 0.601221
0.474647 0.054322 0.538537
0.559838 0.059907 0.504540
0.629999 0.065614 0.482338
0.689021 0.074098 0.462715
0.745266 0.084382 0.425605
0.067201 0.068452 0.866087
0.094881 0.064668 0.830900
0.153292 0.057435 0.769070
0.279057 0.061006 0.671962
0.424811 0.069459 0.593072
0.530877 0.078279 0.550103
0.614588 0.087984 0.519951
0.679927 0.098238 0.496834
0.747738 0.111147 0.443580
0.066773 0.107515 0.828611
0.093263 0.104433 0.818998
0.160861 0.107851 0.759854
0.256413 0.095399 0.702144
0.383276 0.106294 0.634058
0.499001 0.120699 0.595148
0.598962 0.143465 0.568353
0.680812 0.168032 0.546349
0.756344 0.161318 0.480812
0.064607 0.177310 0.754574
0.100252 0.171328 0.757198
0.158450 0.175906 0.739925
0.265293 0.184756 0.703395
0.361563 0.183841 0.661860
0.491737 0.218692 0.642695
0.604059 0.248478 0.620935
0.693111 0.289067 0.607141
0.774319 0.249516 0.532128
0.071931 0.288075 0.693202
0.119539 0.279255 0.702785
0.181613 0.288258 0.709926
0.279850 0.291341 0.699275
0.385000 0.293538 0.696284
0.486000 0.314733 0.684840
0.618616 0.366796 0.676112
0.719539 0.413687 0.663447
0.795102 0.354925 0.593683
0.077119 0.403693 0.641932
0.137881 0.406622 0.655299
0.215610 0.416999 0.670527
0.313024 0.428260 0.688716
0.420600 0.449012 0.704341
0.522881 0.446571 0.719570
0.637751 0.494057 0.716213
0.743221 0.544762 0.713954
0.830228 0.485771 0.656153
0.084840 0.499428 0.629023
0.146120 0.502434 0.643275
0.235904 0.520531 0.658564
0.340642 0.542962 0.679103
0.445441 0.576074 0.708309
0.550744 0.608789 0.735317
0.670741 0.645228 0.762478
0.777035 0.673304 0.767483
0.872587 0.635279 0.716518
0.096773 0.582269 0.625422
0.159609 0.604608 0.636255
0.250187 0.630732 0.655512
0.362341 0.663722 0.679530
0.466621 0.703639 0.711421
0.562829 0.739193 0.742061
0.676204 0.774960 0.773495
0.816831 0.816831 0.813443
0.926574 0.828122 0.814450
0.143648 0.676600 0.648646
0.219455 0.701778 0.673152
0.315099 0.737850 0.701198
0.428199 0.777462 0.738430
0.536492 0.822019 0.777554
0.632807 0.856596 0.805417
0.735531 0.883574 0.832395
0.851530 0.920439 0.858701
0.933989 0.933959 0.872648
0.066529 0.049531 0.905791
0.099641 0.044495 0.868009
0.174990 0.044770 0.800656
0.312810 0.048737 0.700648
0.443946 0.054475 0.637415
0.550042 0.060365 0.592462
0.622217 0.066743 0.567010
0.683436 0.075868 0.546715
0.736385 0.087739 0.526909
0.065949 0.060639 0.912810
0.087373 0.056489 0.894591
0.136080 0.052491 0.849454
0.230167 0.053956 0.773373
0.370687 0.061372 0.694118
0.504448 0.070253 0.638453
0.606256 0.084352 0.603723
0.674525 0.098817 0.581231
0.735317 0.119783 0.561120
0.065888 0.085237 0.900053
0.085389 0.078676 0.898100
0.132601 0.076265 0.865110
0.196506 0.070375 0.813687
0.308537 0.077272 0.750179
0.451835 0.087434 0.686061
0.575799 0.107576 0.646448
0.676570 0.143404 0.622278
0.743313 0.198520 0.616358
0.066896 0.134035 0.861723
0.088716 0.115389 0.875883
0.133028 0.103456 0.866392
0.199527 0.096712 0.824826
0.279393 0.097017 0.778988
0.418296 0.120821 0.728878
0.564080 0.157198 0.689906
0.685817 0.217746 0.672084
0.762661 0.302983 0.675624
0.068849 0.205570 0.799893
0.100160 0.179355 0.820920
0.145083 0.172519 0.831357
0.207065 0.155642 0.817533
0.292622 0.135897 0.796902
0.400641 0.142763 0.757382
0.564599 0.198978 0.724697
0.706355 0.311772 0.720974
0.787442 0.422156 0.728603
0.076997 0.313115 0.752773
0.112825 0.276799 0.769924
0.167758 0.258350 0.788052
0.232181 0.236545 0.800839
0.319738 0.226230 0.797024
0.436988 0.225589 0.790616
0.580530 0.266239 0.762875
0.734493 0.417563 0.771023
0.817624 0.541741 0.782712
0.088838 0.441077 0.709316
0.137209 0.415076 0.729030
0.205295 0.411444 0.754940
0.278477 0.400854 0.775998
0.372961 0.396689 0.798032
0.487709 0.382666 0.809903
0.630915 0.390539 0.810758
0.760922 0.535637 0.825193
0.854734 0.670771 0.840940
0.105745 0.549065 0.691493
0.155428 0.544976 0.707362
0.233463 0.560937 0.732387
0.322545 0.587793 0.761410
0.421973 0.621576 0.800137
0.535637 0.659236 0.835172
0.667170 0.674281 0.861021
0.824399 0.748714 0.888640
0.911559 0.829282 0.902556
0.127718 0.648432 0.685939
0.186862 0.673609 0.701900
0.265934 0.705074 0.728573
0.352026 0.742550 0.759335
0.449622 0.789151 0.799619
0.561120 0.836057 0.839658
0.697688 0.881010 0.876585
0.844358 0.925109 0.917754
0.959930 0.959930 0.951598
