assets/luts/impulz-fujicolor-200-fc-log-a13f7773.cube
# (C) 2014 VisionColor & Patchflyer [www.vision-color.com]
# Generator: VC Patchmatch v.2.1.1 [64/53]
# All work and no play makes Jack a dull boy.
# LUT generated from: FujiColor 200_FC
LUT_3D_SIZE 5
0.023743 0.023743 0.023743
0.198520 0.074037 0.011200
0.335454 0.111177 0.002808
0.430030 0.126925 0.002686
0.586877 0.156039 0.011749
0.073610 0.155978 0.112520
0.173556 0.162478 0.036561
0.402609 0.208377 0.012177
0.622797 0.263310 0.015686
0.763058 0.339910 0.066011
0.159548 0.349279 0.221653
0.325704 0.391302 0.094881
0.493645 0.392142 0.078218
0.738460 0.470344 0.110658
0.830076 0.551019 0.173556
0.183200 0.548852 0.365393
0.444770 0.600732 0.183474
0.642390 0.586816 0.167269
0.796048 0.642847 0.240360
0.864988 0.711849 0.311315
0.205692 0.685389 0.534142
0.449592 0.726772 0.308110
0.653346 0.657740 0.198825
0.860441 0.765560 0.385840
0.884916 0.813291 0.515160
0.015473 0.053529 0.132876
0.156741 0.085206 0.188846
0.388434 0.119997 0.192508
0.555230 0.122530 0.196078
0.702907 0.134524 0.217227
0.067201 0.186160 0.223056
0.182437 0.180148 0.182742
0.531441 0.195315 0.131930
0.701869 0.190005 0.070436
0.843442 0.290074 0.193912
0.134218 0.365942 0.358251
0.238010 0.462699 0.290959
0.604074 0.493980 0.198947
0.826993 0.527321 0.190799
0.868986 0.578592 0.291371
0.157961 0.532738 0.510124
0.223423 0.684260 0.465553
0.694438 0.709346 0.275700
0.876768 0.782467 0.449104
0.880552 0.783566 0.479530
0.219242 0.684230 0.674342
0.362402 0.777646 0.625727
0.675059 0.793301 0.453834
0.877379 0.842466 0.593896
0.889311 0.860838 0.659419
0.012726 0.099184 0.196933
0.083162 0.106844 0.297307
0.288609 0.125826 0.326970
0.481666 0.140444 0.341894
0.634180 0.144533 0.366186
0.057496 0.215030 0.317632
0.088106 0.171817 0.273320
0.348302 0.188479 0.404211
0.623743 0.176272 0.370016
0.801389 0.249363 0.420874
0.119783 0.396399 0.483528
0.193851 0.457313 0.531548
0.445945 0.435935 0.474845
0.806271 0.447532 0.422477
0.861662 0.547799 0.512795
0.152560 0.544244 0.610712
0.203677 0.646021 0.682124
0.484947 0.771237 0.609949
0.864927 0.826596 0.657710
0.888945 0.834226 0.709316
0.222263 0.680293 0.726314
0.349645 0.765774 0.764462
0.659281 0.858854 0.792386
0.885039 0.895354 0.827573
0.907713 0.902983 0.853208
0.005432 0.140688 0.259190
0.011780 0.133883 0.372503
0.231052 0.128481 0.441108
0.415656 0.147738 0.450263
0.574029 0.162417 0.469642
0.008698 0.244694 0.408118
0.001587 0.181735 0.342687
0.149554 0.158175 0.546105
0.499428 0.179446 0.557549
0.699825 0.234440 0.550744
0.090822 0.416144 0.551232
0.087694 0.417060 0.578180
0.174792 0.328817 0.555276
0.580407 0.356649 0.673762
0.789944 0.471244 0.651148
0.138155 0.544060 0.651057
0.163577 0.600153 0.709926
0.384543 0.716274 0.759487
0.790036 0.805234 0.796811
0.889769 0.838712 0.817960
0.176974 0.625940 0.725246
0.305913 0.734646 0.782223
0.653117 0.865110 0.857023
0.877073 0.906737 0.877714
0.908995 0.917205 0.889281
0.000305 0.159915 0.284764
0.000488 0.147311 0.359777
0.153140 0.128664 0.548089
0.343297 0.143038 0.550195
0.540154 0.160067 0.552270
0.000397 0.259678 0.416205
0.003204 0.226932 0.432227
0.055848 0.200198 0.652277
0.342443 0.203586 0.704067
0.609461 0.222354 0.676936
0.050294 0.445655 0.607691
0.086946 0.402258 0.584466
0.139590 0.366125 0.616968
0.372351 0.390799 0.795468
0.697414 0.427573 0.751980
0.131746 0.548028 0.670649
0.178286 0.567742 0.685939
0.328283 0.647852 0.748989
0.614755 0.740414 0.831174
0.869841 0.808133 0.861936
0.137484 0.603845 0.719020
0.200015 0.645685 0.742397
0.465995 0.812345 0.832090
0.842893 0.901396 0.889067
0.909026 0.917937 0.902220
