assets/luts/impulz-kodak-ektar-100-fpe-rec709-df3ce9a2.cube
# (C) 2014 VisionColor & Patchflyer [www.vision-color.com]
# Generator: VC Patchmatch v.2.1.1 [64/53]
# All work and no play makes Jack a dull boy.
# LUT generated from: Kodak Ektar 100_FPE
LUT_3D_SIZE 17
0.037781 0.037263 0.038025
0.059937 0.043000 0.040772
0.095979 0.053193 0.045350
0.138064 0.062501 0.050507
0.188602 0.070100 0.052430
0.240818 0.080018 0.056001
0.286870 0.083436 0.056764
0.329320 0.086458 0.056916
0.367864 0.095735 0.059113
0.401007 0.102144 0.061830
0.431067 0.105501 0.062562
0.463111 0.117037 0.064454
0.488807 0.125856 0.067292
0.513268 0.133700 0.070069
0.531334 0.137545 0.071778
0.552575 0.146609 0.074647
0.566186 0.150668 0.077516
0.042023 0.061707 0.051881
0.062989 0.070649 0.050202
0.100496 0.082765 0.054658
0.150393 0.098238 0.056703
0.205447 0.116976 0.058808
0.264836 0.127321 0.059846
0.318791 0.139284 0.059602
0.367773 0.152529 0.059693
0.408606 0.160067 0.061250
0.445899 0.169345 0.063813
0.480201 0.182132 0.065431
0.512413 0.194705 0.067536
0.536919 0.201297 0.070283
0.563806 0.213077 0.074311
0.585138 0.221958 0.076997
0.604730 0.228397 0.079744
0.616999 0.230381 0.082521
0.046448 0.099580 0.072847
0.066926 0.108400 0.070466
0.100893 0.120516 0.065278
0.149874 0.137484 0.067597
0.211673 0.156039 0.064210
0.273716 0.175082 0.065492
0.335241 0.191775 0.063661
0.395544 0.209110 0.061769
0.441444 0.225925 0.064790
0.480293 0.238590 0.067872
0.518669 0.251957 0.068879
0.555901 0.267124 0.071473
0.583795 0.280400 0.076051
0.611048 0.292973 0.080415
0.631861 0.300145 0.082795
0.653071 0.305730 0.085267
0.664332 0.304845 0.088167
0.048463 0.140749 0.092775
0.061463 0.145907 0.086244
0.098238 0.162173 0.080049
0.139712 0.174258 0.073182
0.198184 0.196078 0.069215
0.260349 0.208347 0.068391
0.323796 0.226841 0.066712
0.387304 0.250370 0.065553
0.448341 0.274052 0.068360
0.495277 0.290532 0.071443
0.534752 0.305333 0.074220
0.573419 0.321172 0.077333
0.605890 0.336950 0.082856
0.638300 0.351812 0.088258
0.657588 0.355749 0.091798
0.677516 0.358587 0.095277
0.691218 0.359655 0.100679
0.044648 0.184512 0.106966
0.061860 0.192447 0.098848
0.082094 0.206180 0.092042
0.136233 0.224369 0.082887
0.185733 0.236789 0.073854
0.246830 0.251347 0.077729
0.313054 0.268406 0.074281
0.379248 0.288151 0.069093
0.440925 0.312016 0.073060
0.498207 0.334874 0.077699
0.547631 0.353277 0.080079
0.587243 0.367956 0.082429
0.618799 0.381567 0.088533
0.649866 0.393530 0.095308
0.677913 0.403632 0.100618
0.700465 0.408179 0.104677
0.713893 0.408667 0.109957
0.044526 0.217929 0.119661
0.057343 0.227756 0.112917
0.080690 0.244053 0.107057
0.115084 0.260807 0.101106
0.179629 0.279332 0.091310
0.239475 0.294530 0.082918
0.304936 0.308751 0.080232
0.367437 0.324865 0.077882
0.433112 0.345006 0.078248
0.489906 0.366949 0.083375
0.541497 0.386328 0.085359
0.588891 0.403601 0.089235
0.625147 0.415076 0.094606
0.657313 0.428077 0.101472
0.685969 0.438575 0.106874
0.714382 0.446906 0.112703
0.729854 0.445594 0.116701
0.044892 0.248112 0.132998
0.053956 0.259281 0.127626
0.075959 0.277836 0.123232
0.103487 0.294896 0.118898
0.161105 0.318212 0.113588
0.221500 0.335576 0.105928
0.291630 0.349615 0.091737
0.354345 0.363897 0.089265
0.419257 0.378271 0.088685
0.479332 0.394232 0.089876
0.531609 0.412177 0.092409
0.577966 0.428077 0.097963
0.616480 0.439002 0.100710
0.654566 0.449622 0.106050
0.683070 0.456275 0.110872
0.710353 0.462135 0.116701
0.731502 0.460548 0.119539
0.044648 0.277501 0.148257
0.053223 0.291844 0.144045
0.062715 0.308019 0.140688
0.100191 0.329595 0.137911
0.144289 0.353521 0.136110
0.205814 0.374060 0.127779
0.275883 0.388769 0.113802
0.341619 0.401770 0.100282
0.402472 0.414008 0.107607
0.459037 0.425605 0.114565
0.519554 0.437995 0.103639
0.568750 0.451972 0.105287
0.607782 0.462440 0.108492
0.650874 0.476081 0.119570
0.679194 0.473396 0.117067
0.706508 0.476478 0.120516
0.727382 0.474067 0.122377
0.045441 0.303349 0.167178
0.051942 0.316960 0.164065
0.060517 0.332433 0.161196
0.084138 0.352239 0.161379
0.124575 0.373724 0.160464
0.183444 0.401648 0.165011
0.250095 0.419898 0.156069
0.314885 0.430243 0.139925
0.378698 0.438972 0.122621
0.437339 0.452827 0.132601
0.499290 0.465217 0.124422
0.557336 0.478248 0.128573
0.603021 0.486824 0.122286
0.645960 0.500237 0.133272
0.674708 0.497627 0.131044
0.704219 0.493050 0.125521
0.724544 0.487434 0.125978
0.046906 0.326513 0.188296
0.050477 0.336828 0.186130
0.061433 0.354284 0.185336
0.071229 0.370886 0.185611
0.115419 0.394934 0.189059
0.174899 0.422919 0.194858
0.226337 0.446265 0.194827
0.292042 0.457160 0.179843
0.353689 0.465370 0.162783
0.413550 0.473304 0.145907
0.475074 0.486671 0.149569
0.534264 0.499855 0.157473
0.585290 0.505425 0.142519
0.632868 0.515038 0.140719
0.665675 0.515923 0.141268
0.702815 0.518517 0.146944
0.722988 0.500694 0.130343
0.048035 0.348272 0.209873
0.050874 0.356878 0.208347
0.059937 0.371679 0.207980
0.069368 0.387152 0.207828
0.092378 0.410163 0.217441
0.149355 0.437201 0.224216
0.208728 0.463416 0.230228
0.275319 0.487770 0.234775
0.336416 0.497200 0.219883
0.394781 0.502983 0.199313
0.451301 0.507897 0.178042
0.510948 0.520684 0.185397
0.562554 0.525719 0.169711
0.615564 0.532860 0.167239
0.661494 0.535790 0.157748
0.697902 0.538293 0.163973
0.718959 0.518303 0.143557
0.048951 0.368780 0.231296
0.052277 0.376684 0.230228
0.057191 0.386267 0.229435
0.071351 0.405249 0.234043
0.088106 0.426551 0.243351
0.125734 0.450477 0.252049
0.194888 0.479255 0.262943
0.260700 0.506706 0.272740
0.322225 0.525689 0.273472
0.379644 0.531273 0.253269
0.435035 0.536126 0.232425
0.488472 0.540764 0.212314
0.547143 0.550011 0.212680
0.604425 0.559411 0.219242
0.653071 0.559258 0.195834
0.693080 0.557519 0.180545
0.713619 0.537652 0.159396
0.051484 0.388830 0.254093
0.054749 0.396490 0.253056
0.058350 0.404120 0.252476
0.072145 0.420325 0.256992
0.087556 0.440558 0.266056
0.116335 0.465919 0.281895
0.178256 0.493874 0.294194
0.240803 0.520287 0.303624
0.318074 0.546777 0.318700
0.385077 0.561700 0.314702
0.439277 0.566400 0.294286
0.489052 0.571160 0.277623
0.536431 0.575830 0.262669
0.593439 0.585626 0.270573
0.642054 0.585565 0.247349
0.685695 0.580621 0.212985
0.716487 0.566400 0.190707
0.054475 0.407721 0.278080
0.057099 0.413825 0.276585
0.062318 0.422248 0.277348
0.069856 0.432990 0.280949
0.087648 0.453376 0.290654
0.125429 0.481910 0.311101
0.163027 0.508110 0.329381
0.230793 0.534295 0.341436
0.309194 0.560082 0.357519
0.382086 0.583276 0.367742
0.439612 0.593866 0.357244
0.486793 0.598627 0.342748
0.533379 0.603296 0.328405
0.584741 0.607813 0.309758
0.635645 0.611780 0.298711
0.685756 0.612757 0.281163
0.724514 0.603204 0.237980
0.058350 0.427497 0.302556
0.060761 0.431159 0.300786
0.066407 0.439734 0.302007
0.071992 0.448554 0.305211
0.096895 0.469764 0.320470
0.132570 0.497444 0.340398
0.164523 0.522972 0.359350
0.228962 0.550988 0.381109
0.306538 0.576806 0.396979
0.381826 0.601801 0.411627
0.450263 0.620020 0.415656
0.505638 0.629755 0.408942
0.552392 0.634455 0.394568
0.599939 0.639002 0.379156
0.642817 0.643153 0.366430
0.693111 0.644984 0.350774
0.731899 0.636347 0.309483
0.065248 0.450050 0.330938
0.065919 0.450019 0.327153
0.070344 0.456489 0.327245
0.079347 0.467262 0.332525
0.098177 0.485725 0.349310
0.130373 0.511467 0.368322
0.175601 0.538994 0.389532
0.239902 0.568261 0.414801
0.306935 0.595789 0.436591
0.379782 0.619867 0.452918
0.447852 0.638209 0.460945
0.514916 0.655512 0.466133
0.571954 0.666102 0.460578
0.610559 0.670039 0.450507
0.654627 0.674311 0.437446
0.700832 0.678798 0.423774
0.740383 0.671748 0.386481
0.075380 0.476661 0.360754
0.076051 0.476600 0.357061
0.076967 0.477058 0.353826
0.091127 0.489174 0.361059
0.109133 0.506584 0.376684
0.127901 0.525841 0.394812
0.187320 0.554192 0.418830
0.248234 0.582910 0.443427
0.307271 0.610712 0.467323
0.381247 0.637812 0.493263
0.451514 0.657710 0.504906
0.520073 0.675258 0.509941
0.582269 0.691432 0.516503
0.629602 0.701717 0.518517
0.674617 0.706081 0.505241
0.720424 0.710384 0.491432
0.753079 0.712367 0.479530
0.037842 0.037934 0.044526
0.053132 0.040925 0.047150
0.087282 0.049317 0.051637
0.126436 0.057679 0.057588
0.172824 0.063233 0.063996
0.223514 0.070802 0.066011
0.269810 0.072816 0.066316
0.313726 0.073030 0.069520
0.349950 0.077028 0.067536
0.382361 0.081819 0.069581
0.411261 0.082582 0.070405
0.437507 0.082307 0.072175
0.460609 0.088594 0.070588
0.484382 0.095094 0.072175
0.501854 0.097566 0.073610
0.519249 0.097871 0.075593
0.532067 0.099916 0.075471
0.038239 0.054597 0.062104
0.058503 0.059449 0.061860
0.101625 0.073182 0.068482
0.152224 0.084047 0.069764
0.203738 0.092775 0.072572
0.259739 0.102998 0.073945
0.311772 0.111330 0.075196
0.353918 0.117678 0.076967
0.390753 0.123110 0.074830
0.425147 0.130312 0.075349
0.456245 0.138216 0.078676
0.481483 0.142733 0.079530
0.505241 0.149477 0.079255
0.524895 0.151308 0.079133
0.542046 0.152438 0.078431
0.558190 0.154513 0.080140
0.568048 0.150973 0.080751
0.042237 0.091585 0.085084
0.064912 0.103273 0.088106
0.104067 0.117006 0.081788
0.155093 0.129854 0.083619
0.221317 0.148592 0.081514
0.282017 0.162295 0.080934
0.337835 0.170413 0.080751
0.391180 0.186435 0.080995
0.430243 0.195773 0.079072
0.463508 0.200900 0.079469
0.497414 0.210391 0.083192
0.529137 0.222934 0.085359
0.554589 0.231388 0.085115
0.573022 0.231205 0.084840
0.588952 0.230350 0.084230
0.605737 0.230625 0.086641
0.613855 0.223087 0.086610
0.045106 0.131899 0.110323
0.059998 0.148806 0.112551
0.097688 0.162570 0.106416
0.158846 0.182834 0.101259
0.223362 0.199161 0.099611
0.294041 0.217258 0.094636
0.358984 0.234318 0.089998
0.413031 0.250065 0.089845
0.460304 0.261143 0.084840
0.501854 0.273808 0.086336
0.536400 0.285985 0.092042
0.566949 0.296208 0.093904
0.594934 0.305180 0.092531
0.618738 0.308751 0.092714
0.635218 0.308476 0.093660
0.650660 0.306493 0.095796
0.657526 0.292973 0.092927
0.041352 0.175540 0.131716
0.057221 0.190005 0.130159
0.087892 0.205142 0.123903
0.145113 0.227176 0.119478
0.209751 0.243961 0.109194
0.279088 0.260990 0.107546
0.347814 0.275425 0.098146
0.407416 0.290013 0.095460
0.458869 0.304540 0.092683
0.502953 0.316777 0.092683
0.548272 0.334081 0.098207
0.582757 0.345342 0.100862
0.611200 0.352575 0.100130
0.635706 0.357488 0.101503
0.659175 0.361089 0.102388
0.678065 0.361089 0.104982
0.684077 0.345312 0.101656
0.041779 0.211460 0.147036
0.055482 0.229191 0.146365
0.082582 0.246006 0.140566
0.124758 0.267918 0.137240
0.199283 0.290349 0.128847
0.266056 0.305974 0.117983
0.333806 0.317571 0.114778
0.396582 0.331456 0.112459
0.457313 0.344823 0.100954
0.500267 0.355108 0.099855
0.547295 0.372076 0.106691
0.587152 0.384222 0.110140
0.622675 0.392615 0.108156
0.647089 0.397162 0.110109
0.669306 0.398444 0.109590
0.694820 0.402167 0.113619
0.703212 0.387213 0.109804
0.042603 0.243595 0.161471
0.052430 0.264225 0.163424
0.076692 0.280369 0.157992
0.116213 0.305211 0.158541
0.174105 0.328130 0.154269
0.248051 0.346349 0.144167
0.320623 0.359991 0.131350
0.383459 0.371160 0.129915
0.444373 0.382391 0.122316
0.498878 0.392676 0.112886
0.545129 0.406592 0.116732
0.586664 0.419196 0.119722
0.623102 0.427710 0.117983
0.656092 0.433722 0.120974
0.678157 0.432227 0.118288
0.703853 0.436011 0.122621
0.718379 0.424048 0.117739
0.042695 0.274418 0.179324
0.054139 0.294194 0.180606
0.071046 0.311406 0.178286
0.113741 0.336339 0.180087
0.154971 0.359716 0.180484
0.229007 0.381262 0.175845
0.301640 0.396735 0.165347
0.366522 0.407019 0.149111
0.424689 0.415839 0.147127
0.479805 0.423255 0.140047
0.533349 0.433295 0.129488
0.579919 0.444862 0.128634
0.618219 0.454902 0.134676
0.653803 0.462715 0.138033
0.680171 0.458015 0.126986
0.706996 0.460243 0.129152
0.722988 0.450050 0.125032
0.043977 0.301946 0.199222
0.052796 0.317937 0.200443
0.064271 0.335851 0.200076
0.093568 0.357183 0.200992
0.146029 0.384680 0.206058
0.207919 0.414008 0.213138
0.280186 0.431617 0.206302
0.344671 0.440620 0.188693
0.405524 0.448371 0.171267
0.461158 0.454902 0.163546
0.516472 0.463172 0.161440
0.570611 0.473121 0.157656
0.613794 0.479744 0.149813
0.649561 0.487739 0.153811
0.677180 0.482826 0.140291
0.705257 0.476356 0.135744
0.722316 0.465431 0.130953
0.045899 0.326696 0.219913
0.055451 0.342870 0.220340
0.067018 0.360693 0.220310
0.078859 0.377997 0.220645
0.139101 0.406958 0.229252
0.195987 0.434302 0.235843
0.266255 0.462898 0.247379
0.332143 0.475135 0.235294
0.391470 0.482704 0.218326
0.446479 0.488136 0.203189
0.502953 0.496345 0.204440
0.556664 0.503349 0.199344
0.603204 0.506859 0.181582
0.645533 0.511376 0.168826
0.677729 0.510796 0.163912
0.708186 0.506920 0.164340
0.722774 0.480873 0.136080
0.047700 0.350774 0.242527
0.054047 0.363806 0.242588
0.064576 0.380255 0.242466
0.081697 0.398901 0.244846
0.112917 0.421393 0.250889
0.171527 0.448463 0.259251
0.251179 0.481025 0.278477
0.320333 0.504845 0.284245
0.379202 0.513756 0.271336
0.432441 0.518608 0.256840
0.485451 0.523339 0.239902
0.542168 0.532799 0.237705
0.593713 0.538262 0.225132
0.643641 0.542443 0.215061
0.679896 0.539605 0.191043
0.710964 0.536370 0.191928
0.724178 0.504997 0.155642
0.049409 0.373968 0.265782
0.056672 0.385199 0.264347
0.065949 0.397467 0.264866
0.085328 0.416510 0.268254
0.103120 0.435950 0.273930
0.160433 0.464027 0.289311
0.236530 0.495430 0.307866
0.305074 0.524102 0.322087
0.372320 0.541619 0.324559
0.426307 0.547906 0.312596
0.477302 0.552514 0.297765
0.526970 0.557244 0.281193
0.583337 0.565698 0.277653
0.635676 0.571374 0.267338
0.674891 0.566888 0.233555
0.711879 0.563226 0.216739
0.728603 0.536950 0.188327
0.051911 0.393927 0.287724
0.058778 0.403601 0.287175
0.064332 0.412207 0.288212
0.082185 0.429969 0.291356
0.103731 0.450050 0.298283
0.140902 0.478340 0.318364
0.214679 0.508721 0.335973
0.290242 0.537346 0.353491
0.367971 0.562951 0.368475
0.430365 0.577020 0.367712
0.478889 0.582391 0.357031
0.525841 0.587213 0.343206
0.572351 0.591882 0.328923
0.624628 0.597742 0.318944
0.663752 0.593439 0.285557
0.711391 0.590112 0.256046
0.736751 0.572259 0.230076
0.054841 0.412573 0.310246
0.063813 0.424353 0.310338
0.069459 0.432868 0.311559
0.079683 0.444739 0.313451
0.112703 0.466194 0.322393
0.148867 0.493599 0.341497
0.193622 0.521080 0.359777
0.275532 0.549249 0.381964
0.350668 0.574090 0.396612
0.424903 0.598779 0.411078
0.479774 0.611933 0.414801
0.524773 0.616785 0.403265
0.571618 0.621515 0.388861
0.616205 0.626001 0.375738
0.662654 0.626123 0.354864
0.711788 0.624506 0.329625
0.746090 0.610071 0.274113
0.060700 0.435126 0.333043
0.069947 0.445899 0.334874
0.075441 0.454231 0.336065
0.084413 0.463508 0.339025
0.114748 0.482124 0.347387
0.148562 0.508354 0.365606
0.195468 0.535882 0.386755
0.267628 0.564813 0.410956
0.343008 0.590082 0.426490
0.415290 0.613886 0.442084
0.485267 0.636042 0.460578
0.541466 0.648829 0.462379
0.588678 0.653559 0.447852
0.625818 0.657404 0.438697
0.663050 0.661250 0.429969
0.712184 0.660395 0.406378
0.746517 0.647181 0.353521
0.074098 0.463874 0.361181
0.077058 0.468666 0.361456
0.082277 0.476234 0.362341
0.096437 0.487251 0.368017
0.110262 0.498116 0.373816
0.142306 0.522667 0.390875
0.206882 0.551843 0.415534
0.270451 0.580224 0.439643
0.335836 0.607141 0.461006
0.406256 0.629755 0.479561
0.475502 0.651789 0.498848
0.545800 0.673396 0.515923
0.600122 0.684993 0.515557
0.636622 0.688777 0.507012
0.674708 0.692683 0.498085
0.718502 0.696895 0.485603
0.755550 0.687160 0.442176
0.084016 0.490120 0.390143
0.094514 0.499031 0.394232
0.092927 0.497658 0.391028
0.106874 0.508476 0.396582
0.120119 0.518791 0.401892
0.150118 0.538628 0.419593
0.210513 0.566827 0.443488
0.270756 0.594690 0.466957
0.336416 0.622003 0.491493
0.415152 0.648951 0.518486
0.486488 0.671565 0.538079
0.558343 0.694209 0.557275
0.610010 0.708370 0.566308
0.661128 0.720546 0.571008
0.700526 0.724605 0.561791
0.734737 0.727504 0.551629
0.768795 0.729549 0.539208
0.039429 0.039673 0.060273
0.053986 0.041657 0.061006
0.077699 0.045899 0.064698
0.114321 0.053529 0.073579
0.157717 0.060151 0.079011
0.208438 0.066468 0.087343
0.258762 0.069062 0.089143
0.304234 0.070069 0.090059
0.340887 0.073274 0.087800
0.373693 0.075288 0.088228
0.401495 0.075074 0.085786
0.427985 0.074952 0.087251
0.451331 0.081392 0.085237
0.472999 0.084047 0.085786
0.489845 0.085786 0.080720
0.507530 0.086336 0.082521
0.520836 0.088808 0.081666
0.039734 0.056886 0.079347
0.062104 0.063050 0.083040
0.090181 0.066407 0.085206
0.139864 0.075898 0.086122
0.188968 0.083955 0.092439
0.244602 0.090059 0.095583
0.296330 0.097261 0.093294
0.339361 0.101167 0.093568
0.374548 0.098329 0.094240
0.406653 0.102785 0.092195
0.435218 0.110079 0.088777
0.459358 0.112581 0.088685
0.478828 0.109651 0.089143
0.497902 0.110048 0.088014
0.513237 0.110719 0.081758
0.528679 0.111727 0.081392
0.538720 0.107362 0.081483
0.037537 0.083894 0.103731
0.057832 0.096284 0.112367
0.104677 0.108309 0.113252
0.158968 0.125154 0.119692
0.220340 0.134737 0.117433
0.277592 0.142977 0.116304
0.333379 0.154635 0.118166
0.379919 0.159060 0.112764
0.420447 0.168399 0.116426
0.449775 0.170382 0.110780
0.479561 0.178378 0.113832
0.500237 0.174563 0.103151
0.525933 0.180575 0.104036
0.541466 0.178195 0.100343
0.555535 0.174380 0.096498
0.564416 0.162692 0.088594
0.575830 0.157717 0.089418
0.039277 0.125429 0.133639
0.052949 0.142275 0.135622
0.105348 0.158999 0.142367
0.163455 0.178470 0.138003
0.225101 0.191531 0.137453
0.294713 0.208652 0.130648
0.357916 0.221408 0.126772
0.403784 0.223972 0.121126
0.449989 0.237583 0.126894
0.488807 0.246036 0.119600
0.517571 0.252079 0.122438
0.537163 0.246128 0.111513
0.564446 0.254673 0.115084
0.586358 0.255955 0.110719
0.600732 0.250645 0.105715
0.608362 0.236912 0.097536
0.618555 0.225498 0.095247
0.037720 0.168490 0.156619
0.053590 0.185092 0.159884
0.089906 0.206149 0.164462
0.149996 0.226017 0.160647
0.230076 0.250065 0.158907
0.297337 0.264164 0.152712
0.367346 0.279332 0.145296
0.424292 0.289677 0.138064
0.470771 0.302922 0.142794
0.511315 0.311254 0.134005
0.548455 0.320745 0.134340
0.572869 0.320012 0.126436
0.599298 0.327825 0.131167
0.620356 0.327337 0.126406
0.640528 0.322332 0.116640
0.650721 0.308934 0.107881
0.660517 0.297704 0.108064
0.038331 0.206455 0.176242
0.052155 0.226108 0.178408
0.081239 0.247044 0.182620
0.137453 0.268986 0.181064
0.213382 0.294408 0.180606
0.288945 0.311772 0.171817
0.357794 0.324895 0.167575
0.418372 0.336034 0.158297
0.474739 0.348089 0.152956
0.516106 0.355993 0.146944
0.553613 0.365789 0.148836
0.583703 0.368811 0.140352
0.618097 0.378393 0.142245
0.640711 0.378393 0.136904
0.661311 0.374609 0.130373
0.678462 0.364050 0.118593
0.690700 0.353887 0.118379
0.039551 0.241062 0.193759
0.049378 0.261326 0.194491
0.083040 0.283940 0.200717
0.126009 0.307164 0.201358
0.190097 0.332494 0.202396
0.272709 0.354131 0.197910
0.345098 0.367376 0.186099
0.405921 0.375189 0.180087
0.464149 0.386297 0.180697
0.513756 0.393133 0.162600
0.553124 0.402411 0.161959
0.584039 0.404791 0.151705
0.618708 0.413428 0.156435
0.649500 0.414343 0.148714
0.671290 0.410437 0.141451
0.687953 0.398505 0.127901
0.708370 0.392615 0.125887
0.040833 0.271977 0.210300
0.052399 0.293004 0.212100
0.079988 0.315557 0.217594
0.121706 0.338109 0.218173
0.179873 0.366857 0.225376
0.257359 0.389349 0.223850
0.329961 0.405127 0.214633
0.397009 0.415625 0.207187
0.454932 0.423682 0.207248
0.503990 0.428565 0.190921
0.550713 0.437201 0.179843
0.585229 0.439979 0.172122
0.620020 0.447028 0.173770
0.650935 0.448188 0.166690
0.679225 0.444221 0.153445
0.697078 0.431312 0.137301
0.719661 0.427344 0.138186
0.042451 0.300389 0.229984
0.052125 0.319677 0.233097
0.074678 0.341497 0.234073
0.113863 0.363684 0.236240
0.179904 0.393072 0.246036
0.243259 0.422278 0.254887
0.313542 0.437476 0.249577
0.380072 0.449592 0.244022
0.440925 0.458198 0.231601
0.494240 0.463691 0.223011
0.544274 0.469642 0.216098
0.582818 0.472663 0.199786
0.620630 0.478218 0.190097
0.650782 0.479225 0.185458
0.681910 0.477485 0.176089
0.708370 0.466255 0.152590
0.729976 0.460334 0.151003
0.045075 0.327886 0.252171
0.054902 0.344976 0.252506
0.074556 0.364172 0.254582
0.098573 0.384192 0.258061
0.161517 0.411627 0.266819
0.225025 0.440742 0.278355
0.301656 0.469459 0.292393
0.368277 0.483375 0.289219
0.427329 0.492042 0.280583
0.480690 0.496925 0.266087
0.531060 0.501976 0.258061
0.570245 0.502708 0.240879
0.610101 0.505364 0.221958
0.651514 0.507530 0.209842
0.684443 0.507805 0.205081
0.712581 0.496803 0.178470
0.732021 0.479805 0.158694
0.047456 0.353796 0.275242
0.053590 0.366064 0.273899
0.079469 0.387152 0.276432
0.098756 0.406134 0.279820
0.138216 0.428199 0.285405
0.213184 0.457710 0.300328
0.289998 0.489235 0.317937
0.360494 0.512993 0.327031
0.415824 0.523949 0.326574
0.467933 0.528740 0.312383
0.518273 0.533318 0.298680
0.560632 0.534844 0.285496
0.605951 0.537957 0.276280
0.649714 0.538354 0.255619
0.686702 0.536980 0.233249
0.715175 0.527001 0.208408
0.733150 0.501854 0.174502
0.049622 0.378363 0.298466
0.058137 0.390906 0.296147
0.082521 0.408850 0.298161
0.101289 0.427314 0.301427
0.125429 0.446174 0.306157
0.197223 0.473671 0.321019
0.269673 0.503899 0.337957
0.347463 0.533440 0.357824
0.414618 0.552300 0.369512
0.468513 0.559350 0.358099
0.516106 0.564111 0.346654
0.558251 0.569329 0.340246
0.603601 0.572015 0.330327
0.647425 0.571740 0.308598
0.685664 0.567498 0.275547
0.719020 0.558587 0.242435
0.741299 0.538659 0.220554
0.053254 0.400183 0.319829
0.063813 0.415320 0.318608
0.077211 0.427131 0.319860
0.095552 0.445136 0.323064
0.131289 0.465980 0.330877
0.173816 0.488533 0.341100
0.244251 0.517968 0.357610
0.327291 0.546410 0.380621
0.409232 0.574121 0.403723
0.470069 0.587579 0.403479
0.514763 0.594232 0.398474
0.556390 0.599390 0.392157
0.599329 0.604456 0.384009
0.644800 0.605890 0.363073
0.687587 0.603693 0.333196
0.725856 0.595117 0.293858
0.749722 0.576440 0.267887
0.059205 0.423346 0.341741
0.069123 0.436439 0.340948
0.079957 0.447425 0.342290
0.102510 0.462593 0.347234
0.139223 0.483406 0.355322
0.174350 0.503777 0.363806
0.230274 0.530816 0.384405
0.313069 0.559014 0.407630
0.393545 0.586419 0.430274
0.468116 0.611078 0.449134
0.521996 0.623896 0.453864
0.564508 0.629725 0.448554
0.606653 0.634913 0.441932
0.643824 0.638727 0.432807
0.688746 0.638788 0.405341
0.727779 0.631556 0.366125
0.759396 0.614801 0.312474
0.066072 0.447242 0.363806
0.075135 0.457679 0.364721
0.089204 0.469917 0.367864
0.103365 0.480934 0.373541
0.135592 0.499641 0.381018
0.170565 0.519097 0.388830
0.233890 0.547082 0.411810
0.304524 0.575097 0.435035
0.382528 0.601862 0.456977
0.452155 0.624720 0.477394
0.520745 0.646601 0.495247
0.576593 0.661036 0.502251
0.614649 0.666712 0.498787
0.650965 0.670832 0.491279
0.689174 0.674769 0.482338
0.728206 0.668727 0.445655
0.764187 0.655238 0.393103
0.080049 0.476051 0.390967
0.082826 0.480476 0.390600
0.107820 0.496712 0.395758
0.121645 0.507439 0.401282
0.134890 0.517723 0.406561
0.180484 0.536400 0.416632
0.240665 0.562615 0.437751
0.301793 0.590356 0.461067
0.366140 0.616663 0.484627
0.436622 0.639704 0.506462
0.506523 0.661830 0.524651
0.576989 0.684138 0.543145
0.624445 0.698054 0.554986
0.661341 0.702571 0.548333
0.700771 0.706630 0.539086
0.735286 0.711330 0.533532
0.773739 0.700465 0.485328
0.092073 0.502892 0.418250
0.123049 0.518456 0.424018
0.131777 0.527520 0.428870
0.145296 0.538048 0.434272
0.162356 0.548486 0.440497
0.189059 0.559655 0.449104
0.242771 0.583459 0.468147
0.302083 0.611231 0.491493
0.370138 0.634974 0.515679
0.439368 0.658656 0.540154
0.511101 0.681910 0.560937
0.571160 0.701167 0.578943
0.624659 0.718379 0.596460
0.678584 0.732906 0.606195
0.717189 0.738186 0.600183
0.750454 0.743160 0.595880
0.786252 0.746609 0.586145
0.043824 0.043580 0.082460
0.053803 0.043580 0.079988
0.081270 0.047761 0.084016
0.105104 0.050843 0.087312
0.146365 0.056336 0.096986
0.197604 0.064088 0.104768
0.248844 0.066743 0.107942
0.297581 0.068208 0.112947
0.336095 0.069917 0.113985
0.368444 0.071046 0.113863
0.395819 0.070405 0.109163
0.422522 0.069947 0.107393
0.443305 0.071839 0.105623
0.464027 0.073548 0.105104
