assets/luts/impulz-kodak-gold-gen-6-200-fc-log-d1f8fa5e.cube
# (C) 2014 VisionColor & Patchflyer [www.vision-color.com]
# Generator: VC Patchmatch v.2.1.1 [64/53]
# All work and no play makes Jack a dull boy.
# LUT generated from: Kodak Gold Gen.6 200_FC
LUT_3D_SIZE 5
0.023743 0.023743 0.023743
0.197635 0.027253 0.027100
0.405127 0.025879 0.025422
0.643366 0.026154 0.032105
0.887694 0.045899 0.070375
0.043946 0.102449 0.013642
0.164797 0.110567 0.014923
0.414450 0.144076 0.017487
0.675258 0.175265 0.025788
0.888273 0.206455 0.057008
0.120882 0.340047 0.009461
0.271336 0.351553 0.012665
0.473808 0.375204 0.015717
0.703670 0.433005 0.020539
0.900847 0.426398 0.036744
0.248997 0.635523 0.011933
0.385779 0.642390 0.016297
0.574456 0.645838 0.017304
0.762509 0.663111 0.019989
0.890929 0.628565 0.030304
0.238651 0.867185 0.011963
0.458381 0.863127 0.017151
0.653284 0.862669 0.023377
0.825437 0.857114 0.030182
0.875975 0.850431 0.031708
0.025696 0.025727 0.141695
0.108766 0.023285 0.164675
0.332387 0.023529 0.168704
0.600977 0.025147 0.174746
0.802274 0.045686 0.207126
0.037110 0.129000 0.116243
0.151583 0.143923 0.143069
0.427329 0.124331 0.129335
0.741726 0.096864 0.115633
0.893400 0.235325 0.244877
0.118746 0.385183 0.104860
0.275486 0.472648 0.094118
0.566567 0.504005 0.130068
0.788418 0.450095 0.100893
0.883482 0.485695 0.234501
0.193576 0.642969 0.086793
0.267735 0.784421 0.023774
0.608804 0.779507 0.069306
0.862791 0.780728 0.093660
0.901640 0.686030 0.185885
0.161593 0.889006 0.043610
0.291783 0.895659 0.051240
0.563287 0.875669 0.121431
0.814755 0.893950 0.192416
0.903288 0.903380 0.199832
0.026673 0.026764 0.340948
0.080812 0.025818 0.385779
0.248264 0.023163 0.308843
0.521569 0.024750 0.347875
0.756405 0.039521 0.379644
0.033295 0.128939 0.365103
0.071168 0.095918 0.427359
0.323369 0.099001 0.401175
0.658122 0.080476 0.375235
0.862028 0.224918 0.392554
0.076631 0.370047 0.382620
0.171389 0.462089 0.469047
0.430533 0.451102 0.440269
0.689235 0.433555 0.408988
0.880735 0.513848 0.464210
0.150393 0.636713 0.336477
0.207218 0.789883 0.293690
0.473686 0.733913 0.335042
0.803189 0.767514 0.416434
0.898131 0.733577 0.471183
0.183047 0.894438 0.256153
0.256596 0.903410 0.287129
0.511391 0.893553 0.388663
0.812314 0.915984 0.487358
0.935332 0.934752 0.501289
0.028443 0.028443 0.733883
0.053895 0.027375 0.659876
0.170047 0.024903 0.535241
0.442817 0.025391 0.585901
0.683009 0.032959 0.580835
0.021546 0.149996 0.743069
0.026581 0.073762 0.860182
0.160967 0.070283 0.724315
0.544518 0.072572 0.721614
0.737362 0.164736 0.543175
0.053498 0.392065 0.698604
0.050477 0.411154 0.838056
0.224506 0.347585 0.680140
0.558007 0.368521 0.684077
0.782254 0.462821 0.606043
0.080842 0.620905 0.720790
0.056550 0.741939 0.801236
0.306264 0.718746 0.781888
0.703029 0.729702 0.741787
0.901183 0.743557 0.714290
0.077272 0.871122 0.565179
0.123293 0.898314 0.625299
0.421683 0.919371 0.759060
0.772702 0.935912 0.778714
0.941558 0.941314 0.786557
0.027802 0.039033 0.962219
0.030701 0.035798 0.887755
0.114839 0.035004 0.827970
0.323125 0.033204 0.802762
0.597955 0.035340 0.835721
0.015167 0.189548 0.962737
0.030488 0.163546 0.933532
0.133577 0.173861 0.890867
0.357397 0.177890 0.859617
0.599908 0.174899 0.853056
0.012665 0.482338 0.947326
0.051240 0.408286 0.941070
0.204791 0.420706 0.900664
0.455787 0.441184 0.886534
0.691676 0.451560 0.890440
0.028870 0.637140 0.949035
0.093019 0.633906 0.932280
0.341176 0.689662 0.921324
0.655482 0.732540 0.924102
0.870024 0.737972 0.921691
0.014618 0.805264 0.910918
0.058534 0.862608 0.920836
0.313954 0.914275 0.915160
0.734340 0.939544 0.932067
0.953887 0.953887 0.945678
