assets/luts/impulz-fuji-superior-200-fpe-log-ef6ee857.cube
# (C) 2014 VisionColor & Patchflyer [www.vision-color.com]
# Generator: VC Patchmatch v.2.1.1 [64/53]
# All work and no play makes Jack a dull boy.
# LUT generated from: Fuji Superior 200_FPE
LUT_3D_SIZE 9
0.033509 0.036683 0.037079
0.055085 0.039826 0.036774
0.118410 0.047211 0.038148
0.213321 0.050111 0.038941
0.297093 0.046784 0.041077
0.352026 0.045533 0.043153
0.393347 0.046143 0.045045
0.432746 0.047883 0.047181
0.498177 0.059358 0.054475
0.035828 0.053407 0.039338
0.072480 0.062593 0.039246
0.161471 0.076326 0.039002
0.296056 0.097902 0.042206
0.402869 0.098726 0.045808
0.478523 0.108248 0.049805
0.516747 0.105013 0.051728
0.556725 0.114260 0.054444
0.617304 0.156832 0.064393
0.048493 0.105592 0.043091
0.116121 0.133730 0.043580
0.237812 0.162844 0.045014
0.381979 0.198550 0.048646
0.505104 0.221195 0.053437
0.596582 0.248447 0.060304
0.649439 0.259678 0.063294
0.697292 0.280583 0.070649
0.744686 0.320378 0.083467
0.118120 0.215946 0.045136
0.256977 0.271748 0.051392
0.389792 0.309468 0.061128
0.501045 0.336263 0.067109
0.612100 0.364858 0.072938
0.704494 0.395636 0.084840
0.762417 0.417151 0.092378
0.806455 0.437812 0.102083
0.837613 0.460487 0.115816
0.325582 0.378927 0.058991
0.451072 0.424430 0.074952
0.574563 0.463615 0.096925
0.662425 0.484276 0.112123
0.733318 0.504433 0.119966
0.794980 0.518059 0.124544
0.843809 0.537377 0.130739
0.873259 0.556115 0.137545
0.893339 0.572686 0.149386
0.550118 0.523827 0.091218
0.622003 0.551995 0.117220
0.713924 0.583032 0.145480
0.788083 0.602991 0.165377
0.839475 0.615656 0.175357
0.875029 0.627253 0.177218
0.891142 0.629908 0.172396
0.910246 0.641535 0.171847
0.920653 0.653742 0.178775
0.698207 0.612207 0.130037
0.741115 0.637293 0.162081
0.801846 0.661768 0.191348
0.861051 0.679347 0.207523
0.894621 0.688777 0.217716
0.914214 0.698421 0.222477
0.923827 0.703792 0.221561
0.932494 0.707912 0.212222
0.934936 0.707393 0.204654
0.785092 0.663417 0.147829
0.827634 0.694759 0.182803
0.871092 0.722683 0.225925
0.904753 0.736599 0.244480
0.923003 0.744228 0.253269
0.930541 0.749142 0.259495
0.936767 0.753597 0.260746
0.941344 0.753353 0.246250
0.942657 0.754757 0.238163
0.831052 0.693812 0.153292
0.874571 0.723781 0.180758
0.906798 0.758144 0.230350
0.926726 0.773312 0.265354
0.935637 0.779843 0.282597
0.939208 0.782467 0.291936
0.940887 0.785183 0.298985
0.942962 0.783963 0.289921
0.944549 0.782559 0.268009
0.030518 0.037232 0.056947
0.043763 0.039307 0.056428
0.102541 0.045502 0.057984
0.198032 0.051148 0.062928
0.290745 0.049470 0.060395
0.357519 0.047333 0.063233
0.403967 0.047059 0.062135
0.446723 0.048432 0.066773
0.503075 0.056733 0.088594
0.030549 0.057984 0.062593
0.061952 0.072847 0.073579
0.176028 0.079469 0.062684
0.294408 0.069947 0.052125
0.376165 0.063478 0.050690
0.415595 0.053864 0.048463
0.445777 0.052430 0.049134
0.493965 0.058930 0.053925
0.605951 0.139467 0.108217
0.042145 0.128115 0.080446
0.112551 0.173648 0.074403
0.304280 0.222965 0.073732
0.447745 0.214145 0.060792
0.544503 0.214023 0.062257
0.592706 0.197665 0.060090
0.617853 0.185702 0.062196
0.659449 0.207706 0.068940
0.730159 0.298283 0.128878
0.103578 0.246098 0.110140
0.262806 0.327169 0.066865
0.461814 0.392599 0.086275
0.613779 0.424857 0.099794
0.698558 0.417624 0.097932
0.748928 0.409873 0.094026
0.779141 0.403555 0.097078
0.808591 0.415137 0.104921
0.828916 0.450019 0.157076
0.275380 0.391501 0.136172
0.498283 0.494041 0.090578
0.640574 0.544503 0.128267
0.755749 0.572091 0.158083
0.830915 0.591226 0.168460
0.857694 0.574594 0.153475
0.877470 0.570993 0.146120
0.891295 0.568170 0.149508
0.890806 0.568627 0.187900
0.465110 0.526604 0.182162
0.676051 0.604791 0.132479
0.755734 0.639490 0.172885
0.845914 0.666194 0.200839
0.894255 0.680293 0.217777
0.917571 0.690913 0.220951
0.921874 0.678614 0.198367
0.925078 0.669490 0.188174
0.921538 0.660395 0.224796
0.584772 0.614282 0.224002
0.783200 0.663081 0.150332
0.839536 0.705867 0.203738
0.896178 0.731319 0.238376
0.922698 0.743282 0.253239
0.933379 0.748196 0.260716
0.940978 0.752743 0.252079
0.941619 0.738643 0.231662
0.938201 0.722713 0.251957
0.660792 0.667170 0.230503
0.822263 0.691249 0.152132
0.880735 0.733577 0.194705
0.918486 0.764920 0.249973
0.933898 0.777462 0.279301
0.939300 0.783200 0.293950
0.942077 0.783902 0.297734
0.944274 0.782132 0.272831
0.942504 0.770932 0.291569
0.693416 0.693660 0.208927
0.803433 0.694484 0.146242
0.867002 0.723751 0.170565
0.912535 0.767178 0.237675
0.930083 0.789059 0.298955
0.937652 0.796719 0.322179
0.940887 0.800015 0.336095
0.941497 0.800809 0.340337
0.942504 0.798611 0.322393
0.030152 0.037385 0.098451
0.037201 0.038972 0.100435
0.097353 0.045350 0.109560
0.193118 0.049836 0.113252
0.290318 0.048035 0.119387
0.369177 0.047089 0.128115
0.421363 0.047242 0.128817
0.461158 0.048707 0.133364
0.509148 0.055848 0.155215
0.031281 0.060731 0.113344
0.037446 0.059083 0.129152
0.147555 0.073121 0.149416
0.273533 0.068238 0.128267
0.367193 0.062165 0.119997
0.422858 0.054292 0.105318
0.462013 0.052857 0.100221
0.505974 0.056947 0.109377
0.593957 0.118715 0.177676
0.035859 0.138216 0.151400
0.057740 0.185306 0.190341
0.198428 0.202121 0.180667
0.374014 0.194156 0.155795
0.481697 0.167391 0.122652
0.533867 0.141756 0.102358
0.564355 0.123110 0.091402
0.608423 0.144045 0.109895
0.711879 0.281682 0.223026
0.063722 0.252232 0.197452
0.167666 0.341711 0.213107
0.338888 0.374411 0.173495
0.542367 0.414481 0.195468
0.656229 0.398581 0.157992
0.720150 0.381216 0.139773
0.751705 0.362936 0.124880
0.772671 0.364004 0.141878
0.809628 0.437324 0.256748
0.201999 0.395132 0.250187
0.366629 0.498436 0.254765
0.526589 0.527596 0.167330
0.702739 0.577752 0.212863
0.798047 0.592081 0.238193
0.847593 0.574990 0.206439
0.873930 0.563333 0.182620
0.875090 0.542641 0.187137
0.870237 0.557916 0.291142
0.358846 0.524315 0.317143
0.519158 0.603723 0.289494
0.682795 0.632898 0.186618
0.801541 0.672847 0.225223
0.876890 0.691890 0.263951
0.908812 0.700710 0.285039
0.921233 0.688472 0.251560
0.923217 0.668544 0.237797
0.910369 0.657740 0.332769
0.477363 0.613672 0.367956
0.606958 0.665461 0.288273
0.775021 0.681056 0.164279
0.867918 0.725582 0.213993
0.915892 0.753170 0.274113
0.928862 0.758999 0.307042
0.937621 0.764157 0.314672
0.939666 0.748043 0.288945
0.932830 0.731441 0.364599
0.541131 0.669062 0.375586
0.652888 0.695003 0.247837
0.798978 0.693324 0.145937
0.885832 0.740108 0.193942
0.925689 0.780636 0.276616
0.935729 0.793179 0.322850
0.939818 0.795956 0.342260
0.941497 0.796292 0.336278
0.939269 0.780179 0.401160
0.582788 0.701442 0.347784
0.666346 0.703395 0.219821
0.765072 0.696406 0.151339
0.864561 0.750332 0.231144
0.910735 0.790158 0.334661
0.925811 0.805508 0.389136
0.932769 0.812375 0.416632
0.938018 0.815824 0.429480
0.941405 0.818418 0.433967
0.030365 0.036316 0.127810
0.036683 0.037507 0.146517
0.081666 0.042267 0.162905
0.180667 0.046052 0.168093
0.292180 0.046662 0.179141
0.379004 0.046967 0.193576
0.429206 0.048249 0.198032
0.459724 0.049195 0.197482
0.500755 0.054841 0.209262
0.033753 0.068971 0.163882
0.033173 0.045899 0.165286
0.077333 0.055695 0.198886
0.243046 0.063325 0.211917
0.362585 0.055604 0.206607
0.429847 0.052308 0.198795
0.466011 0.051148 0.189151
0.504723 0.055665 0.192660
0.578332 0.103883 0.235386
0.037385 0.144015 0.215854
0.040620 0.144320 0.242283
0.088624 0.142092 0.241032
0.300237 0.166629 0.265476
0.431464 0.145571 0.241642
0.502434 0.126589 0.220249
0.550958 0.108675 0.205264
0.591913 0.117678 0.205722
0.682277 0.246769 0.289921
0.047120 0.245243 0.268528
0.071412 0.310735 0.329534
0.160220 0.337804 0.328252
0.399496 0.368841 0.333379
0.542428 0.356420 0.310277
0.631373 0.332967 0.273518
0.680110 0.300038 0.238819
0.722622 0.306523 0.244938
0.776883 0.412848 0.349340
0.112215 0.371954 0.328099
0.186831 0.462837 0.384283
0.320867 0.503990 0.371496
0.525490 0.535164 0.348745
0.694774 0.564706 0.384939
0.785122 0.558724 0.348562
0.823209 0.532692 0.312245
0.839231 0.511620 0.306600
0.841917 0.542748 0.404486
0.224689 0.496925 0.394293
0.336110 0.579248 0.432471
0.479850 0.620508 0.388159
0.654414 0.647669 0.325277
0.804654 0.689052 0.391409
0.871397 0.701686 0.425361
0.896452 0.685878 0.382757
0.904051 0.657191 0.363073
0.893553 0.654383 0.454047
0.337697 0.590631 0.447211
0.442710 0.657862 0.453925
0.573877 0.683894 0.351064
0.734676 0.699184 0.243214
0.860258 0.748806 0.343282
0.905486 0.767544 0.418891
0.926665 0.771206 0.441199
0.933013 0.753811 0.421637
0.926055 0.743374 0.499519
0.420829 0.658015 0.476081
0.525841 0.704524 0.435828
0.630365 0.713069 0.291341
0.760739 0.705074 0.173983
0.881987 0.773587 0.308034
0.917906 0.801053 0.411109
0.929686 0.809506 0.455329
0.940368 0.813535 0.467384
0.935760 0.795743 0.535088
0.487892 0.704646 0.475685
0.574426 0.726192 0.411048
0.644282 0.729641 0.322011
0.754604 0.754025 0.321523
0.854337 0.799619 0.438071
0.900938 0.821042 0.503990
0.916625 0.831449 0.542992
0.932799 0.838132 0.564294
0.940276 0.842222 0.574334
0.031586 0.036011 0.155764
0.035157 0.036866 0.179385
0.061158 0.041199 0.207584
0.138582 0.042878 0.212802
0.258793 0.043915 0.213016
0.357122 0.045197 0.227298
0.410071 0.046998 0.235050
0.442176 0.048554 0.236637
0.480507 0.052735 0.245396
0.034943 0.064332 0.199344
0.033478 0.039368 0.191897
0.051057 0.044099 0.223606
0.148501 0.049165 0.245121
0.315709 0.050172 0.250278
0.395972 0.047700 0.247501
0.438880 0.048615 0.242161
0.481605 0.053437 0.243931
0.556329 0.088533 0.276768
0.038911 0.140780 0.257725
0.040131 0.123751 0.277745
0.044892 0.091981 0.259312
0.161501 0.113252 0.284092
0.363622 0.123262 0.305516
0.454780 0.099611 0.287633
0.513268 0.086336 0.275151
0.563104 0.097047 0.271855
0.652430 0.221683 0.337102
0.047181 0.239658 0.318059
0.054139 0.265873 0.364263
0.072755 0.262364 0.366186
0.204166 0.271946 0.360815
0.446174 0.304082 0.384070
0.552880 0.284321 0.363607
0.620386 0.258412 0.339010
0.676905 0.267308 0.332708
0.739315 0.382727 0.399207
0.072633 0.352392 0.381292
0.097810 0.424018 0.457160
0.146700 0.450202 0.465187
0.323308 0.481178 0.463600
0.555093 0.510643 0.475334
0.662806 0.498863 0.453971
0.731746 0.477623 0.425284
0.775387 0.456565 0.397238
0.806973 0.524834 0.468788
0.127596 0.463996 0.441382
0.161425 0.535088 0.500999
0.227680 0.569146 0.501579
0.407126 0.608087 0.497719
0.638422 0.643977 0.507836
0.780041 0.673381 0.548272
0.840833 0.664836 0.517845
0.865354 0.637217 0.487251
0.869780 0.656855 0.546868
0.189807 0.557153 0.493996
0.242481 0.624994 0.541192
0.337545 0.658228 0.518608
0.497429 0.688991 0.486381
0.712276 0.731716 0.487388
0.837324 0.765286 0.560601
0.892149 0.773037 0.584955
0.915679 0.760891 0.562585
0.910155 0.752407 0.606500
0.263508 0.636194 0.536461
0.340597 0.691615 0.552789
0.442039 0.718318 0.515389
0.573693 0.736721 0.454765
0.748196 0.769131 0.431601
0.865156 0.809720 0.537987
0.905760 0.825223 0.597742
0.932586 0.831907 0.617151
0.927062 0.813596 0.652552
0.343771 0.697932 0.559747
0.414389 0.722042 0.549981
0.505013 0.741024 0.528603
0.625330 0.767941 0.530800
0.750484 0.802792 0.566079
0.831983 0.830014 0.619776
0.881102 0.844236 0.652735
0.915434 0.853910 0.676387
0.935729 0.860746 0.690486
0.032959 0.036286 0.184604
0.034546 0.036530 0.200381
0.050660 0.039277 0.229801
0.105684 0.041657 0.246342
0.212177 0.041962 0.246006
0.318914 0.042817 0.249180
0.375219 0.044587 0.255741
0.418433 0.046998 0.263005
0.463294 0.050904 0.275639
0.036744 0.064942 0.237827
0.034180 0.037232 0.210483
0.039277 0.038300 0.228611
0.087068 0.042023 0.258610
0.217334 0.042664 0.271336
0.348180 0.044251 0.282383
0.406409 0.046143 0.280247
0.461494 0.051484 0.286290
0.536156 0.084382 0.316747
0.041291 0.147341 0.304448
0.040375 0.105318 0.306249
0.039033 0.063233 0.275456
0.083803 0.072145 0.285588
0.239216 0.082063 0.311406
0.396307 0.083253 0.331395
0.471015 0.070832 0.323430
0.534173 0.082643 0.324681
0.618219 0.194827 0.370062
0.047486 0.241184 0.360265
0.047517 0.239475 0.399695
0.047761 0.210285 0.391943
0.076143 0.187457 0.360693
0.274907 0.219196 0.380560
0.464271 0.239246 0.403693
0.554528 0.212177 0.387182
0.625635 0.225055 0.382452
0.699519 0.351583 0.432593
0.065339 0.341985 0.421729
0.065583 0.373526 0.477302
0.070710 0.376028 0.485390
0.141253 0.388479 0.477180
0.352636 0.413504 0.475608
0.567193 0.451926 0.502831
0.656443 0.427634 0.475135
0.716365 0.412528 0.451240
0.769650 0.498405 0.505272
0.098360 0.449409 0.488838
0.101381 0.509880 0.564935
0.115328 0.523186 0.569909
0.217334 0.555932 0.566644
0.463890 0.600641 0.579065
0.668513 0.627894 0.601129
0.750332 0.613092 0.577295
0.807523 0.594842 0.550103
0.842313 0.640620 0.599145
0.126040 0.532464 0.538079
0.131746 0.587640 0.601617
0.143435 0.600763 0.599573
0.231312 0.631861 0.592798
0.480476 0.692592 0.612909
0.713649 0.731167 0.632258
0.828885 0.752895 0.663813
0.881559 0.746700 0.647608
0.892088 0.748440 0.674952
0.152926 0.600366 0.580713
0.160037 0.640650 0.621241
0.195727 0.662623 0.619837
0.302937 0.700496 0.618982
0.528740 0.755306 0.622675
0.736751 0.795316 0.638819
0.848783 0.820920 0.688014
0.910491 0.834104 0.715908
0.917479 0.816251 0.727871
0.187259 0.657282 0.611444
0.204913 0.674586 0.619348
0.276081 0.703792 0.628779
0.443442 0.754147 0.649104
0.600015 0.790158 0.668299
0.743770 0.823636 0.696773
0.833188 0.845640 0.725551
0.893217 0.859525 0.750912
0.928038 0.868406 0.768002
0.033783 0.036347 0.206119
0.034424 0.036530 0.213230
0.043366 0.038453 0.236118
0.077546 0.041169 0.257298
0.160616 0.041321 0.265904
0.263188 0.041382 0.273320
0.345892 0.042725 0.282017
0.400031 0.045350 0.289403
0.452094 0.049683 0.303136
0.038300 0.063569 0.267247
0.034577 0.036774 0.223514
0.035889 0.037079 0.228397
0.060883 0.039979 0.256138
0.151965 0.041688 0.279088
0.277562 0.041505 0.297124
0.383124 0.044190 0.315068
0.448096 0.050080 0.323033
0.518517 0.081636 0.352361
0.042695 0.149660 0.346380
0.041382 0.091554 0.326513
0.039368 0.050141 0.282078
0.048371 0.047608 0.276005
0.141833 0.054139 0.309209
0.296330 0.058930 0.336736
0.438422 0.064942 0.366827
0.513542 0.078431 0.375158
0.585412 0.174655 0.401587
0.047669 0.244480 0.406683
0.046998 0.228611 0.434058
0.044892 0.174166 0.408148
0.044739 0.124834 0.360632
0.128252 0.142748 0.364080
0.322942 0.169390 0.401251
0.489876 0.184710 0.430121
0.577111 0.189670 0.423346
0.653193 0.313497 0.454719
0.056977 0.333623 0.458564
0.054566 0.350713 0.506859
0.051911 0.321035 0.499489
0.056367 0.295735 0.475196
0.149920 0.308461 0.460655
0.388952 0.356710 0.489143
0.569055 0.383963 0.513695
0.650752 0.362387 0.486580
0.729519 0.470054 0.532280
0.074647 0.430579 0.518486
0.071809 0.473487 0.585260
0.067384 0.461585 0.586816
0.082582 0.456733 0.568719
0.235920 0.508568 0.575555
0.491234 0.547173 0.585138
0.672267 0.576257 0.611658
0.745480 0.555077 0.583429
0.812253 0.622858 0.626886
0.103182 0.522942 0.581170
0.089998 0.549859 0.638575
0.081300 0.535149 0.634394
0.105989 0.555138 0.626886
0.272251 0.629053 0.647700
0.560967 0.691646 0.677028
0.757198 0.729152 0.704860
0.834928 0.717464 0.687160
0.877409 0.746914 0.715541
0.119570 0.582300 0.620264
0.102693 0.589899 0.649256
0.098817 0.590204 0.650874
0.142580 0.629511 0.659724
0.309712 0.711391 0.688319
0.559869 0.767910 0.709834
0.765042 0.800320 0.729976
0.882475 0.825589 0.762783
0.910826 0.818387 0.768734
0.121279 0.617914 0.644099
0.122011 0.625299 0.651362
0.155001 0.652644 0.663111
0.290547 0.719356 0.694057
0.465690 0.770352 0.718044
0.644862 0.811399 0.736904
0.784237 0.841733 0.769100
0.876677 0.862058 0.791806
0.923400 0.875090 0.814389
0.034485 0.036591 0.222507
0.034577 0.036591 0.221653
0.039155 0.037842 0.236179
0.063416 0.040436 0.260166
0.131807 0.041596 0.276951
0.224460 0.041260 0.288945
0.307256 0.041657 0.300664
0.383642 0.044007 0.313970
0.442176 0.048615 0.328557
0.039612 0.059907 0.287236
0.036225 0.038361 0.248600
0.035859 0.037446 0.239048
0.049622 0.039582 0.263340
0.116518 0.042420 0.290715
0.227543 0.043214 0.311192
0.328374 0.043946 0.328984
0.431281 0.048432 0.350256
0.506859 0.078187 0.384588
0.043732 0.149935 0.379614
0.042512 0.091157 0.345861
0.040742 0.051240 0.300572
0.043030 0.046571 0.286961
0.102022 0.052522 0.319310
0.222782 0.059358 0.347997
0.356054 0.064240 0.376196
0.489082 0.072358 0.407294
0.564874 0.164187 0.437293
0.047791 0.249912 0.448524
0.046662 0.217563 0.450538
0.045136 0.156466 0.411749
0.043183 0.105898 0.364691
0.067018 0.110536 0.366674
0.202029 0.137942 0.400000
0.379431 0.160708 0.438666
0.530144 0.171298 0.467445
0.612787 0.288792 0.488136
0.052888 0.331701 0.496010
0.051362 0.323857 0.515343
0.049287 0.286381 0.499214
0.047486 0.246479 0.468696
0.054200 0.222553 0.442512
0.192416 0.271687 0.471107
0.424445 0.314260 0.510796
0.586267 0.334310 0.534844
0.688502 0.443809 0.561425
0.061555 0.420142 0.550072
0.058869 0.428229 0.584741
0.056458 0.406226 0.579492
0.055329 0.387823 0.562615
0.086183 0.405859 0.556909
0.260945 0.448356 0.568017
0.521950 0.499718 0.599908
0.678645 0.525551 0.625788
0.776974 0.603357 0.649744
0.078431 0.502037 0.606806
0.070680 0.505302 0.640040
0.066957 0.492653 0.640223
0.066468 0.484352 0.627405
0.107561 0.525658 0.632471
0.367941 0.621210 0.670283
0.619287 0.659083 0.688380
0.778408 0.688380 0.719844
0.852049 0.729274 0.737087
0.089235 0.546990 0.638331
0.071504 0.522728 0.649989
0.066743 0.503807 0.641291
0.069520 0.516228 0.645899
0.113268 0.590555 0.678523
0.358694 0.713924 0.727535
0.652674 0.777615 0.766140
0.841703 0.812345 0.797269
0.907439 0.825345 0.807187
0.092073 0.576135 0.656092
0.085237 0.566491 0.652491
0.095949 0.586084 0.661128
0.152911 0.648432 0.688746
0.321340 0.727474 0.723568
0.545144 0.793942 0.759701
0.719081 0.833188 0.798062
0.858732 0.863828 0.831296
0.920653 0.879301 0.845670
0.036011 0.037659 0.247288
0.035096 0.036988 0.233066
0.038453 0.037873 0.244816
0.057557 0.040253 0.269230
0.115023 0.042298 0.289616
0.200320 0.042512 0.304997
0.278477 0.042206 0.317723
0.351354 0.043366 0.331304
0.431098 0.047578 0.347692
0.041169 0.064271 0.312779
0.040040 0.050874 0.295628
0.039216 0.046143 0.280888
0.052064 0.048371 0.297276
0.111269 0.055116 0.323583
0.202853 0.060151 0.343297
0.296117 0.063569 0.362554
0.387579 0.067506 0.381506
0.485634 0.072633 0.404364
0.044770 0.154177 0.406836
0.043885 0.117098 0.380346
0.042908 0.093080 0.355505
0.045563 0.087984 0.345617
0.088746 0.103853 0.366430
0.194858 0.119265 0.393042
0.318761 0.134585 0.419806
0.430091 0.143709 0.443580
0.531060 0.148501 0.463569
0.047761 0.249454 0.473426
0.046845 0.217685 0.456672
0.045716 0.184878 0.429023
0.045747 0.173922 0.418555
0.067048 0.189960 0.426947
0.185306 0.219455 0.449561
0.345006 0.249149 0.483009
0.484199 0.274540 0.514458
0.578302 0.279088 0.525597
0.051301 0.325231 0.517601
0.049958 0.305455 0.511437
0.049165 0.283665 0.497444
0.051728 0.286519 0.493721
0.104891 0.324758 0.511955
0.238682 0.366766 0.535027
0.423255 0.397726 0.560723
0.560357 0.425589 0.587488
0.653468 0.436271 0.600610
0.056123 0.402136 0.567163
0.054994 0.391882 0.569787
0.054566 0.383368 0.565332
0.060945 0.397040 0.566247
0.162600 0.464973 0.595605
0.337118 0.521126 0.625605
0.521798 0.551247 0.644526
0.653132 0.575128 0.667018
0.737942 0.589166 0.683284
0.065339 0.475868 0.619623
0.063050 0.468025 0.623926
0.061311 0.456031 0.615595
0.068910 0.474159 0.619471
0.193896 0.558373 0.654475
0.432059 0.633967 0.693751
0.616922 0.673457 0.721248
0.748867 0.697566 0.743832
0.817685 0.708949 0.756313
0.071382 0.513542 0.647272
0.067689 0.501915 0.648096
0.066590 0.494881 0.643000
0.074678 0.518029 0.651118
0.188586 0.610590 0.688685
0.435569 0.707210 0.737972
0.652918 0.757504 0.776089
0.811368 0.800229 0.813107
0.886198 0.813870 0.828153
0.070954 0.522606 0.653376
0.066316 0.501945 0.641657
0.066804 0.504662 0.643336
0.076478 0.542748 0.667536
0.180896 0.651194 0.717739
0.418753 0.766537 0.774166
0.649653 0.822751 0.817075
0.824216 0.859953 0.853147
0.922576 0.887449 0.880247
