assets/luts/impulz-fuji-superior-200-fpe-rec709-d8229950.cube
# (C) 2014 VisionColor & Patchflyer [www.vision-color.com]
# Generator: VC Patchmatch v.2.1.1 [64/53]
# All work and no play makes Jack a dull boy.
# LUT generated from: Fuji Superior 200_FPE
LUT_3D_SIZE 9
0.037049 0.041291 0.041779
0.094362 0.049561 0.040772
0.197513 0.057618 0.040833
0.302983 0.064698 0.045502
0.378546 0.072114 0.049134
0.432898 0.076753 0.052338
0.478584 0.088350 0.057008
0.516350 0.095155 0.060304
0.551232 0.109560 0.066957
0.048676 0.083406 0.046540
0.155337 0.117617 0.047517
0.309239 0.147005 0.048707
0.434607 0.174655 0.053223
0.522148 0.198062 0.058900
0.580682 0.215702 0.063111
0.623163 0.233524 0.069520
0.654078 0.244633 0.073854
0.678584 0.249943 0.080323
0.101686 0.182101 0.052094
0.261784 0.246616 0.057038
0.436774 0.295354 0.060731
0.550973 0.322972 0.072328
0.638727 0.349310 0.080476
0.695064 0.370367 0.089326
0.734524 0.386206 0.097353
0.761746 0.396490 0.105165
0.783902 0.398535 0.110079
0.245960 0.316503 0.062440
0.417960 0.380529 0.077394
0.572091 0.433448 0.099092
0.664195 0.459144 0.109407
0.732631 0.472602 0.118013
0.777188 0.486732 0.126223
0.811582 0.499947 0.135744
0.832822 0.507866 0.141146
0.847837 0.505241 0.142916
0.420157 0.442206 0.080201
0.557610 0.492988 0.106538
0.681819 0.535607 0.136751
0.766354 0.564202 0.157290
0.812741 0.576440 0.163790
0.844297 0.580835 0.168338
0.863249 0.585260 0.174899
0.876646 0.589410 0.178531
0.888640 0.586664 0.175875
0.552544 0.533074 0.114717
0.646571 0.566735 0.141909
0.743587 0.601465 0.168887
0.818662 0.626398 0.190982
0.866178 0.642145 0.204288
0.883207 0.649256 0.207858
0.897002 0.648554 0.211673
0.902586 0.647700 0.211673
0.909972 0.645228 0.206271
0.645624 0.597375 0.148104
0.716243 0.622736 0.172366
0.795346 0.650050 0.194400
0.855344 0.672175 0.215335
0.891691 0.686336 0.233616
0.908873 0.694820 0.241032
0.918029 0.699245 0.246860
0.920470 0.695399 0.245182
0.925048 0.691554 0.239261
0.708278 0.640497 0.172000
0.769131 0.665003 0.196536
0.827634 0.686244 0.216983
0.880034 0.707240 0.236820
0.903258 0.718898 0.254551
0.918761 0.727504 0.267979
0.926574 0.732052 0.275608
0.931548 0.735348 0.276921
0.935332 0.732662 0.271397
0.759060 0.671260 0.174411
0.810361 0.698604 0.204410
0.859586 0.719112 0.230167
0.900267 0.739010 0.256413
0.917327 0.750546 0.271977
0.927031 0.758633 0.289219
0.932830 0.764035 0.299809
0.936858 0.766720 0.305180
0.940246 0.769528 0.304631
0.031403 0.042603 0.082979
0.074861 0.048035 0.090730
0.175967 0.055390 0.088594
0.278538 0.059205 0.091432
0.353185 0.060334 0.090211
0.407477 0.061616 0.093812
0.450202 0.067506 0.094911
0.488563 0.071656 0.100099
0.521263 0.077821 0.103548
0.034760 0.098085 0.104616
0.115480 0.129915 0.122560
0.279759 0.150759 0.116030
0.396918 0.163241 0.116365
0.478248 0.173526 0.118135
0.535973 0.186648 0.120699
0.577966 0.198123 0.126589
0.613977 0.208743 0.132692
0.645624 0.212680 0.137911
0.071839 0.210849 0.137209
0.217868 0.260838 0.138918
0.403235 0.310033 0.139986
0.521660 0.322972 0.137972
0.600977 0.336889 0.145174
0.665370 0.354772 0.146395
0.698726 0.362860 0.158999
0.730129 0.368048 0.160006
0.748745 0.356909 0.163912
0.182925 0.335576 0.170443
0.353338 0.387701 0.147280
0.512413 0.436591 0.165255
0.623102 0.460639 0.180240
0.692775 0.465492 0.186954
0.748714 0.478370 0.195071
0.782406 0.487373 0.201968
0.804044 0.488777 0.203006
0.826535 0.478950 0.197421
0.336187 0.452735 0.202609
0.474159 0.489326 0.165743
0.609003 0.531823 0.194156
0.714565 0.563073 0.219242
0.776364 0.575097 0.232853
0.813565 0.573632 0.240604
0.841978 0.581537 0.245945
0.859983 0.583459 0.246983
0.869810 0.568872 0.240391
0.452155 0.536736 0.242924
0.568475 0.562310 0.197055
0.672816 0.593988 0.221866
0.767880 0.624475 0.251286
0.832242 0.642817 0.272221
0.858579 0.649348 0.283696
0.874418 0.644312 0.286168
0.885191 0.644739 0.287510
0.896574 0.638025 0.278141
0.542290 0.599878 0.272648
0.636622 0.615686 0.215763
0.727291 0.643580 0.241001
0.807309 0.669123 0.266239
0.858854 0.687434 0.295293
0.884733 0.696529 0.311650
0.900450 0.700160 0.323156
0.908782 0.698360 0.324224
0.914580 0.690578 0.316136
0.596033 0.640345 0.291386
0.693629 0.655116 0.224674
0.766567 0.680629 0.253910
0.829892 0.703578 0.282811
0.876249 0.721462 0.310643
0.897246 0.731899 0.334600
0.913115 0.737301 0.349462
0.920439 0.739864 0.357794
0.928405 0.736996 0.349798
0.640375 0.672450 0.276799
0.739437 0.685023 0.204410
0.801968 0.709560 0.237003
0.858305 0.733181 0.277256
0.892912 0.751369 0.310155
0.912169 0.763790 0.339971
0.922332 0.771878 0.364172
0.929351 0.775509 0.377600
0.936950 0.777615 0.383032
0.030732 0.041901 0.126802
0.051453 0.043488 0.144137
0.166781 0.052674 0.160067
0.273136 0.057557 0.168917
0.355016 0.059419 0.172702
0.409674 0.061158 0.172183
0.452552 0.066346 0.174044
0.487739 0.069459 0.174319
0.519921 0.072511 0.170871
0.035554 0.102388 0.172793
0.075044 0.122225 0.191318
0.227237 0.136141 0.210025
0.349798 0.143465 0.203494
0.432593 0.149874 0.198276
0.495155 0.156802 0.197787
0.535973 0.164553 0.194583
0.574945 0.165774 0.193332
0.612390 0.169009 0.187564
0.045838 0.210910 0.226841
0.119234 0.250889 0.242283
0.307988 0.291783 0.259129
0.442573 0.305943 0.261051
0.531090 0.318608 0.262852
0.593835 0.327947 0.261448
0.640223 0.337224 0.262089
0.681758 0.333745 0.253086
0.714595 0.318517 0.236423
0.101686 0.326482 0.268650
0.235599 0.378119 0.272496
0.407630 0.415198 0.284611
0.539849 0.445808 0.303014
0.625330 0.455329 0.309148
0.687678 0.466468 0.307561
0.729976 0.471901 0.308324
0.766323 0.466438 0.296880
0.790249 0.442725 0.271977
0.218997 0.437659 0.312078
0.349462 0.477638 0.299107
0.498817 0.511193 0.313268
0.613672 0.539666 0.335576
0.698543 0.558465 0.351904
0.752682 0.563012 0.353887
0.791745 0.572351 0.356329
0.820920 0.564477 0.343999
0.841459 0.541741 0.314488
0.328481 0.523522 0.352697
0.452216 0.553185 0.330480
0.573388 0.578820 0.328832
0.678126 0.609064 0.357214
0.760861 0.631769 0.378912
0.808408 0.642176 0.392645
0.833646 0.640314 0.396551
0.861448 0.642603 0.387457
0.876616 0.624079 0.359655
0.412543 0.584100 0.376104
0.524132 0.606989 0.344610
0.635035 0.634028 0.347112
0.719875 0.658198 0.375402
0.796262 0.682612 0.404089
0.841611 0.696132 0.420203
0.869535 0.701778 0.431769
0.886625 0.698665 0.425147
0.901701 0.689632 0.404303
0.480568 0.629389 0.392920
0.584131 0.651453 0.350378
0.683131 0.676417 0.340093
0.756497 0.698817 0.372625
0.824918 0.720913 0.400549
0.864164 0.737209 0.429053
0.892973 0.747158 0.446448
0.908629 0.749660 0.457832
0.921233 0.745174 0.443061
0.534234 0.667475 0.389868
0.637720 0.686946 0.328679
0.726528 0.709682 0.305577
0.789456 0.734005 0.350164
0.849332 0.753414 0.385534
0.879911 0.770047 0.420356
0.906828 0.782895 0.447547
0.920501 0.789151 0.467597
0.932616 0.791257 0.476173
0.032807 0.047578 0.164828
0.044587 0.044617 0.184237
0.127169 0.052522 0.208438
0.247684 0.055177 0.212009
0.340246 0.057404 0.223667
0.399847 0.059052 0.226932
0.442176 0.064363 0.230350
0.478340 0.067231 0.232303
0.511467 0.068482 0.227756
0.038392 0.115785 0.223545
0.061280 0.116762 0.233524
0.151308 0.122621 0.248631
0.306279 0.134676 0.266117
0.397223 0.140414 0.265538
0.461006 0.145846 0.264042
0.509911 0.155673 0.267063
0.548791 0.154208 0.261173
0.588830 0.152560 0.249424
0.047822 0.208255 0.276585
0.088411 0.232547 0.293370
0.223087 0.265171 0.313115
0.377478 0.278355 0.325872
0.471901 0.285954 0.321141
0.541436 0.294621 0.319371
0.592401 0.300664 0.315740
0.636347 0.293980 0.299992
0.676265 0.275639 0.279271
0.067475 0.309636 0.332067
0.132998 0.347936 0.346716
0.289982 0.386297 0.362890
0.459266 0.421668 0.385962
0.547753 0.430579 0.386664
0.614252 0.438911 0.386236
0.667445 0.443732 0.382849
0.713588 0.434394 0.367285
0.750759 0.404150 0.331182
0.131136 0.413153 0.376623
0.234928 0.453529 0.384314
0.382208 0.484352 0.390784
0.524865 0.511528 0.416938
0.621424 0.534020 0.433173
0.686671 0.542351 0.433417
0.732998 0.548241 0.432105
0.777859 0.542290 0.415167
0.809873 0.511254 0.372229
0.211810 0.495888 0.414893
0.316518 0.529747 0.411963
0.453681 0.558556 0.423316
0.575891 0.582086 0.444617
0.665919 0.603357 0.461555
0.742031 0.623652 0.478828
0.784482 0.628840 0.477974
0.823209 0.627558 0.464485
0.856046 0.607080 0.423835
0.285496 0.560784 0.445106
0.400153 0.588220 0.431739
0.521965 0.616144 0.433448
0.633326 0.640101 0.456703
0.707240 0.660822 0.483680
0.785489 0.684108 0.503624
0.823911 0.692561 0.514488
0.857450 0.694759 0.506950
0.889158 0.687190 0.474098
0.347112 0.608759 0.465156
0.462776 0.636561 0.444831
0.574853 0.663172 0.442695
0.684627 0.696193 0.460090
0.749905 0.713710 0.489265
0.817227 0.735042 0.513542
0.858396 0.749508 0.532067
0.887449 0.753811 0.542016
0.913481 0.754147 0.521660
0.416724 0.653315 0.474891
0.526726 0.681208 0.436805
0.630579 0.709529 0.423713
0.725429 0.738888 0.422583
0.787137 0.757412 0.460578
0.844663 0.776150 0.495583
0.881651 0.792386 0.525383
0.907530 0.803403 0.549218
0.929564 0.807279 0.559838
0.033906 0.048920 0.196994
0.040467 0.042329 0.205570
0.092744 0.049866 0.234318
0.202976 0.053437 0.243503
0.307683 0.054108 0.247379
0.373205 0.055482 0.256016
0.418677 0.059937 0.263706
0.457191 0.063935 0.266758
0.494911 0.066621 0.262272
0.039582 0.120241 0.263157
0.047364 0.110018 0.262333
0.110933 0.110201 0.268986
0.236667 0.125277 0.289586
0.358038 0.131594 0.301793
0.423774 0.135103 0.303502
0.477791 0.145510 0.308080
0.523644 0.145449 0.306737
0.568200 0.143404 0.292912
0.046113 0.210758 0.317723
0.070405 0.224369 0.330999
0.158694 0.241611 0.339452
0.285924 0.249485 0.347326
0.418708 0.264836 0.360571
0.490974 0.272679 0.360540
0.550225 0.281773 0.363043
0.599970 0.274998 0.352056
0.647211 0.255833 0.327337
0.063447 0.298741 0.366888
0.102144 0.323796 0.381659
0.220340 0.357671 0.395453
0.373419 0.390723 0.411261
0.494240 0.403143 0.422614
0.562768 0.409155 0.421149
0.620569 0.412787 0.414954
0.674403 0.401251 0.399054
0.718257 0.369207 0.364630
0.090883 0.392187 0.420752
0.147372 0.424048 0.433204
0.279820 0.456153 0.441932
0.438605 0.487587 0.458259
0.558831 0.514366 0.479316
0.624903 0.518883 0.478126
0.682765 0.520104 0.472541
0.734676 0.511284 0.457679
0.778134 0.480110 0.415351
0.137453 0.472267 0.457771
0.209384 0.503014 0.462776
0.354559 0.535851 0.470985
0.490517 0.559716 0.487221
0.602747 0.583429 0.507897
0.684489 0.605737 0.526116
0.738216 0.607660 0.522545
0.790677 0.607172 0.510674
0.834592 0.588006 0.469551
0.177462 0.534295 0.486122
0.258640 0.561791 0.483040
0.404150 0.595850 0.495308
0.530907 0.620905 0.511498
0.643305 0.647272 0.533288
0.717754 0.667872 0.552392
0.787625 0.686854 0.570947
0.834134 0.689448 0.560327
0.875792 0.682765 0.528527
0.232731 0.585473 0.506706
0.326390 0.612940 0.497688
0.465309 0.645319 0.505486
0.584558 0.678645 0.520073
0.691646 0.710781 0.545495
0.755978 0.729061 0.570092
0.825986 0.751888 0.592889
0.870848 0.760281 0.604669
0.908171 0.764645 0.588251
0.292851 0.635737 0.521324
0.394537 0.662654 0.501488
0.522332 0.695430 0.502434
0.623987 0.726497 0.507561
0.731991 0.762539 0.520409
0.791531 0.779629 0.559625
0.851896 0.800809 0.590204
0.895872 0.818326 0.620233
0.926818 0.824826 0.635004
0.035676 0.053101 0.224765
0.037964 0.042542 0.222812
0.071931 0.048585 0.248936
0.159518 0.051820 0.262150
0.264073 0.052705 0.269291
0.341772 0.052461 0.275029
0.389288 0.057252 0.282506
0.433661 0.061189 0.289433
0.479377 0.064363 0.291051
0.040742 0.125032 0.296208
0.044526 0.108858 0.288060
0.072969 0.097963 0.281132
0.183642 0.113619 0.300053
0.301015 0.125399 0.317143
0.388769 0.127779 0.327276
0.444343 0.137179 0.331945
0.497169 0.138674 0.334661
0.548119 0.137484 0.327825
0.046815 0.214969 0.353338
0.057313 0.213870 0.358251
0.113176 0.224094 0.354467
0.212879 0.223880 0.357916
0.346487 0.242496 0.373754
0.445228 0.253635 0.384253
0.505516 0.262119 0.386664
0.563989 0.260563 0.382177
0.620111 0.242771 0.363836
0.058198 0.294743 0.397864
0.079835 0.309361 0.409644
0.159106 0.338354 0.417517
0.302174 0.365393 0.428016
0.411734 0.371023 0.434272
0.515740 0.389563 0.448981
0.573968 0.392248 0.446174
0.632624 0.381231 0.432319
0.683925 0.347356 0.399451
0.081178 0.376959 0.444007
0.117067 0.396887 0.454719
0.216968 0.428626 0.463050
0.364797 0.460365 0.475013
0.480674 0.483238 0.493355
0.577478 0.497566 0.506249
0.635615 0.496376 0.497169
0.694331 0.484474 0.477791
0.743526 0.448493 0.439551
0.105104 0.455482 0.491096
0.151156 0.481636 0.500908
0.265476 0.512291 0.506249
0.416434 0.541650 0.517815
0.535210 0.566979 0.537621
0.632502 0.588708 0.559106
0.692622 0.588342 0.552666
0.751125 0.579370 0.535851
0.805600 0.557183 0.500267
0.134432 0.516869 0.519402
0.190127 0.540703 0.520806
0.308965 0.574334 0.526909
0.454856 0.604273 0.543023
0.573373 0.630884 0.562860
0.669154 0.655085 0.586450
0.745144 0.675868 0.606806
0.806363 0.680812 0.598810
0.859464 0.672877 0.571038
0.157137 0.563012 0.538933
0.217441 0.586114 0.535637
0.338064 0.622339 0.544976
0.484337 0.660304 0.563806
0.602457 0.692775 0.583795
0.703304 0.722591 0.610162
0.777310 0.743526 0.634913
0.845151 0.760769 0.653071
0.898741 0.767575 0.641718
0.200565 0.613794 0.558068
0.275669 0.639857 0.550958
0.391501 0.676814 0.559350
0.516854 0.714321 0.576104
0.623331 0.749447 0.594751
0.735927 0.786038 0.612634
0.805356 0.804715 0.644404
0.870665 0.826108 0.677241
0.919188 0.839109 0.700557
0.036988 0.057679 0.251987
0.038056 0.042664 0.235050
0.061311 0.046113 0.254490
0.124636 0.051026 0.275364
0.223178 0.053071 0.284825
0.304021 0.053742 0.292943
0.366827 0.053712 0.301030
0.411536 0.057221 0.308812
0.461311 0.062287 0.314366
0.041444 0.130037 0.327398
0.040894 0.107515 0.311162
0.061219 0.093477 0.296757
0.131350 0.107729 0.309087
0.249821 0.120607 0.327764
0.340459 0.126467 0.340917
0.413886 0.129091 0.351263
0.467475 0.130220 0.356695
0.522820 0.130983 0.355016
0.046693 0.220615 0.385657
0.049653 0.209781 0.380499
0.085023 0.214389 0.372747
0.147936 0.207828 0.365576
0.281788 0.226047 0.381231
0.385412 0.240208 0.395727
0.466407 0.247379 0.405646
0.524651 0.244877 0.404242
0.588830 0.230533 0.393225
0.055390 0.295933 0.428199
0.063203 0.297459 0.430152
0.126436 0.320195 0.433997
0.220813 0.338018 0.437446
0.322713 0.338537 0.439521
0.439857 0.357946 0.454963
0.528435 0.372595 0.465858
0.586999 0.361486 0.456306
0.647791 0.328984 0.431617
0.066712 0.365942 0.466773
0.083711 0.378668 0.473243
0.164309 0.408392 0.480476
0.280598 0.435706 0.490517
0.400931 0.452506 0.499306
0.489509 0.459510 0.506889
0.585229 0.478248 0.521721
0.647974 0.464088 0.506981
0.702724 0.422797 0.470375
0.086336 0.436774 0.508690
0.112093 0.452216 0.512840
0.204959 0.479927 0.517296
0.333104 0.513726 0.531273
0.453910 0.535180 0.545007
0.550713 0.555413 0.563012
0.640314 0.568597 0.575647
0.706386 0.555291 0.559136
0.762539 0.520378 0.520867
0.106233 0.502098 0.548699
0.139803 0.520256 0.550774
0.240848 0.552911 0.556481
0.369528 0.582788 0.568444
0.499107 0.612573 0.589502
0.597925 0.637018 0.612665
0.701717 0.666651 0.640528
0.771145 0.663661 0.630671
0.838315 0.650965 0.605707
0.122377 0.544427 0.567102
0.152712 0.564111 0.567620
0.246555 0.598688 0.573022
0.380941 0.639124 0.594415
0.509163 0.673671 0.616663
0.618860 0.705013 0.642390
0.733883 0.739742 0.673701
0.822660 0.761105 0.694179
0.891051 0.764126 0.688930
0.144839 0.592279 0.588800
0.178317 0.610620 0.583612
0.278874 0.652461 0.596582
0.391836 0.694240 0.619501
0.514229 0.734279 0.642237
0.622827 0.769924 0.668360
0.740627 0.806363 0.694789
0.840604 0.832181 0.728145
0.918303 0.854215 0.761349
0.038453 0.060945 0.273625
0.037171 0.044404 0.249119
0.049195 0.046296 0.259892
0.103914 0.051331 0.281071
0.181369 0.053651 0.295384
0.265965 0.054597 0.306981
0.335088 0.053956 0.317205
0.394995 0.055512 0.327977
0.448005 0.060761 0.336370
0.042512 0.136873 0.352819
0.041810 0.109468 0.331853
0.046815 0.084596 0.304997
0.095888 0.094026 0.311589
0.187381 0.104860 0.332921
0.281285 0.112612 0.348669
0.364996 0.120027 0.362982
0.442023 0.122957 0.377234
0.501976 0.125368 0.381750
0.046632 0.225010 0.413550
0.047150 0.202548 0.400305
0.057557 0.190860 0.382330
0.106081 0.177493 0.370550
0.188464 0.193484 0.379644
0.297063 0.206973 0.398138
0.395697 0.219730 0.413977
0.481514 0.227878 0.425269
0.551965 0.215457 0.419989
0.051942 0.294682 0.452644
0.053346 0.283970 0.448005
0.068452 0.284306 0.441230
0.130617 0.294530 0.440070
0.199115 0.292119 0.435981
0.330297 0.310796 0.450019
0.443580 0.329717 0.468208
0.537377 0.341497 0.480812
0.604883 0.310002 0.461372
0.061128 0.362585 0.490181
0.070497 0.361395 0.489570
0.095247 0.366552 0.487037
0.170153 0.388006 0.493507
0.260731 0.403082 0.500511
0.358129 0.406012 0.503563
0.487984 0.426490 0.519219
0.592065 0.444099 0.533104
0.656489 0.402472 0.504875
0.070192 0.422095 0.523766
0.080720 0.424048 0.523705
0.120516 0.441016 0.526177
0.222507 0.471901 0.538567
0.323735 0.495430 0.552209
0.422736 0.509758 0.562432
0.537316 0.517937 0.570489
0.647303 0.534478 0.587335
0.716304 0.500877 0.558434
0.086671 0.480232 0.558526
0.106355 0.490578 0.560388
0.150149 0.505608 0.560357
0.257023 0.539849 0.575250
0.373831 0.575067 0.597528
0.483101 0.600183 0.617182
0.602869 0.625727 0.637018
0.718013 0.641352 0.658534
0.796292 0.619654 0.630732
0.101472 0.531395 0.592981
0.119936 0.538750 0.589441
0.175875 0.571130 0.596277
0.282658 0.606134 0.612726
0.399008 0.646204 0.640558
0.511009 0.678492 0.666621
0.645228 0.714778 0.696223
0.781430 0.755856 0.734951
0.883268 0.767452 0.736843
0.111666 0.568475 0.611139
0.127626 0.581476 0.609155
0.174624 0.614282 0.620050
0.274113 0.663142 0.649287
0.379385 0.713283 0.681300
0.495735 0.750576 0.704341
0.641108 0.791470 0.732876
0.798032 0.836057 0.780179
0.916503 0.869810 0.819181
0.039460 0.067231 0.293919
0.037324 0.042420 0.255711
0.043610 0.042084 0.258701
0.073091 0.046296 0.281529
0.137881 0.048554 0.298039
0.210086 0.051179 0.313939
0.289830 0.052949 0.328984
0.355322 0.054353 0.341466
0.431189 0.057984 0.358404
0.043244 0.133730 0.374670
0.042267 0.102754 0.347356
0.042847 0.075502 0.313756
0.057923 0.078035 0.310674
0.123659 0.087892 0.332799
0.202060 0.097810 0.352361
0.294591 0.106325 0.370001
0.381476 0.110536 0.386877
0.475502 0.117342 0.407752
0.046082 0.219852 0.433143
0.045045 0.185550 0.411933
0.046754 0.160983 0.388098
0.054200 0.139132 0.366400
0.100710 0.149630 0.369299
0.185092 0.163485 0.391241
0.288670 0.176944 0.411170
0.401923 0.190402 0.433478
0.509819 0.199588 0.451331
0.049500 0.286137 0.473884
0.048463 0.259098 0.458259
0.050690 0.239567 0.442786
0.055207 0.223239 0.428748
0.080995 0.213107 0.418830
0.176638 0.238712 0.432471
0.294804 0.259068 0.454658
0.431983 0.277287 0.479713
0.550195 0.288518 0.496773
0.053712 0.346319 0.508293
0.053651 0.329046 0.499702
0.061036 0.319402 0.490639
0.068452 0.309880 0.482643
0.080293 0.296788 0.476448
0.158389 0.301060 0.476783
0.294774 0.333043 0.497810
0.467170 0.363684 0.527214
0.595361 0.379522 0.545342
0.060365 0.403204 0.542992
0.059998 0.389288 0.534478
0.072053 0.389258 0.531823
0.086885 0.395605 0.533196
0.110231 0.402441 0.538231
0.194003 0.404761 0.542870
0.317327 0.421241 0.551629
0.508843 0.456123 0.580804
0.655512 0.480293 0.604517
0.068757 0.459510 0.576806
0.069093 0.448524 0.566888
0.091188 0.456397 0.568261
0.114076 0.471870 0.575219
0.163027 0.496010 0.590204
0.266789 0.529290 0.613733
0.410559 0.554528 0.634455
0.570001 0.569635 0.648615
0.737148 0.600946 0.681483
0.077852 0.504204 0.605890
0.080537 0.501823 0.599603
0.102480 0.517021 0.602991
0.133822 0.538293 0.613062
0.190372 0.572656 0.634516
0.304753 0.614130 0.664485
0.489143 0.668879 0.704494
0.684871 0.713893 0.743740
0.834501 0.738460 0.772885
0.086976 0.542229 0.631434
0.089448 0.540124 0.623133
0.113649 0.564294 0.632227
0.142763 0.595026 0.649317
0.194675 0.637079 0.676753
0.301823 0.688869 0.711574
0.483955 0.760616 0.759793
0.707485 0.825040 0.817258
0.922576 0.887449 0.880247
