assets/luts/impulz-fujicolor-200-fpe-log-1faf4ff2.cube
# (C) 2014 VisionColor & Patchflyer [www.vision-color.com]
# Generator: VC Patchmatch v.2.1.1 [64/53]
# All work and no play makes Jack a dull boy.
# LUT generated from: FujiColor 200_FPE
LUT_3D_SIZE 9
0.033173 0.035981 0.036316
0.079927 0.055116 0.040253
0.187259 0.084962 0.037049
0.293675 0.115114 0.039765
0.356176 0.127932 0.042939
0.402899 0.136233 0.045350
0.435004 0.141756 0.046906
0.472023 0.150515 0.048768
0.536187 0.173068 0.051575
0.033600 0.065797 0.063783
0.074861 0.078737 0.050019
0.197147 0.123629 0.042542
0.324712 0.159213 0.041596
0.423163 0.180026 0.046540
0.485573 0.195071 0.049989
0.521782 0.203128 0.051728
0.567742 0.221225 0.054932
0.631983 0.258000 0.060212
0.057191 0.137453 0.123415
0.110933 0.151980 0.082673
0.209018 0.171847 0.054139
0.349889 0.210513 0.043427
0.468956 0.239811 0.049012
0.568658 0.273808 0.057038
0.635676 0.298070 0.062623
0.688502 0.329107 0.070192
0.731411 0.368597 0.081819
0.102937 0.225132 0.186557
0.193790 0.255985 0.121553
0.314900 0.277836 0.069917
0.398978 0.285252 0.056458
0.526009 0.323705 0.058289
0.634241 0.363317 0.070893
0.713130 0.393530 0.080385
0.764431 0.427619 0.098207
0.792264 0.464057 0.123598
0.137667 0.321386 0.255131
0.270344 0.365332 0.172580
0.428122 0.396246 0.112123
0.527077 0.407507 0.092012
0.591531 0.413733 0.089357
0.696773 0.448920 0.104005
0.772061 0.481819 0.123262
0.817075 0.515953 0.154330
0.835996 0.547570 0.194949
0.149081 0.402747 0.321752
0.323003 0.456641 0.226810
0.520836 0.494789 0.172915
0.625879 0.507866 0.151217
0.686854 0.509453 0.142611
0.749386 0.524498 0.156619
0.813291 0.557610 0.194980
0.846494 0.587732 0.238437
0.857633 0.613031 0.284642
0.132723 0.454597 0.386877
0.320287 0.517327 0.302434
0.558251 0.556390 0.227573
0.683314 0.572961 0.201907
0.749386 0.577264 0.203311
0.799008 0.594751 0.238682
0.836240 0.619745 0.291600
0.867704 0.653315 0.348424
0.875090 0.671717 0.383886
0.118166 0.490791 0.446510
0.287633 0.556420 0.383551
0.547906 0.597620 0.292851
0.695766 0.607355 0.236637
0.781674 0.618555 0.247044
0.834653 0.648585 0.316289
0.863493 0.685359 0.409583
0.875486 0.705013 0.463752
0.880125 0.719203 0.494728
0.134310 0.533959 0.503319
0.292058 0.591821 0.457984
0.529717 0.625513 0.373022
0.668818 0.624475 0.275944
0.767300 0.626642 0.249851
0.838071 0.660395 0.324834
0.871153 0.711513 0.466590
0.876951 0.740566 0.552819
0.878935 0.749844 0.576623
0.029023 0.040162 0.055756
0.062074 0.057404 0.079988
0.170169 0.094118 0.096132
0.280400 0.124514 0.102571
0.367529 0.138003 0.094087
0.420478 0.138857 0.090089
0.458534 0.133364 0.083040
0.494270 0.129915 0.081819
0.541650 0.148135 0.096681
0.033997 0.077089 0.096162
0.075257 0.092805 0.096315
0.231266 0.137362 0.084810
0.360174 0.155581 0.058808
0.434516 0.157961 0.050355
0.467384 0.155428 0.048219
0.486793 0.156100 0.049348
0.534936 0.172274 0.051514
0.624353 0.228031 0.079286
0.050904 0.151034 0.164279
0.107851 0.179812 0.159365
0.255741 0.210239 0.097841
0.413138 0.233158 0.065888
0.526299 0.253361 0.061433
0.589929 0.257206 0.057801
0.622339 0.265873 0.061006
0.665003 0.291966 0.065003
0.724819 0.350042 0.109041
0.082399 0.236881 0.232853
0.151797 0.290410 0.229313
0.352468 0.340642 0.136446
0.486473 0.352300 0.098848
0.610666 0.373419 0.087800
0.697749 0.386633 0.083864
0.746120 0.405371 0.095491
0.772091 0.428779 0.104677
0.796231 0.470314 0.173709
0.111391 0.326024 0.305730
0.164889 0.389899 0.303319
0.446220 0.464820 0.196078
0.605478 0.484169 0.157382
0.691234 0.491051 0.150362
0.775235 0.506584 0.155550
0.818448 0.526390 0.171969
0.833799 0.542199 0.191943
0.840543 0.563531 0.253391
0.124849 0.399878 0.374548
0.141909 0.452308 0.377691
0.456291 0.535637 0.259861
0.668208 0.567041 0.212070
0.760128 0.577447 0.220005
0.822538 0.602014 0.267887
0.856748 0.621973 0.294408
0.865415 0.631769 0.314305
0.866697 0.642084 0.355840
0.114076 0.446815 0.432532
0.117220 0.490913 0.441627
0.407034 0.577203 0.343297
0.668879 0.608667 0.254520
0.793027 0.630060 0.270298
0.853849 0.670253 0.371466
0.875944 0.702785 0.456794
0.879820 0.704250 0.456184
0.878508 0.701534 0.459815
0.105440 0.483680 0.485023
0.137026 0.533654 0.498787
0.387243 0.606928 0.427680
0.630762 0.628107 0.309972
0.763851 0.632074 0.268193
0.849149 0.678248 0.379156
0.876585 0.734340 0.531853
0.878721 0.749599 0.576989
0.877958 0.743954 0.561242
0.132967 0.537194 0.541650
0.209659 0.589136 0.539361
0.452094 0.641840 0.485634
0.637354 0.657923 0.400702
0.752743 0.661311 0.343267
0.839689 0.692073 0.408759
0.871000 0.737301 0.540337
0.876921 0.767391 0.621210
0.877623 0.771481 0.630854
0.029694 0.048188 0.089174
0.041901 0.063172 0.118196
0.138064 0.097230 0.156435
0.256138 0.129366 0.176394
0.357214 0.146822 0.184512
0.422858 0.153292 0.188907
0.463172 0.142672 0.183017
0.498451 0.132631 0.182101
0.545647 0.146242 0.196994
0.033600 0.092531 0.137850
0.045441 0.088716 0.129915
0.168948 0.138918 0.189181
0.326299 0.164523 0.185489
0.418860 0.168490 0.170993
0.465003 0.154147 0.146120
0.498085 0.138643 0.128542
0.537163 0.146639 0.131411
0.613428 0.203128 0.187198
0.045289 0.165133 0.210300
0.084413 0.199039 0.232395
0.197848 0.201694 0.199435
0.385779 0.231693 0.179477
0.501762 0.225559 0.132784
0.563012 0.213352 0.095216
0.596155 0.209354 0.071229
0.629908 0.229770 0.079469
0.714046 0.320470 0.193606
0.068238 0.251987 0.284398
0.108888 0.301854 0.310887
0.229526 0.311192 0.264683
0.447532 0.356268 0.207462
0.597757 0.375952 0.175631
0.690242 0.377417 0.142672
0.740475 0.386816 0.121798
0.757778 0.401587 0.134859
0.798215 0.462043 0.246342
0.085939 0.333074 0.355291
0.121218 0.387823 0.381506
0.247013 0.430640 0.332708
0.545632 0.495323 0.266331
0.675883 0.508278 0.239490
0.773281 0.518425 0.227039
0.821775 0.531395 0.214832
0.830594 0.542626 0.237751
0.844236 0.578851 0.342763
0.097902 0.398840 0.418402
0.111238 0.442390 0.440497
0.209781 0.502892 0.399512
0.597833 0.588800 0.317021
0.756832 0.613458 0.322911
0.828794 0.633997 0.355657
0.864469 0.643915 0.358831
0.866972 0.650385 0.374365
0.869017 0.673426 0.452918
0.095155 0.441444 0.468421
0.101808 0.480903 0.494118
0.167300 0.540154 0.466987
0.567269 0.628962 0.374914
0.778012 0.661555 0.349966
0.858030 0.698024 0.444099
0.876280 0.726711 0.521874
0.877562 0.723507 0.518059
0.875425 0.729732 0.545403
0.098177 0.483925 0.518791
0.134432 0.538415 0.550805
0.207279 0.588342 0.532647
0.538827 0.651698 0.456580
0.731914 0.666255 0.370764
0.845396 0.708522 0.456550
0.875395 0.756771 0.591272
0.876799 0.769619 0.628046
0.875486 0.766659 0.625757
0.138827 0.546319 0.574639
0.194675 0.588586 0.584741
0.345525 0.643885 0.579767
0.585748 0.693141 0.555413
0.735653 0.714199 0.518456
0.834684 0.740536 0.549737
0.868925 0.771969 0.634394
0.873472 0.788571 0.681117
0.874083 0.787015 0.677211
0.030884 0.059998 0.122194
0.037110 0.075441 0.151186
0.104616 0.100618 0.187045
0.212650 0.131777 0.220096
0.330602 0.152682 0.237522
0.411444 0.161959 0.249699
0.458167 0.157717 0.251102
0.497047 0.149416 0.252872
0.540856 0.151766 0.262058
0.035584 0.111421 0.176242
0.035706 0.093782 0.156954
0.090028 0.122011 0.207950
0.260075 0.166201 0.261845
0.391974 0.177310 0.263096
0.459815 0.171481 0.254734
0.499458 0.154238 0.242222
0.541772 0.151766 0.239384
0.610834 0.198398 0.276555
0.043427 0.179782 0.245579
0.053071 0.184237 0.248356
0.106111 0.174624 0.222416
0.284245 0.222995 0.291600
0.445960 0.236027 0.280430
0.531304 0.223423 0.259190
0.578546 0.198123 0.231388
0.614527 0.202213 0.226139
0.693843 0.301854 0.316503
0.061463 0.268803 0.329870
0.086976 0.316289 0.373724
0.175570 0.320562 0.348363
0.337163 0.321294 0.325658
0.540505 0.343572 0.300481
0.652857 0.331899 0.256458
0.698421 0.320500 0.220905
0.729580 0.337987 0.225834
0.771786 0.436439 0.353002
0.076448 0.339971 0.393103
0.092134 0.389990 0.437964
0.180270 0.424231 0.423621
0.369940 0.457084 0.396277
0.595010 0.501839 0.374746
0.748989 0.513680 0.335958
0.805478 0.518715 0.308705
0.824735 0.525277 0.318227
0.828092 0.575830 0.436851
0.084108 0.398260 0.449470
0.090211 0.439307 0.488411
0.150027 0.483528 0.480201
0.349447 0.556329 0.449561
0.672938 0.627283 0.444892
0.796582 0.651423 0.464546
0.854307 0.663905 0.453895
0.865293 0.669429 0.464393
0.858732 0.689815 0.543694
0.084047 0.439429 0.494118
0.095247 0.482033 0.531762
0.129091 0.520165 0.534325
0.306386 0.607080 0.506889
0.697093 0.692470 0.498970
0.832822 0.726162 0.544121
0.867369 0.747097 0.589807
0.873411 0.747951 0.593225
0.870054 0.756527 0.634516
0.097230 0.486305 0.539910
0.139895 0.547814 0.583581
0.189639 0.586511 0.593225
0.357977 0.645838 0.575708
0.679362 0.711696 0.552636
0.830014 0.751888 0.585992
0.870237 0.783322 0.666163
0.873411 0.786404 0.680720
0.871611 0.791287 0.698756
0.141543 0.551537 0.591424
0.198764 0.594446 0.613245
0.301793 0.638483 0.624537
0.517205 0.701503 0.647028
0.705013 0.750942 0.662318
0.811399 0.778531 0.679072
0.860197 0.799283 0.716121
0.869749 0.807523 0.740353
0.870695 0.807187 0.738399
0.032471 0.076265 0.148867
0.035340 0.090089 0.175753
0.065370 0.101625 0.207492
0.179660 0.130434 0.244388
0.287175 0.156466 0.275090
0.385504 0.168795 0.290623
0.445411 0.174044 0.300145
0.492561 0.171878 0.308415
0.535790 0.169314 0.316655
0.036225 0.122255 0.201022
0.035279 0.100923 0.180514
0.050324 0.116487 0.221256
0.179660 0.147982 0.274113
0.337133 0.181796 0.316716
0.433783 0.184115 0.316716
0.488289 0.176669 0.313848
0.535210 0.171298 0.313939
0.598016 0.199771 0.336278
0.041382 0.182498 0.269322
0.042206 0.177462 0.269474
0.062226 0.162905 0.235660
0.170138 0.193515 0.303929
0.364477 0.232639 0.349615
0.477211 0.233310 0.342412
0.549554 0.212589 0.331884
0.601740 0.205264 0.326238
0.677546 0.292180 0.385840
0.053834 0.268894 0.349645
0.060273 0.290410 0.376593
0.101228 0.288579 0.357061
0.187930 0.276036 0.344060
0.420600 0.326940 0.405737
0.569543 0.330053 0.395834
0.650324 0.309697 0.371939
0.695766 0.319829 0.371405
0.742000 0.418616 0.436500
0.066560 0.340917 0.417762
0.076631 0.384833 0.463630
0.144137 0.420203 0.468391
0.310704 0.454337 0.466773
0.499565 0.473075 0.467857
0.664546 0.478233 0.444999
0.741604 0.476036 0.423514
0.773831 0.476677 0.410361
0.796017 0.561242 0.507515
0.076570 0.396246 0.468269
0.083986 0.438331 0.510155
0.126375 0.475959 0.520348
0.278309 0.537530 0.525811
0.516976 0.593866 0.525444
0.713268 0.636301 0.549676
0.818708 0.654124 0.536858
0.843198 0.657572 0.539269
0.842191 0.692164 0.608301
0.082338 0.442329 0.511162
0.094057 0.482185 0.549035
0.122835 0.520073 0.568353
0.218982 0.578241 0.574639
0.520088 0.674891 0.590326
0.770306 0.737026 0.626764
0.849363 0.763821 0.667628
0.866209 0.765652 0.667628
0.863584 0.769253 0.696284
0.095186 0.484749 0.550317
0.134890 0.542565 0.592645
0.188296 0.588342 0.616663
0.303319 0.638025 0.631525
0.554238 0.714656 0.654871
0.779309 0.773709 0.685634
0.857939 0.802579 0.729091
0.871000 0.809049 0.745907
0.870848 0.812772 0.758785
0.135286 0.544762 0.594293
0.196994 0.593957 0.622583
0.306401 0.642237 0.646052
0.495506 0.703883 0.677852
0.675029 0.757534 0.714260
0.799496 0.796872 0.744137
0.856657 0.817258 0.768734
0.874052 0.826200 0.785275
0.875822 0.826993 0.788022
0.034180 0.092866 0.175784
0.035950 0.104524 0.197757
0.046143 0.103120 0.227146
0.141405 0.129854 0.265385
0.256443 0.151949 0.295995
0.350835 0.172671 0.320836
0.427466 0.181460 0.334508
0.484199 0.186526 0.345525
0.529961 0.189975 0.356970
0.036469 0.130861 0.228000
0.035431 0.107485 0.205905
0.037201 0.113252 0.231693
0.096605 0.125856 0.276402
0.261646 0.163394 0.323613
0.396399 0.188174 0.355779
0.475471 0.191562 0.360235
0.528161 0.195468 0.365606
0.583337 0.216770 0.382391
0.039673 0.187594 0.295628
0.038331 0.163333 0.286778
0.041382 0.149294 0.253880
0.080232 0.163424 0.297826
0.255390 0.199191 0.354925
0.419379 0.228275 0.386511
0.518486 0.226780 0.387152
0.579950 0.222873 0.387762
0.653040 0.281926 0.422797
0.048219 0.267521 0.367987
0.045777 0.257893 0.378637
0.055482 0.248005 0.358801
0.098650 0.240238 0.334600
0.251102 0.267628 0.406043
0.471046 0.307439 0.443763
0.582391 0.302525 0.432135
0.657343 0.302800 0.430426
0.716457 0.396323 0.477394
0.058259 0.340246 0.433265
0.058106 0.358373 0.459815
0.086427 0.375814 0.459907
0.177844 0.399039 0.458869
0.311131 0.400565 0.466758
0.555322 0.454063 0.520104
0.673823 0.451347 0.506157
0.728450 0.449516 0.492531
0.768734 0.542947 0.557031
0.066285 0.387518 0.476387
0.072267 0.428382 0.516411
0.110414 0.464240 0.530907
0.246815 0.527733 0.554894
0.462394 0.584710 0.578058
0.643336 0.617731 0.597284
0.753475 0.616480 0.585229
0.798093 0.619745 0.581323
0.821836 0.679988 0.644373
0.079072 0.441749 0.521019
0.085054 0.473152 0.555261
0.108431 0.503777 0.572229
0.202930 0.570336 0.600183
0.439445 0.656062 0.634607
0.667445 0.711513 0.654597
0.813993 0.756466 0.697597
0.850980 0.755611 0.695186
0.856291 0.767575 0.718898
0.090822 0.479469 0.555322
0.110079 0.513420 0.581720
0.156527 0.561212 0.609247
0.299367 0.635279 0.649073
0.517189 0.709773 0.687190
0.711086 0.765591 0.717403
0.841093 0.809598 0.759487
0.871244 0.823270 0.783261
0.872190 0.819821 0.781613
0.116060 0.521508 0.585565
0.169375 0.572015 0.615167
0.299229 0.638025 0.652338
0.508797 0.712276 0.698146
0.675456 0.762997 0.737514
0.789914 0.803006 0.770352
0.848051 0.823270 0.789059
0.872282 0.831724 0.802487
0.874327 0.834775 0.807767
0.035218 0.106569 0.204837
0.036255 0.113008 0.218967
0.037476 0.103334 0.241733
0.084428 0.122713 0.276249
0.219303 0.150393 0.311711
0.315435 0.167391 0.335790
0.405280 0.184726 0.358190
0.475532 0.191073 0.372564
0.523156 0.199100 0.383185
0.036805 0.137301 0.255375
0.035554 0.115541 0.225650
0.036713 0.116670 0.244816
0.050752 0.112886 0.276646
0.182727 0.148135 0.323949
0.333837 0.171756 0.361883
0.456336 0.194614 0.391669
0.519127 0.202365 0.399420
0.568933 0.231052 0.414038
0.039612 0.182071 0.314122
0.038270 0.159457 0.292668
0.037354 0.138399 0.269017
0.039673 0.136416 0.288334
0.126360 0.160128 0.343084
0.323064 0.195468 0.394751
0.480354 0.221073 0.426795
0.557885 0.236576 0.429908
0.626307 0.282170 0.453651
0.044495 0.256626 0.382849
0.043885 0.238254 0.382452
0.042206 0.210727 0.357519
0.046876 0.191257 0.327550
0.094743 0.207706 0.379141
0.320745 0.252201 0.442786
0.514214 0.282780 0.475349
0.612055 0.297093 0.471382
0.685237 0.370825 0.502129
0.053162 0.334478 0.444862
0.052125 0.339483 0.463020
0.053864 0.332540 0.454017
0.075547 0.324300 0.434089
0.132616 0.325277 0.435966
0.349706 0.371695 0.511101
0.585443 0.415641 0.546746
0.679713 0.413962 0.530022
0.739956 0.515602 0.576318
0.058442 0.377020 0.482338
0.061585 0.404791 0.510124
0.074342 0.424842 0.517723
0.137285 0.463203 0.531609
0.283070 0.515831 0.560754
0.451408 0.539986 0.587701
0.687770 0.595422 0.633570
0.753567 0.589715 0.617060
0.802945 0.665583 0.669184
0.071168 0.431891 0.522576
0.072663 0.453651 0.550195
0.084443 0.472969 0.560357
0.153796 0.530571 0.587518
0.363485 0.629541 0.641199
0.614481 0.703639 0.688472
0.777615 0.747677 0.724392
0.832059 0.744625 0.714504
0.851926 0.774258 0.748043
0.080201 0.466560 0.554070
0.082429 0.478492 0.568383
0.103731 0.507988 0.584131
0.222858 0.594171 0.631708
0.456474 0.695094 0.693294
0.672465 0.759976 0.735988
0.800290 0.798123 0.760403
0.865782 0.820218 0.786954
0.872038 0.823087 0.793210
0.093202 0.492988 0.573816
0.129671 0.533288 0.596551
0.239734 0.609155 0.640040
0.470359 0.702541 0.699825
0.660624 0.762539 0.746578
0.777951 0.799649 0.776089
0.843259 0.824460 0.796323
0.871031 0.832731 0.807340
0.874052 0.838651 0.812924
0.035462 0.113802 0.222965
0.036194 0.118288 0.236789
0.037354 0.107546 0.251621
0.045228 0.109133 0.280003
0.171908 0.143496 0.319677
0.273198 0.158877 0.345892
0.369787 0.175662 0.370184
0.458961 0.191867 0.391394
0.515862 0.198886 0.404517
0.037110 0.143008 0.270542
0.036103 0.124575 0.244450
0.037018 0.122805 0.255711
0.039033 0.107668 0.281163
0.110216 0.136385 0.323766
0.265263 0.163333 0.366735
0.391943 0.181613 0.398047
0.501305 0.198611 0.420905
0.554192 0.232181 0.440009
0.040253 0.185428 0.326024
0.038819 0.165774 0.302220
0.037659 0.144350 0.278813
0.039338 0.140841 0.299657
0.067750 0.142916 0.339361
0.229725 0.180850 0.395239
0.399268 0.204105 0.434333
0.532219 0.224002 0.456580
0.596246 0.283360 0.482887
0.044678 0.249271 0.394751
0.043946 0.232029 0.381872
0.041657 0.200748 0.348150
0.040742 0.178317 0.331640
0.045228 0.182712 0.362676
0.156481 0.212314 0.429328
0.399695 0.256870 0.483619
0.565118 0.280827 0.506127
0.647334 0.360418 0.531762
0.050019 0.330053 0.458198
0.049409 0.322972 0.461860
0.049714 0.306065 0.445197
0.048615 0.281392 0.420661
0.055055 0.262226 0.401709
0.134264 0.289830 0.471260
0.413031 0.352667 0.537926
0.616876 0.393057 0.566033
0.706691 0.492363 0.596582
0.058595 0.386816 0.496712
0.062409 0.405524 0.512627
0.066468 0.406287 0.510246
0.077455 0.407416 0.504479
0.128206 0.425635 0.512657
0.197681 0.435660 0.539086
0.485222 0.508522 0.606653
0.692805 0.558206 0.639063
0.774197 0.643336 0.675074
0.063539 0.416938 0.520745
0.068299 0.438025 0.539483
0.079194 0.458656 0.550469
0.115236 0.492317 0.565789
0.242176 0.562310 0.604578
0.447044 0.635615 0.656764
0.626352 0.677211 0.697536
0.804227 0.733639 0.742092
0.841825 0.768124 0.763729
0.071260 0.451179 0.548424
0.070375 0.457801 0.558679
0.079133 0.473426 0.567163
0.123751 0.526085 0.593408
0.276234 0.625788 0.650782
0.563912 0.728664 0.722164
0.769741 0.793820 0.775601
0.859556 0.822232 0.802365
0.870665 0.827482 0.807980
0.075776 0.466957 0.563531
0.094118 0.493080 0.577935
0.155276 0.554894 0.610559
0.334218 0.651667 0.668757
0.571664 0.734890 0.727993
0.750637 0.791775 0.774105
0.828489 0.821042 0.802365
0.865476 0.833982 0.813169
0.872953 0.839200 0.818631
0.036042 0.124300 0.243595
0.036591 0.123995 0.250980
0.037781 0.114595 0.263432
0.039368 0.105165 0.288792
0.120516 0.137209 0.325322
0.234775 0.157595 0.357183
0.330846 0.169986 0.381506
0.421302 0.184756 0.402930
0.503502 0.196597 0.419928
0.037873 0.152773 0.285130
0.037690 0.143404 0.278050
0.038605 0.142306 0.288853
0.040284 0.130404 0.310124
0.063600 0.141939 0.344823
0.212329 0.176272 0.389441
0.333989 0.193454 0.419226
0.444007 0.209232 0.442267
0.534173 0.221439 0.456062
0.040742 0.193149 0.335698
0.040162 0.178927 0.323552
0.040284 0.171542 0.322759
0.041505 0.175051 0.336461
0.045350 0.165713 0.371679
0.155932 0.204562 0.422858
0.338628 0.236210 0.464637
0.472206 0.254856 0.491035
0.570336 0.269688 0.501762
0.045380 0.253422 0.403723
0.044923 0.243412 0.396033
0.043427 0.226871 0.379919
0.043336 0.220981 0.373632
0.051453 0.229282 0.399481
0.114611 0.248722 0.459144
0.334722 0.303624 0.512993
0.507652 0.333379 0.543572
0.614832 0.354253 0.553948
0.049287 0.323644 0.463905
0.051209 0.324376 0.458869
0.055116 0.323461 0.450263
0.062562 0.322377 0.446876
0.082795 0.328344 0.460151
0.141970 0.356512 0.514549
0.365362 0.410468 0.569696
0.561608 0.455131 0.595544
0.675227 0.480095 0.609674
0.058412 0.390112 0.503655
0.063630 0.397528 0.504845
0.072267 0.404028 0.503929
0.102998 0.424536 0.513512
0.167300 0.463874 0.545281
0.235798 0.487968 0.579705
0.440543 0.547189 0.629999
0.650965 0.602090 0.663203
0.746975 0.625971 0.680659
0.068086 0.429328 0.529137
0.078584 0.447395 0.538079
0.100252 0.467475 0.548089
0.154604 0.510552 0.572747
0.290501 0.579278 0.617334
0.457603 0.635584 0.662318
0.618387 0.685939 0.705257
0.783108 0.743008 0.751461
0.830991 0.757534 0.764889
0.067872 0.443122 0.545739
0.079652 0.465156 0.557641
0.110201 0.501640 0.576013
0.194247 0.570764 0.615137
0.390433 0.656092 0.669612
0.610391 0.731807 0.726009
0.771603 0.791074 0.778164
0.845335 0.818296 0.804746
0.869505 0.826902 0.812802
0.069490 0.457282 0.559594
0.079042 0.472755 0.567193
0.112886 0.515373 0.588434
0.211810 0.596674 0.635065
0.449882 0.694820 0.698695
0.693126 0.774075 0.759762
0.813931 0.816739 0.799741
0.862181 0.834897 0.818204
0.872465 0.839414 0.821378
