assets/luts/impulz-fuji-pro-400-fc-rec-709-f3cf82bb.cube
# (C) 2014 VisionColor & Patchflyer [www.vision-color.com]
# Generator: VC Patchmatch v.2.1.1 [64/53]
# All work and no play makes Jack a dull boy.
# LUT generated from: Fuji Pro 400_FC
LUT_3D_SIZE 17
0.036133 0.037201 0.035523
0.079408 0.037781 0.037110
0.137881 0.042512 0.040101
0.205966 0.050233 0.044923
0.288457 0.055970 0.048798
0.367376 0.069947 0.059693
0.434333 0.080201 0.067781
0.486763 0.089174 0.075563
0.524041 0.101381 0.083467
0.553765 0.110842 0.090211
0.575830 0.120607 0.095552
0.601678 0.133852 0.102022
0.622797 0.142275 0.109071
0.642908 0.155245 0.116945
0.663264 0.164706 0.121981
0.686427 0.174136 0.125429
0.704433 0.177249 0.130129
0.043366 0.077638 0.034455
0.084962 0.082795 0.039307
0.142306 0.089662 0.043214
0.203677 0.100435 0.052949
0.283268 0.115114 0.060456
0.348150 0.122621 0.070344
0.416236 0.138552 0.081239
0.476875 0.157443 0.092988
0.514183 0.166720 0.101808
0.547692 0.176486 0.110079
0.578882 0.191867 0.116701
0.607202 0.205234 0.123110
0.628504 0.209506 0.129061
0.652247 0.213474 0.133852
0.674647 0.214908 0.135317
0.697475 0.222721 0.138308
0.715145 0.224216 0.142611
0.057832 0.130648 0.036042
0.101015 0.136202 0.042390
0.152010 0.143648 0.050416
0.211246 0.154360 0.061158
0.283604 0.172702 0.073518
0.351690 0.190616 0.086610
0.416419 0.207980 0.098940
0.472602 0.225956 0.111421
0.519432 0.248081 0.123934
0.557397 0.260746 0.132937
0.587671 0.269657 0.138888
0.616449 0.277623 0.144411
0.640345 0.278630 0.148043
0.664454 0.279789 0.151492
0.686091 0.277562 0.151858
0.708522 0.273198 0.151583
0.727230 0.274296 0.154147
0.081544 0.187076 0.049805
0.122103 0.195590 0.057435
0.178225 0.209995 0.067231
0.229007 0.223362 0.078798
0.302739 0.251194 0.094026
0.363470 0.265263 0.107973
0.428565 0.289006 0.122347
0.491585 0.319127 0.137270
0.538811 0.341680 0.151186
0.577203 0.354986 0.161135
0.612268 0.363775 0.166354
0.644678 0.371862 0.171359
0.666010 0.368170 0.174411
0.686732 0.362585 0.176852
0.706386 0.356085 0.175601
0.727108 0.348150 0.173922
0.742702 0.336370 0.172305
0.110506 0.269718 0.069490
0.158907 0.277989 0.077821
0.212833 0.295018 0.088624
0.273503 0.318212 0.103731
0.323705 0.331365 0.115053
0.382116 0.348760 0.128298
0.445563 0.375372 0.144686
0.508965 0.404944 0.161074
0.556725 0.424445 0.173800
0.601038 0.440253 0.184329
0.636774 0.448310 0.190433
0.669581 0.455055 0.195285
0.689754 0.448463 0.197391
0.708675 0.439551 0.198581
0.725216 0.428687 0.196841
0.744533 0.418463 0.194858
0.759945 0.405890 0.192996
0.142275 0.343694 0.091463
0.197330 0.354253 0.101839
0.253025 0.370398 0.113832
0.307012 0.392767 0.127687
0.365606 0.413733 0.140688
0.404242 0.430426 0.151431
0.464668 0.451148 0.165713
0.527916 0.475868 0.180545
0.578607 0.492531 0.193393
0.621088 0.506310 0.203189
0.657557 0.515923 0.209537
0.691554 0.522545 0.215183
0.711055 0.515923 0.216953
0.729244 0.507256 0.218021
0.745480 0.496284 0.216251
0.761227 0.483528 0.214542
0.775082 0.471626 0.211673
0.175875 0.414588 0.112612
0.234928 0.427070 0.124575
0.295018 0.444419 0.137850
0.347692 0.467491 0.151003
0.405341 0.491753 0.164126
0.448890 0.512184 0.175937
0.488182 0.524941 0.185885
0.550500 0.546136 0.199710
0.596399 0.552850 0.209751
0.640894 0.562829 0.220035
0.677546 0.569482 0.225650
0.709407 0.573266 0.231022
0.730922 0.567651 0.232639
0.749722 0.560327 0.234348
0.765927 0.553002 0.233463
0.781460 0.542565 0.232578
0.793790 0.530022 0.228977
0.213901 0.487587 0.132692
0.278050 0.503380 0.146456
0.342626 0.521706 0.160891
0.395422 0.544030 0.173678
0.447120 0.566644 0.186130
0.495674 0.588617 0.198764
0.535821 0.602686 0.209079
0.572412 0.614313 0.218265
0.618189 0.617426 0.227298
0.659846 0.619287 0.235264
0.696132 0.620783 0.240635
0.727687 0.622644 0.246189
0.749081 0.616907 0.247501
0.767483 0.614374 0.250401
0.784726 0.608759 0.250126
0.800534 0.598260 0.249668
0.813382 0.585565 0.245670
0.252110 0.547753 0.152010
0.317113 0.564752 0.166018
0.379065 0.580774 0.179446
0.429267 0.599054 0.191073
0.477211 0.618219 0.202426
0.522759 0.634699 0.213291
0.564446 0.651637 0.224460
0.603861 0.660212 0.233280
0.638422 0.665431 0.240848
0.679896 0.670344 0.249454
0.713558 0.670405 0.254124
0.742977 0.670619 0.260410
0.764981 0.667536 0.262547
0.783230 0.664668 0.265324
0.800076 0.658015 0.264866
0.819364 0.652583 0.265751
0.830259 0.639796 0.262364
0.289525 0.598596 0.170413
0.351965 0.615076 0.183474
0.410986 0.629480 0.195560
0.457588 0.644678 0.206058
0.504784 0.661402 0.216922
0.550744 0.677089 0.227512
0.587488 0.691890 0.237095
0.632593 0.701015 0.246799
0.668360 0.706325 0.254429
0.698421 0.710842 0.261051
0.731991 0.711513 0.265599
0.760678 0.711269 0.271672
0.780270 0.706233 0.273594
0.798306 0.705318 0.277378
0.814572 0.700557 0.277562
0.831144 0.698543 0.280064
0.844480 0.693141 0.279271
0.321660 0.646876 0.185733
0.382757 0.661189 0.197757
0.440436 0.674067 0.208927
0.485756 0.687556 0.218723
0.528069 0.698024 0.228580
0.573907 0.712612 0.238712
0.611536 0.725551 0.247929
0.651881 0.736782 0.257237
0.691188 0.744076 0.265721
0.720943 0.748104 0.271458
0.749935 0.751888 0.276768
0.778256 0.750820 0.282597
0.797421 0.744778 0.284276
0.811948 0.740261 0.287297
0.823545 0.737972 0.288731
0.840269 0.735927 0.291630
0.855009 0.732143 0.290715
0.350286 0.692744 0.199069
0.410681 0.704097 0.209964
0.468025 0.715419 0.220554
0.513054 0.725093 0.230228
0.552758 0.734340 0.239933
0.594537 0.745602 0.249760
0.633844 0.756832 0.259342
0.671107 0.767941 0.268498
0.708980 0.777249 0.277165
0.739406 0.781704 0.282933
0.767819 0.785397 0.288151
0.795224 0.788968 0.293156
0.812131 0.783261 0.295018
0.825223 0.778592 0.298039
0.835416 0.775296 0.299351
0.849149 0.772335 0.302892
0.864652 0.769528 0.302037
0.372747 0.731136 0.211765
0.431586 0.742153 0.222385
0.488655 0.752102 0.232792
0.535119 0.758633 0.242100
0.572992 0.766995 0.251041
0.612299 0.773190 0.259800
0.650416 0.782559 0.268498
0.685939 0.792752 0.276799
0.718990 0.801053 0.283909
0.750149 0.807645 0.290349
0.777920 0.811246 0.295415
0.802762 0.815610 0.300511
0.824887 0.820127 0.305364
0.838315 0.816434 0.308659
0.848539 0.813291 0.310033
0.860899 0.811276 0.314092
0.870939 0.804532 0.314336
0.388098 0.762692 0.220066
0.445624 0.773007 0.230625
0.504601 0.780789 0.241825
0.553826 0.786587 0.251835
0.590539 0.793332 0.260349
0.630243 0.797574 0.268925
0.664149 0.803250 0.276555
0.698238 0.812345 0.284367
0.729793 0.819883 0.291081
0.758785 0.827115 0.297307
0.785702 0.833066 0.302983
0.808804 0.837888 0.308019
0.831601 0.842618 0.313024
0.848386 0.845335 0.316747
0.858976 0.844572 0.319280
0.867735 0.840909 0.324742
0.876463 0.841337 0.327550
0.403021 0.792355 0.228336
0.462135 0.800381 0.239902
0.520775 0.807309 0.251164
0.570886 0.812955 0.261295
0.609552 0.816434 0.269688
0.648127 0.820188 0.277836
0.681666 0.824460 0.285069
0.710323 0.829404 0.291417
0.741146 0.836301 0.297887
0.770993 0.843076 0.304173
0.792233 0.848020 0.309636
0.814237 0.852811 0.314916
0.837125 0.857572 0.319921
0.855131 0.861295 0.324071
0.863767 0.864042 0.326909
0.872648 0.860868 0.332586
0.881529 0.862119 0.335698
0.414618 0.818601 0.233677
0.478859 0.822477 0.247166
0.537102 0.828550 0.258579
0.587671 0.833677 0.268498
0.626978 0.835935 0.276982
0.664515 0.839780 0.285313
0.699092 0.843595 0.293187
0.725399 0.847318 0.299596
0.752651 0.852201 0.306035
0.781491 0.858732 0.312963
0.802762 0.863493 0.319249
0.822477 0.868223 0.325109
0.843076 0.872343 0.330144
0.859617 0.876066 0.334905
0.868498 0.878874 0.337774
0.877806 0.881834 0.340826
0.886564 0.882994 0.344121
0.431464 0.845792 0.243687
0.493965 0.849577 0.256779
0.553338 0.853330 0.269169
0.603021 0.856352 0.278355
0.640772 0.858030 0.286381
0.679408 0.862028 0.295232
0.715846 0.864500 0.303563
0.741268 0.867369 0.309392
0.765835 0.870115 0.315038
0.790616 0.873777 0.321874
0.813504 0.878141 0.328191
0.832975 0.882414 0.333593
0.850187 0.886625 0.339147
0.863493 0.889494 0.343938
0.872831 0.892424 0.346960
0.882139 0.895445 0.349981
0.889494 0.898558 0.352514
0.035004 0.036561 0.058747
0.064973 0.034577 0.066682
0.120211 0.037049 0.068147
0.180270 0.043366 0.066560
0.255924 0.045777 0.069825
0.329015 0.056611 0.073854
0.400092 0.065614 0.080751
0.467140 0.073610 0.088289
0.516075 0.082521 0.091920
0.546838 0.090394 0.097169
0.571710 0.097627 0.101625
0.599298 0.103517 0.106722
0.625025 0.114107 0.110872
0.645594 0.126101 0.117159
0.664790 0.134707 0.121462
0.681605 0.140200 0.126833
0.700099 0.144686 0.129549
0.036255 0.066407 0.061738
0.076905 0.072694 0.066926
0.137545 0.076844 0.070741
0.199771 0.081849 0.072480
0.273899 0.089570 0.077607
0.347051 0.100954 0.084230
0.413703 0.112673 0.093660
0.470588 0.123323 0.101503
0.518486 0.135348 0.107088
0.560540 0.144930 0.114473
0.589746 0.153292 0.122286
0.615747 0.162478 0.128634
0.641627 0.171664 0.132967
0.667231 0.176608 0.138705
0.689479 0.176059 0.141207
0.710170 0.181949 0.145388
0.728756 0.187778 0.146151
0.049836 0.118959 0.064088
0.093751 0.126589 0.070527
0.146090 0.133120 0.077394
0.208591 0.140566 0.079622
0.277714 0.156100 0.090944
0.352270 0.169375 0.098573
0.414435 0.178592 0.108370
0.470832 0.196475 0.120027
0.524132 0.213138 0.127382
0.566003 0.220493 0.134157
0.596338 0.226047 0.141909
0.625757 0.230838 0.146822
0.652522 0.235630 0.149569
0.677882 0.238956 0.154910
0.700038 0.236942 0.156954
0.722347 0.234562 0.157900
0.741238 0.238560 0.157229
0.070893 0.176333 0.065797
0.112856 0.189639 0.075532
0.163210 0.197238 0.082124
0.220920 0.207980 0.090242
0.287419 0.220035 0.101289
0.357244 0.235691 0.112428
0.423896 0.252934 0.123842
0.481239 0.270512 0.135378
0.532341 0.286381 0.144686
0.575586 0.296391 0.153506
0.608698 0.303014 0.161227
0.637751 0.305455 0.165530
0.663813 0.304509 0.167025
0.689845 0.301366 0.170443
0.713680 0.299443 0.171695
0.735592 0.295232 0.172244
0.753353 0.289311 0.168551
0.096193 0.253574 0.086000
0.140963 0.263096 0.092409
0.193698 0.274601 0.102052
0.252476 0.290959 0.111635
0.307988 0.307805 0.122744
0.373907 0.320470 0.133303
0.440864 0.337469 0.145571
0.498695 0.355047 0.158846
0.553460 0.370916 0.167636
0.598932 0.380346 0.176364
0.632746 0.387427 0.185214
0.660883 0.387976 0.189273
0.685664 0.384283 0.189151
0.711513 0.380774 0.192325
0.732052 0.371038 0.191897
0.751858 0.362463 0.191470
0.768795 0.356603 0.187015
0.126436 0.332311 0.099367
0.171817 0.342504 0.109712
0.224765 0.353552 0.120516
0.282017 0.371405 0.132113
0.343450 0.394659 0.144778
0.395239 0.409369 0.154452
0.459602 0.419257 0.164675
0.517906 0.435492 0.178286
0.572686 0.448920 0.189181
0.618769 0.456550 0.197238
0.653315 0.463355 0.205264
0.681147 0.462318 0.209445
0.705470 0.456092 0.209934
0.731044 0.451362 0.213230
0.751522 0.442084 0.212345
0.768002 0.432898 0.211460
0.784268 0.425635 0.206180
0.158450 0.407538 0.115572
0.204227 0.419715 0.126345
0.256962 0.431067 0.137209
0.315404 0.448554 0.150515
0.372930 0.470405 0.163485
0.432898 0.489418 0.175265
0.482643 0.501091 0.184634
0.537652 0.512139 0.196597
0.589319 0.520867 0.206729
0.637781 0.529595 0.216526
0.671168 0.532372 0.223514
0.699916 0.532006 0.227756
0.724269 0.525261 0.228702
0.747524 0.520104 0.233616
0.767330 0.511437 0.232731
0.783719 0.501457 0.231937
0.798306 0.488319 0.224460
0.190768 0.482368 0.140444
0.237552 0.485451 0.146304
0.298039 0.500450 0.159365
0.354650 0.515465 0.171725
0.406378 0.535363 0.183688
0.465980 0.553826 0.195224
0.520012 0.568414 0.205386
0.559533 0.576928 0.214206
0.610651 0.581445 0.223148
0.653223 0.582635 0.231693
0.689326 0.584710 0.238590
0.717708 0.584588 0.243320
0.739010 0.580621 0.245975
0.762478 0.578332 0.250980
0.783719 0.571008 0.250584
0.800473 0.561975 0.250278
0.813718 0.549615 0.243229
0.222293 0.546075 0.158877
0.275395 0.547570 0.164034
0.333989 0.561700 0.175875
0.389075 0.575494 0.187442
0.441566 0.593103 0.199161
0.490974 0.610437 0.210575
0.548913 0.627161 0.221958
0.591760 0.634546 0.231052
0.631373 0.640345 0.239139
0.673396 0.639948 0.247257
0.704890 0.635950 0.252781
0.732357 0.635523 0.258244
0.754391 0.631403 0.261723
0.777584 0.628748 0.266850
0.800046 0.621637 0.265568
0.817014 0.616175 0.267430
0.827909 0.604852 0.261326
0.253452 0.601068 0.172793
0.309422 0.604395 0.184390
0.366308 0.618006 0.195773
0.420600 0.630732 0.206546
0.473579 0.646235 0.217319
0.520256 0.662165 0.227634
0.568689 0.674952 0.238071
0.615595 0.685725 0.248173
0.654231 0.691341 0.256107
0.690150 0.695338 0.262699
0.720577 0.690150 0.267979
0.745480 0.684321 0.272129
0.767544 0.678645 0.275883
0.791836 0.676356 0.281895
0.812772 0.671077 0.280858
0.828946 0.666163 0.283207
0.842496 0.659754 0.278508
0.280278 0.650935 0.191562
0.338537 0.654475 0.199039
0.393927 0.667475 0.209995
0.447150 0.677272 0.219760
0.496803 0.689143 0.229892
0.541924 0.702815 0.240116
0.588434 0.712276 0.250736
0.630610 0.722225 0.260594
0.670680 0.729671 0.269139
0.705531 0.733211 0.275334
0.736782 0.736721 0.280980
0.760739 0.733394 0.285863
0.780972 0.727962 0.289738
0.801419 0.722255 0.295964
0.824063 0.719783 0.296208
0.840452 0.714321 0.298405
0.854795 0.710079 0.294682
0.304295 0.696864 0.212650
0.366064 0.697108 0.215061
0.421241 0.707301 0.225071
0.473182 0.715663 0.234195
0.519585 0.724788 0.243473
0.562524 0.733730 0.253239
0.607141 0.742336 0.262974
0.647028 0.751675 0.271916
0.683009 0.759335 0.279210
0.718563 0.764126 0.285801
0.750637 0.767514 0.291539
0.775387 0.771908 0.296605
0.794095 0.767514 0.300816
0.813809 0.763851 0.307622
0.834379 0.761135 0.309178
0.851286 0.759152 0.312535
0.864530 0.755581 0.310246
0.327855 0.735195 0.225132
0.382879 0.732052 0.223789
0.442390 0.739376 0.235142
0.493629 0.747433 0.244236
0.539635 0.754757 0.252811
0.579156 0.759487 0.261234
0.622400 0.768154 0.271244
0.661860 0.776272 0.280369
0.693812 0.784543 0.287694
0.728511 0.791623 0.295171
0.760678 0.795773 0.301305
0.784390 0.800565 0.306432
0.807187 0.805295 0.311437
0.826963 0.801907 0.318303
0.847623 0.799466 0.319921
0.859159 0.794217 0.324071
0.868833 0.789883 0.323796
0.341680 0.767483 0.231388
0.403204 0.767086 0.237430
0.461555 0.773983 0.248631
0.515129 0.781094 0.258610
0.560479 0.785367 0.266606
0.598962 0.790402 0.275395
0.637629 0.796323 0.284337
0.677211 0.802213 0.293339
0.708278 0.810391 0.300481
0.738582 0.818235 0.307134
0.769009 0.824674 0.313939
0.793790 0.829190 0.319158
0.816709 0.833982 0.324163
0.838560 0.838529 0.329290
0.854612 0.831205 0.331365
0.865385 0.825711 0.335912
0.874327 0.828153 0.337438
0.354162 0.799741 0.241428
0.421363 0.798489 0.247929
0.478248 0.805203 0.258854
0.531914 0.810239 0.268864
0.578210 0.813443 0.276921
0.614527 0.817075 0.284489
0.650782 0.820981 0.292363
0.688228 0.825101 0.300664
0.719173 0.832486 0.307164
0.748012 0.839445 0.313756
0.774960 0.844907 0.321202
0.801358 0.850645 0.327642
0.824460 0.855467 0.332677
0.842680 0.859373 0.337926
0.860929 0.863310 0.343450
0.871824 0.858518 0.348241
0.881010 0.862089 0.350164
0.366766 0.826932 0.250919
0.437049 0.827024 0.254856
0.492897 0.833280 0.265629
0.544274 0.836149 0.274754
0.593347 0.838865 0.283513
0.628382 0.841733 0.290959
0.665339 0.845060 0.299718
0.701106 0.848325 0.308263
0.730617 0.853025 0.315190
0.758022 0.858396 0.322759
0.784726 0.863401 0.330541
0.810605 0.868223 0.337926
0.828428 0.872007 0.343145
0.846311 0.875883 0.348547
0.864988 0.879911 0.354162
0.877348 0.883330 0.358068
0.884947 0.883207 0.360510
0.384985 0.853880 0.260471
0.453254 0.851164 0.263066
0.510735 0.853269 0.274540
0.561242 0.856107 0.283482
0.609247 0.858763 0.292027
0.644221 0.860533 0.299748
0.679713 0.862852 0.307836
0.714382 0.865202 0.315740
0.743404 0.868162 0.322850
0.768002 0.872068 0.330022
0.794308 0.876554 0.337255
0.821256 0.881163 0.344915
0.836301 0.885496 0.351507
0.849790 0.888640 0.356725
0.869078 0.892821 0.362554
0.880308 0.896208 0.366613
0.887968 0.899413 0.369238
0.033387 0.034913 0.090028
0.060700 0.031983 0.095552
0.104372 0.032105 0.099641
0.158419 0.036835 0.098604
0.218753 0.040284 0.096193
0.292699 0.049042 0.101686
0.366247 0.057710 0.105440
0.434058 0.066560 0.110475
0.486580 0.075563 0.113680
0.533196 0.083986 0.118746
0.569512 0.090455 0.121828
0.597131 0.096498 0.126497
0.622919 0.107210 0.130098
0.645502 0.113619 0.135348
0.666682 0.117830 0.137514
0.683436 0.123720 0.142519
0.702083 0.128328 0.144442
0.034974 0.065675 0.095949
0.073030 0.067781 0.103151
0.120485 0.066102 0.105867
0.181918 0.069734 0.104463
0.244083 0.076417 0.101717
0.319829 0.083589 0.106722
0.389502 0.095125 0.110872
0.449500 0.104128 0.115938
0.501762 0.109468 0.121767
0.546838 0.117739 0.126497
0.585595 0.127230 0.129946
0.611994 0.134463 0.134890
0.632410 0.138125 0.140352
0.657923 0.142275 0.144839
0.684352 0.146242 0.145174
0.706111 0.151614 0.147616
0.722713 0.155093 0.149081
0.041596 0.103304 0.101961
0.083070 0.110384 0.110597
0.131289 0.109804 0.111421
0.191714 0.117098 0.114565
0.256809 0.123262 0.113924
0.327459 0.132418 0.119417
0.398840 0.147768 0.128542
0.467475 0.157931 0.133761
0.520531 0.168063 0.142794
0.560815 0.176333 0.147036
0.601099 0.185458 0.155459
0.635004 0.187015 0.159426
0.660761 0.188754 0.166140
0.685206 0.192294 0.168551
0.711666 0.197055 0.169589
0.735042 0.199039 0.168246
0.753902 0.203098 0.170596
0.061341 0.161593 0.105440
0.102663 0.174472 0.113619
0.149538 0.174166 0.118166
0.203830 0.183871 0.125612
0.270542 0.195499 0.126192
0.340917 0.211917 0.134524
0.410742 0.224552 0.144076
0.479072 0.232547 0.148867
0.529717 0.247074 0.161349
0.573205 0.253391 0.166384
0.613153 0.260533 0.174289
0.646723 0.259922 0.177707
0.673487 0.259861 0.183993
0.699031 0.256596 0.183871
0.724971 0.258061 0.184024
0.747982 0.258396 0.182254
0.765652 0.251560 0.181277
0.082490 0.239780 0.105135
0.124208 0.242466 0.117556
0.169619 0.246067 0.123323
0.223911 0.257359 0.130800
0.286229 0.272221 0.139742
0.353735 0.284764 0.147372
0.422431 0.298192 0.158999
0.487160 0.309880 0.166903
0.540185 0.325261 0.178744
0.584588 0.330846 0.183383
0.625086 0.336004 0.192844
0.661067 0.334844 0.196262
0.688167 0.334020 0.202304
0.713344 0.328954 0.201724
0.738094 0.320317 0.198978
0.761196 0.318975 0.196658
0.779873 0.316777 0.196902
0.108919 0.315099 0.119509
0.151949 0.318944 0.133516
0.196170 0.321660 0.135378
0.252842 0.334844 0.145571
0.315801 0.354589 0.155947
0.373907 0.368414 0.165591
0.439796 0.378454 0.177676
0.503380 0.388586 0.185672
0.556420 0.400305 0.198367
0.600275 0.404944 0.202670
0.642115 0.412299 0.213046
0.678187 0.408270 0.216037
0.705715 0.405188 0.222110
0.730648 0.400702 0.220981
0.754116 0.395789 0.219486
0.776547 0.387945 0.214847
0.794400 0.382452 0.213931
0.136995 0.390906 0.135653
0.184360 0.398962 0.147921
0.227878 0.401129 0.153628
0.281315 0.412421 0.164858
0.341009 0.431312 0.176303
0.408209 0.451972 0.188296
0.462196 0.463111 0.197269
0.520806 0.464515 0.204471
0.574395 0.473579 0.216251
0.617670 0.476326 0.221622
0.658900 0.482399 0.232914
0.696132 0.478309 0.235233
0.721950 0.475563 0.241032
0.745815 0.471199 0.241947
0.769253 0.465187 0.241032
0.792325 0.456733 0.235691
0.808713 0.446235 0.231632
0.166659 0.476509 0.151064
0.212558 0.475380 0.162966
0.260258 0.475380 0.171450
0.312169 0.486336 0.182315
0.369268 0.502281 0.193698
0.432624 0.521630 0.204654
0.489937 0.537377 0.215000
0.542931 0.544030 0.223484
0.593347 0.546044 0.233829
0.633875 0.543542 0.239048
0.675776 0.549859 0.250767
0.707637 0.546166 0.255070
0.735286 0.543542 0.259464
0.758999 0.538994 0.260563
0.783230 0.530907 0.261112
0.807004 0.522148 0.255772
0.822141 0.514733 0.253666
0.196628 0.541436 0.170657
0.243076 0.540917 0.186618
0.294255 0.542046 0.189639
0.346807 0.553094 0.200076
0.403143 0.565789 0.210605
0.457130 0.581872 0.221897
0.515679 0.595941 0.232975
0.570184 0.605249 0.242466
0.613794 0.611170 0.250401
0.651881 0.608301 0.255467
0.686732 0.608331 0.267399
0.719875 0.607813 0.272129
0.748196 0.606775 0.276799
0.770169 0.600580 0.278416
0.793973 0.594903 0.279759
0.818967 0.589624 0.278721
0.834714 0.581506 0.275547
0.222324 0.594781 0.193484
0.277012 0.597650 0.207767
0.325628 0.596857 0.206729
0.378882 0.606226 0.216281
0.432013 0.616785 0.225681
0.484230 0.630518 0.236027
0.533013 0.641321 0.246372
0.588159 0.652857 0.256687
0.632746 0.659052 0.264500
0.667628 0.662593 0.270695
0.702083 0.661189 0.282231
0.732204 0.655970 0.286595
0.761410 0.653895 0.290837
0.782589 0.651026 0.294316
0.805234 0.646510 0.296635
0.831205 0.643091 0.294652
0.848539 0.638636 0.294560
0.243931 0.647456 0.211948
0.306035 0.648829 0.220890
0.356542 0.648035 0.225376
0.408301 0.656336 0.234501
0.458473 0.664912 0.243259
0.510643 0.676509 0.254154
0.556023 0.687129 0.265049
0.603754 0.697932 0.275517
0.649897 0.705592 0.284642
0.684016 0.709072 0.290745
0.716915 0.712398 0.296605
0.745907 0.706355 0.300725
0.770932 0.700130 0.304326
0.792172 0.696590 0.308171
0.816281 0.695766 0.312871
0.842222 0.692836 0.311498
0.861784 0.691096 0.311894
0.262791 0.698634 0.227787
0.328130 0.696986 0.236423
0.384497 0.694667 0.242374
0.434882 0.702754 0.251255
0.483070 0.709285 0.259617
0.532952 0.717708 0.268986
0.575921 0.727291 0.278538
0.617639 0.735256 0.287755
0.661097 0.741756 0.296178
0.697078 0.747951 0.303166
0.728542 0.751522 0.308934
0.757107 0.755673 0.314549
0.782010 0.748837 0.317998
0.803037 0.744320 0.321538
0.826108 0.742123 0.327733
0.851469 0.741482 0.328588
0.866636 0.736996 0.329503
0.285924 0.739498 0.240360
0.345861 0.738064 0.248783
0.407202 0.736202 0.253758
0.456367 0.744106 0.262394
0.503471 0.748135 0.270390
0.550469 0.754208 0.278813
0.592279 0.763546 0.288121
0.632532 0.769528 0.296971
0.671931 0.774868 0.305882
0.707607 0.781338 0.313542
0.738247 0.786923 0.320012
0.766476 0.791012 0.325567
0.793606 0.795285 0.331029
0.814267 0.793179 0.335241
0.835691 0.788388 0.341985
0.855955 0.786221 0.346258
0.871580 0.784085 0.347601
0.303838 0.773190 0.254673
0.367620 0.773159 0.262913
0.428351 0.773342 0.267063
0.479103 0.778347 0.276219
0.525414 0.782010 0.284031
0.570336 0.786313 0.291783
0.607843 0.790677 0.299657
0.646632 0.795529 0.307836
0.684443 0.800290 0.315801
0.715999 0.805997 0.323095
0.745937 0.812284 0.330083
0.774655 0.816831 0.335882
0.802976 0.821012 0.341466
0.821195 0.824918 0.346746
0.842191 0.821744 0.354284
0.862882 0.822019 0.359258
0.877226 0.826902 0.362890
0.318395 0.805844 0.267063
0.386633 0.804410 0.272801
0.443610 0.801633 0.274510
0.495003 0.804501 0.283635
0.540642 0.807919 0.291417
0.583886 0.811307 0.298772
0.621027 0.814939 0.307530
0.657710 0.819333 0.316136
0.694636 0.824369 0.324468
0.726314 0.829709 0.333074
0.753323 0.835630 0.341009
0.782467 0.842039 0.348516
0.810605 0.846586 0.355261
0.829953 0.850614 0.360998
0.848692 0.854673 0.366644
0.869596 0.856046 0.372015
0.882628 0.857542 0.376806
0.329381 0.833310 0.274022
0.402289 0.832944 0.278721
0.460060 0.833188 0.285588
0.510155 0.835996 0.294499
0.558099 0.838682 0.303014
0.599603 0.839658 0.310246
0.636042 0.842832 0.318517
0.670954 0.846922 0.326879
0.705196 0.850217 0.334844
0.737728 0.854520 0.342931
0.764096 0.859464 0.349828
0.791104 0.864530 0.357061
0.818112 0.869535 0.366979
0.839231 0.873808 0.373205
0.858549 0.877989 0.379034
0.873808 0.881559 0.386603
0.886046 0.880430 0.392248
0.341283 0.861479 0.277012
0.410163 0.856626 0.287724
0.473030 0.857023 0.289067
0.522087 0.859770 0.297795
0.567956 0.861601 0.305943
0.610224 0.861509 0.313451
0.645594 0.863279 0.320592
0.679255 0.866178 0.328069
0.714656 0.868986 0.337957
0.748806 0.871946 0.347631
0.774807 0.876402 0.355169
0.801389 0.881132 0.364813
0.828855 0.886015 0.376501
0.847776 0.889799 0.384222
0.864561 0.893584 0.390875
0.878569 0.896971 0.399176
0.889403 0.900450 0.404364
0.036133 0.037934 0.116487
0.052033 0.034241 0.119173
0.097475 0.034272 0.121798
0.143893 0.036042 0.122347
0.200534 0.039002 0.123507
0.260502 0.047974 0.125460
0.333013 0.056123 0.129183
0.399847 0.063874 0.135225
0.455177 0.072480 0.140291
0.504112 0.079988 0.144533
0.545190 0.086061 0.145907
0.582849 0.091127 0.148989
0.608606 0.096773 0.152407
0.633539 0.102327 0.156741
