assets/luts/impulz-fuji-superior-200-fc-rec709-558934a6.cube
# (C) 2014 VisionColor & Patchflyer [www.vision-color.com]
# Generator: VC Patchmatch v.2.1.1 [64/53]
# All work and no play makes Jack a dull boy.
# LUT generated from: Fuji Superior 200_FC
LUT_3D_SIZE 9
0.035615 0.033082 0.033082
0.129732 0.035004 0.032349
0.277348 0.037018 0.032044
0.428412 0.049897 0.039063
0.542992 0.062776 0.044770
0.625452 0.072755 0.050965
0.691310 0.086793 0.059693
0.752712 0.097078 0.067597
0.810452 0.111849 0.078706
0.050233 0.102388 0.025177
0.144656 0.113161 0.028992
0.300328 0.129183 0.034760
0.454994 0.153750 0.043915
0.573571 0.177493 0.052338
0.661433 0.194400 0.060639
0.728511 0.212619 0.070497
0.784329 0.224521 0.079438
0.835630 0.231968 0.089448
0.095003 0.212070 0.027405
0.202182 0.239078 0.039551
0.356054 0.265354 0.050904
0.496880 0.292210 0.065034
0.614527 0.318242 0.074861
0.700252 0.342748 0.084565
0.766018 0.361242 0.094392
0.815915 0.375708 0.103059
0.864958 0.378637 0.111299
0.186679 0.344976 0.045258
0.310460 0.379156 0.064637
0.458824 0.417746 0.085328
0.573709 0.444602 0.096468
0.673762 0.460395 0.105257
0.749447 0.480171 0.113558
0.806973 0.497566 0.122774
0.846067 0.508629 0.129030
0.880247 0.507012 0.132113
0.301701 0.482033 0.068879
0.420417 0.515923 0.091493
0.549508 0.547723 0.113832
0.660945 0.578332 0.131044
0.737606 0.597253 0.138582
0.798276 0.603998 0.143801
0.841856 0.612116 0.151400
0.870207 0.620386 0.155703
0.896300 0.617975 0.155795
0.407813 0.594751 0.098665
0.501762 0.618036 0.118807
0.607996 0.643519 0.137179
0.710964 0.668757 0.155337
0.793484 0.692592 0.168582
0.832731 0.706996 0.173495
0.870176 0.706966 0.179049
0.886656 0.706966 0.180789
0.904265 0.705837 0.177737
0.494026 0.687434 0.124605
0.570916 0.703548 0.141421
0.662776 0.722225 0.156252
0.751095 0.743160 0.172610
0.823606 0.763149 0.189273
0.864530 0.778866 0.197086
0.885588 0.787289 0.203006
0.898100 0.783169 0.203372
0.911162 0.778653 0.201297
0.556848 0.754635 0.141329
0.629572 0.773312 0.159609
0.706050 0.787533 0.174136
0.786252 0.804623 0.188693
0.839872 0.818296 0.203647
0.877440 0.830686 0.215518
0.895598 0.838315 0.222568
0.907835 0.844175 0.224582
0.918181 0.842435 0.221775
0.606958 0.817533 0.140963
0.675502 0.841733 0.165499
0.751095 0.851713 0.184878
0.825620 0.863767 0.204013
0.863767 0.871824 0.215946
0.889220 0.877531 0.229221
0.905608 0.883757 0.238224
0.916320 0.887083 0.243351
0.924376 0.891539 0.243626
0.031617 0.036774 0.137636
0.102144 0.032380 0.128603
0.236362 0.031525 0.113741
0.383551 0.039063 0.114229
0.506828 0.046387 0.115023
0.597589 0.053864 0.119875
0.667994 0.063233 0.123171
0.735164 0.071748 0.128908
0.799100 0.080690 0.133913
0.040742 0.120241 0.103334
0.120241 0.126650 0.114260
0.288884 0.130587 0.111055
0.441230 0.141146 0.116945
0.557702 0.153262 0.123964
0.647913 0.169924 0.130831
0.712734 0.181704 0.138979
0.779843 0.195651 0.147921
0.843870 0.200626 0.154482
0.093050 0.249454 0.112306
0.185428 0.260624 0.111299
0.337041 0.280034 0.119753
0.479408 0.286503 0.127901
0.596033 0.303807 0.137789
0.685969 0.318608 0.145876
0.751247 0.333196 0.155978
0.808896 0.337407 0.161715
0.867948 0.331884 0.167605
0.172793 0.376898 0.134859
0.273686 0.396735 0.120516
0.409583 0.421485 0.138705
0.540337 0.439399 0.154513
0.645075 0.446357 0.164523
0.731991 0.461219 0.174807
0.790066 0.472541 0.182040
0.836667 0.478004 0.186130
0.886473 0.465064 0.185061
0.273625 0.504173 0.161746
0.364569 0.518730 0.137179
0.488350 0.542290 0.158694
0.610346 0.568292 0.179080
0.703212 0.583185 0.192844
0.776883 0.582452 0.203128
0.829282 0.593256 0.208255
0.865385 0.597620 0.212497
0.893645 0.580682 0.209384
0.359380 0.605859 0.194003
0.444312 0.620020 0.161624
0.548974 0.636805 0.178714
0.660456 0.659632 0.200870
0.755276 0.680232 0.219333
0.814481 0.691218 0.230564
0.853422 0.684596 0.234684
0.874846 0.686305 0.238010
0.899931 0.678431 0.233829
0.434577 0.694209 0.216098
0.505058 0.702296 0.175967
0.602686 0.717037 0.192782
0.700313 0.735683 0.210910
0.785031 0.751064 0.232700
0.838865 0.764431 0.247410
0.872679 0.770260 0.258915
0.890440 0.768093 0.262577
0.907988 0.758999 0.258854
0.482826 0.757687 0.232517
0.558526 0.771756 0.182315
0.646418 0.786343 0.203006
0.731472 0.799893 0.222751
0.809720 0.814389 0.243198
0.852415 0.824735 0.263066
0.885191 0.832151 0.276921
0.901152 0.835172 0.285130
0.916564 0.832547 0.280980
0.519768 0.825376 0.220523
0.595880 0.840574 0.167575
0.676692 0.853880 0.191379
0.761807 0.861234 0.219852
0.829007 0.870939 0.243473
0.872190 0.877134 0.266239
0.895781 0.883146 0.286717
0.911681 0.886229 0.298802
0.925994 0.888823 0.304936
0.029908 0.040101 0.245335
0.076081 0.033845 0.265507
0.217533 0.032258 0.233371
0.358953 0.039521 0.229740
0.483192 0.046632 0.228336
0.572961 0.053162 0.223575
0.644892 0.061616 0.222995
0.710048 0.068208 0.221256
0.781003 0.074220 0.216190
0.036713 0.123323 0.213352
0.096956 0.123445 0.241733
0.232639 0.112154 0.235599
0.382574 0.117037 0.221805
0.500725 0.125734 0.216678
0.595300 0.137179 0.214542
0.665614 0.147158 0.214359
0.741970 0.153689 0.214725
0.825528 0.161257 0.211398
0.072572 0.245121 0.217166
0.138216 0.254978 0.223941
0.264286 0.256870 0.231693
0.415290 0.265202 0.238102
0.530358 0.274815 0.242924
0.621088 0.287114 0.247471
0.695460 0.298009 0.251530
0.775631 0.300175 0.246494
0.861173 0.291936 0.238010
0.139254 0.371313 0.238743
0.220157 0.396887 0.231144
0.337987 0.399145 0.240543
0.472999 0.414343 0.257511
0.587243 0.424445 0.264836
0.673213 0.435492 0.269535
0.742184 0.443854 0.273838
0.812528 0.441444 0.266453
0.877409 0.417792 0.253544
0.222873 0.494972 0.269963
0.300175 0.514977 0.252781
0.411475 0.521385 0.253971
0.535393 0.537072 0.272557
0.641505 0.551843 0.288884
0.721492 0.556237 0.297063
0.779965 0.565942 0.301457
0.839597 0.560754 0.292973
0.888151 0.535241 0.275364
0.297093 0.598718 0.302098
0.379583 0.614496 0.272221
0.477333 0.618585 0.267491
0.588678 0.633814 0.288273
0.694240 0.653925 0.307195
0.771206 0.665919 0.321172
0.818998 0.662745 0.327184
0.863188 0.666987 0.320470
0.894835 0.644190 0.301976
0.362066 0.684321 0.323491
0.438758 0.696529 0.285832
0.533074 0.704616 0.278508
0.631220 0.715755 0.300114
0.727169 0.732692 0.322637
0.802915 0.748806 0.338079
0.851926 0.755093 0.350042
0.880461 0.751888 0.348363
0.905760 0.740749 0.332647
0.414923 0.754299 0.334722
0.487251 0.770626 0.288121
0.577661 0.783505 0.272831
0.665827 0.792142 0.296757
0.752956 0.806455 0.320317
0.823301 0.821927 0.344244
0.871763 0.831998 0.360784
0.897765 0.834501 0.372564
0.917967 0.828855 0.361639
0.456764 0.827146 0.328527
0.528405 0.843961 0.266758
0.609094 0.861784 0.246098
0.696803 0.866423 0.278630
0.780118 0.872526 0.307500
0.838682 0.879850 0.334478
0.884672 0.887602 0.359564
0.908385 0.891142 0.378851
0.928832 0.892912 0.388708
0.031067 0.049287 0.343206
0.061799 0.040162 0.398871
0.169436 0.039887 0.370062
0.316442 0.038239 0.314427
0.447547 0.045228 0.315373
0.540337 0.051392 0.309606
0.608392 0.058900 0.306584
0.674250 0.065003 0.303655
0.747066 0.069184 0.294224
0.041169 0.137972 0.315190
0.084077 0.123140 0.351171
0.171695 0.108766 0.350042
0.322332 0.107179 0.322972
0.443885 0.114504 0.313603
0.537987 0.123568 0.304784
0.612665 0.133852 0.302739
0.690089 0.138216 0.296300
0.784604 0.141268 0.283482
0.071595 0.239445 0.309514
0.118929 0.241215 0.327367
0.218265 0.242557 0.338293
0.342412 0.231662 0.329381
0.461219 0.236454 0.324102
0.559503 0.248569 0.323552
0.639429 0.256535 0.319524
0.723262 0.254276 0.307744
0.825040 0.246189 0.289525
0.112154 0.351324 0.330236
0.165988 0.366064 0.339117
0.268589 0.369787 0.346044
0.399695 0.381018 0.359503
0.510704 0.388586 0.365454
0.600855 0.398169 0.369085
0.684779 0.406348 0.367468
0.771511 0.400580 0.355047
0.864073 0.375402 0.326390
0.174899 0.474037 0.365301
0.239322 0.493843 0.360021
0.335943 0.494362 0.358587
0.456733 0.499123 0.373205
0.570611 0.514519 0.388403
0.657313 0.523064 0.393500
0.727810 0.529870 0.393194
0.806912 0.525475 0.378180
0.876554 0.492988 0.344427
0.236088 0.577173 0.395087
0.300359 0.597833 0.379034
0.399054 0.600488 0.376104
0.503441 0.598505 0.389044
0.609522 0.612757 0.404669
0.707012 0.629602 0.421363
0.770962 0.634028 0.422187
0.834806 0.633997 0.409003
0.891478 0.611017 0.372503
0.290806 0.670527 0.421363
0.365209 0.683711 0.388281
0.455787 0.688838 0.384070
0.556207 0.691157 0.393622
0.646418 0.700832 0.417212
0.745464 0.721736 0.435218
0.809384 0.730007 0.448493
0.860685 0.732723 0.440528
0.905211 0.725765 0.407843
0.338994 0.746334 0.436225
0.413581 0.764004 0.395605
0.503410 0.775174 0.385199
0.603265 0.789853 0.386572
0.687465 0.794339 0.412390
0.774227 0.808469 0.434943
0.841154 0.822599 0.454780
0.887022 0.824735 0.467323
0.919341 0.829923 0.444617
0.391028 0.824918 0.436347
0.461097 0.841245 0.376074
0.547631 0.861112 0.353460
0.635737 0.877287 0.345037
0.719783 0.879789 0.375738
0.801114 0.884581 0.410376
0.860319 0.893004 0.439887
0.899931 0.898405 0.464607
0.932097 0.900267 0.478157
0.030762 0.053223 0.449958
0.052735 0.040406 0.501976
0.130282 0.042756 0.490761
0.263310 0.041932 0.418708
0.398474 0.041047 0.376196
0.495125 0.046967 0.373266
0.563043 0.053986 0.372229
0.625574 0.060090 0.367895
0.702358 0.064942 0.354894
0.042847 0.144869 0.413611
0.070680 0.121096 0.443000
0.135164 0.104952 0.443976
0.258244 0.105074 0.414191
0.388495 0.105104 0.387335
0.481544 0.112764 0.377691
0.556878 0.122805 0.371466
0.638514 0.128695 0.366217
0.738186 0.131350 0.348089
0.072633 0.241672 0.398932
0.106050 0.237064 0.421607
0.175906 0.226444 0.416052
0.276097 0.213352 0.404791
0.394690 0.213107 0.393683
0.494209 0.222538 0.393896
0.579705 0.232883 0.391791
0.667414 0.229374 0.376989
0.779782 0.219516 0.349310
0.107637 0.339971 0.412512
0.146426 0.344915 0.426520
0.226413 0.348852 0.428138
0.338781 0.356115 0.428901
0.446143 0.350378 0.427192
0.539635 0.358618 0.428504
0.626032 0.364508 0.422644
0.723018 0.357244 0.405005
0.829160 0.333227 0.370184
0.146456 0.452918 0.444526
0.191165 0.463539 0.451606
0.273320 0.462074 0.449561
0.390509 0.470558 0.455817
0.508202 0.486488 0.471046
0.598291 0.492012 0.474586
0.682948 0.493019 0.467720
0.772091 0.485847 0.453407
0.865324 0.455970 0.410407
0.192447 0.558801 0.477058
0.240574 0.573449 0.471809
0.332158 0.576013 0.464363
0.438972 0.573327 0.469795
0.549737 0.585107 0.486610
0.650401 0.602838 0.503624
0.728176 0.605524 0.499550
0.815091 0.606226 0.483619
0.885649 0.582986 0.436957
0.229831 0.652552 0.501060
0.281407 0.665461 0.483345
0.376684 0.674098 0.480293
0.479805 0.674556 0.486671
0.586664 0.683772 0.498054
0.679911 0.699397 0.515648
0.772671 0.714473 0.533471
0.847349 0.717281 0.517754
0.902556 0.710140 0.477363
0.274479 0.734371 0.519951
0.332982 0.750851 0.489754
0.427405 0.762844 0.480385
0.528618 0.775937 0.483986
0.630396 0.796750 0.494606
0.715572 0.804471 0.517205
0.808560 0.822843 0.537316
0.876921 0.827817 0.551995
0.922515 0.834989 0.528923
0.323339 0.821500 0.528222
0.384894 0.838010 0.482490
0.473304 0.855955 0.463416
0.564691 0.870878 0.455573
0.663813 0.891051 0.454093
0.747982 0.891539 0.492744
0.830839 0.900298 0.521172
0.892912 0.908782 0.553491
0.935088 0.910887 0.572259
0.030274 0.061189 0.543816
0.045350 0.043183 0.586114
0.104799 0.044556 0.577295
0.211154 0.043336 0.510079
0.339834 0.043061 0.455695
0.447913 0.042878 0.432135
0.516014 0.050141 0.427771
0.581231 0.056764 0.422553
0.660822 0.062104 0.410803
0.044678 0.151858 0.511498
0.061616 0.125277 0.542473
0.103517 0.101137 0.518486
0.209110 0.101534 0.484108
0.327565 0.104555 0.456092
0.430610 0.105440 0.438697
0.506950 0.114809 0.430121
0.589197 0.121370 0.423194
0.690089 0.124971 0.406928
0.073304 0.249821 0.484962
0.092927 0.235019 0.506523
0.147433 0.220340 0.487251
0.223194 0.200870 0.469306
0.337728 0.202121 0.458198
0.435462 0.203616 0.445899
0.519646 0.212772 0.442420
0.610681 0.214237 0.432380
0.728328 0.206058 0.408789
0.103761 0.338689 0.490547
0.131136 0.339239 0.506310
0.192416 0.335607 0.492714
0.287678 0.336248 0.487404
0.379538 0.324804 0.482216
0.479255 0.329503 0.481483
0.564263 0.333776 0.479103
0.662318 0.325658 0.461677
0.777310 0.299840 0.425116
0.137179 0.440070 0.511925
0.170230 0.442252 0.522637
0.238712 0.440864 0.514702
0.337209 0.446815 0.511925
0.446006 0.458427 0.525475
0.537987 0.457023 0.526848
0.621973 0.456260 0.516991
0.717250 0.443015 0.494789
0.824094 0.411887 0.453712
0.171023 0.545098 0.548821
0.206882 0.553735 0.553124
0.279850 0.545922 0.540978
0.381628 0.552148 0.541741
0.493202 0.565667 0.556207
0.599664 0.579339 0.574945
0.684382 0.578302 0.566857
0.777737 0.566888 0.544549
0.875669 0.545098 0.502800
0.203464 0.641108 0.576135
0.241764 0.649256 0.564172
0.318791 0.650538 0.553185
0.420356 0.657343 0.558618
0.527321 0.666133 0.568139
0.632441 0.682857 0.588129
0.731350 0.697932 0.605280
0.820310 0.703517 0.588922
0.897612 0.690669 0.549340
0.229801 0.721065 0.591943
0.269413 0.734829 0.574578
0.350164 0.745541 0.568170
0.452430 0.763302 0.572503
0.557351 0.781186 0.581384
0.662745 0.799863 0.597436
0.760830 0.810117 0.617792
0.852110 0.820523 0.633021
0.922515 0.833127 0.612726
0.270298 0.811887 0.610162
0.317266 0.830198 0.582696
0.397009 0.852384 0.572290
0.487175 0.869810 0.572931
0.583078 0.887327 0.579400
0.690669 0.907256 0.578759
0.786038 0.908812 0.610803
0.874662 0.916777 0.645106
0.933471 0.920745 0.669856
0.029786 0.069245 0.632502
0.042939 0.044495 0.648951
0.089418 0.043854 0.640406
0.171481 0.044556 0.587060
0.284596 0.045167 0.524071
0.391730 0.046082 0.495064
0.481239 0.046784 0.485115
0.545647 0.053132 0.479438
0.623713 0.059907 0.468238
0.044892 0.160555 0.601984
0.053681 0.129702 0.617090
0.086915 0.102815 0.600427
0.165438 0.101228 0.549950
0.272770 0.103395 0.516716
0.374548 0.106142 0.495674
0.463905 0.107454 0.485786
0.543633 0.113680 0.479591
0.640406 0.118196 0.464576
0.073457 0.259434 0.573663
0.083558 0.238773 0.584222
0.125795 0.218204 0.557488
0.179294 0.194400 0.534173
0.282185 0.194308 0.516594
0.380468 0.197482 0.503685
0.468055 0.198978 0.493355
0.554681 0.199039 0.486610
0.673182 0.193301 0.467414
0.097810 0.350072 0.568475
0.114900 0.337499 0.575036
0.167025 0.331731 0.562890
0.239002 0.319951 0.546075
0.312337 0.303563 0.534783
0.413764 0.307256 0.533898
0.503868 0.310704 0.525200
0.596338 0.302464 0.513481
0.717617 0.278416 0.484108
0.123812 0.437537 0.577783
0.147982 0.436103 0.583886
0.206119 0.430396 0.572168
0.286275 0.429053 0.569024
0.376516 0.428534 0.571740
0.456336 0.421332 0.569574
0.554742 0.427665 0.569268
0.650507 0.408499 0.552300
0.764767 0.371862 0.509697
0.154391 0.535698 0.611078
0.180117 0.533318 0.608362
0.242771 0.525597 0.595972
0.330510 0.528588 0.595850
0.422370 0.535790 0.603815
0.520134 0.545647 0.618921
0.615473 0.544427 0.619471
0.714900 0.525505 0.597559
0.824979 0.488777 0.549462
0.184695 0.631678 0.645258
0.210910 0.631098 0.636439
0.277378 0.627008 0.624170
0.365148 0.631251 0.624994
0.464576 0.645319 0.639673
0.565087 0.661982 0.660822
0.686213 0.684688 0.683009
0.791470 0.678553 0.664607
0.891661 0.661097 0.625879
0.205905 0.709987 0.662348
0.231083 0.717189 0.650721
0.293706 0.726070 0.639277
0.386572 0.744503 0.652430
0.482139 0.764462 0.664240
0.585779 0.787289 0.682948
0.717433 0.814542 0.706477
0.838682 0.823178 0.715206
0.924590 0.824796 0.699184
0.235477 0.805936 0.686275
0.260258 0.813077 0.665003
0.328862 0.838926 0.666560
0.411414 0.859007 0.680018
0.501259 0.884978 0.688411
0.596948 0.902800 0.701686
0.720272 0.921904 0.716670
0.853147 0.926726 0.742855
0.939361 0.933562 0.770932
0.029236 0.075837 0.703578
0.034913 0.048768 0.714015
0.073121 0.045838 0.697383
0.144656 0.046174 0.646815
0.236606 0.047211 0.590509
0.337835 0.048280 0.556085
0.431006 0.049104 0.544976
0.519219 0.050965 0.540185
0.598627 0.058137 0.531334
0.045502 0.170016 0.681270
0.047608 0.136477 0.699367
0.069154 0.099763 0.681086
0.131044 0.095064 0.634455
0.217380 0.096803 0.589929
0.312932 0.100496 0.565362
0.406775 0.104921 0.551598
0.507134 0.108553 0.544976
0.601617 0.113954 0.535027
0.069856 0.272068 0.650263
0.070497 0.240482 0.664790
0.096864 0.210941 0.633051
0.138308 0.178897 0.608850
0.211551 0.175875 0.583947
0.305425 0.178103 0.567407
0.401404 0.181888 0.558251
0.497810 0.184421 0.548241
0.613123 0.179141 0.532921
0.088746 0.356359 0.636622
0.093385 0.339025 0.648035
0.123842 0.315862 0.632044
0.174960 0.294652 0.613611
0.226429 0.272465 0.597192
0.323857 0.274723 0.594873
0.426734 0.279362 0.587732
0.529717 0.281590 0.579217
0.647974 0.257542 0.551843
0.111849 0.446845 0.647181
0.123049 0.433082 0.650996
0.157259 0.413550 0.643458
0.213504 0.403113 0.634058
0.276020 0.387060 0.630701
0.352026 0.374578 0.623926
0.463081 0.378866 0.624567
0.573419 0.380407 0.618219
0.689448 0.341070 0.579095
0.135286 0.529076 0.667170
0.149599 0.520775 0.666194
0.189883 0.507134 0.659052
0.257755 0.502586 0.657099
0.328893 0.503044 0.664790
0.409155 0.501335 0.670832
0.511009 0.493080 0.670344
0.633936 0.492012 0.669001
0.752926 0.452125 0.625727
0.162783 0.619440 0.693904
0.179049 0.614923 0.691798
0.220981 0.599817 0.679927
0.292424 0.601160 0.683284
0.374487 0.613153 0.698878
0.464698 0.628473 0.716518
0.578912 0.643030 0.730068
0.719448 0.640192 0.738979
0.850095 0.608789 0.693049
0.188754 0.705470 0.726955
0.201846 0.699123 0.712154
0.250095 0.703365 0.705287
0.321660 0.712367 0.714534
0.407141 0.734035 0.741390
0.498726 0.760037 0.765133
0.622309 0.785214 0.784268
0.796353 0.818875 0.813657
0.927001 0.826200 0.796658
0.204868 0.793423 0.747799
0.221225 0.797513 0.735592
0.264103 0.814389 0.740169
0.338201 0.845273 0.770291
0.417304 0.880522 0.802701
0.506767 0.902159 0.812039
0.625238 0.918273 0.817777
0.815091 0.935241 0.856199
0.946410 0.945769 0.873564
0.028748 0.083589 0.781979
0.033906 0.045960 0.774960
0.057649 0.041382 0.764370
0.109743 0.041810 0.723568
0.190219 0.043000 0.669276
0.274632 0.045838 0.628931
0.370916 0.048554 0.612238
0.461646 0.050660 0.605219
0.570855 0.055177 0.602228
0.038880 0.171633 0.782010
0.035798 0.134554 0.793088
0.049928 0.095003 0.778317
0.091707 0.085725 0.733272
0.160586 0.087587 0.691035
0.239109 0.091951 0.651667
0.333776 0.096681 0.634272
0.438239 0.100710 0.622950
0.561913 0.107881 0.618494
0.058137 0.276341 0.744198
0.051453 0.231876 0.758175
0.063539 0.194339 0.744656
0.086702 0.157778 0.723079
0.139773 0.150729 0.697597
0.212772 0.152560 0.666468
0.305913 0.155520 0.650782
0.420294 0.161868 0.639551
0.553399 0.168093 0.631495
0.072175 0.365118 0.727169
0.065400 0.328252 0.733913
0.077943 0.289921 0.720424
0.097932 0.252964 0.712001
0.131441 0.225101 0.696559
0.207523 0.226719 0.687739
0.303471 0.229679 0.674098
0.431617 0.235447 0.667689
0.573175 0.239719 0.657649
0.086336 0.448646 0.723415
0.085054 0.419562 0.731044
0.103212 0.389471 0.726558
0.123293 0.357336 0.718013
0.145388 0.321569 0.720272
0.202304 0.301122 0.705989
0.307195 0.306401 0.702876
0.456733 0.316350 0.704555
0.606867 0.319799 0.692470
0.108156 0.534020 0.741299
0.106905 0.506645 0.740017
0.127443 0.482948 0.735592
0.156283 0.465583 0.735195
0.188083 0.448829 0.744076
0.242557 0.422156 0.753872
0.329778 0.408118 0.743801
0.498299 0.421424 0.751949
0.668147 0.427558 0.746303
0.134432 0.618280 0.765042
0.133516 0.593347 0.754177
0.159579 0.577417 0.753964
0.191409 0.570123 0.759396
0.240909 0.570520 0.772274
0.316136 0.576898 0.792050
0.417670 0.571588 0.808499
0.566796 0.565606 0.812100
0.766537 0.577691 0.818418
0.155856 0.699519 0.787869
0.159518 0.684443 0.776425
0.184726 0.678431 0.775387
0.221317 0.677943 0.784146
0.274022 0.692561 0.807553
0.357855 0.716335 0.836667
0.491615 0.745876 0.861662
0.689448 0.773617 0.879576
0.882017 0.775845 0.885130
0.173526 0.778439 0.808133
0.174655 0.767605 0.789792
0.203464 0.778042 0.794705
0.237705 0.801785 0.817044
0.289433 0.836393 0.848234
0.371313 0.872618 0.875181
0.504845 0.906523 0.901976
0.714656 0.933837 0.926207
0.959869 0.959869 0.951537
