assets/luts/impulz-fuji-pro-400-fpe-log-d9ea23d0.cube
# (C) 2014 VisionColor & Patchflyer [www.vision-color.com]
# Generator: VC Patchmatch v.2.1.1 [64/53]
# All work and no play makes Jack a dull boy.
# LUT generated from: Fuji Pro 400_FPE
LUT_3D_SIZE 5
0.033509 0.036683 0.037079
0.136233 0.049775 0.040131
0.354589 0.061616 0.052399
0.461280 0.107576 0.071015
0.553185 0.161227 0.101503
0.058045 0.151186 0.061463
0.262699 0.223758 0.082094
0.522835 0.332692 0.136690
0.660822 0.394537 0.179690
0.709834 0.381903 0.179599
0.234974 0.419455 0.171115
0.520302 0.521340 0.221561
0.662760 0.581628 0.271489
0.815030 0.631189 0.326390
0.842252 0.609400 0.311315
0.486458 0.613275 0.267613
0.704707 0.685969 0.324041
0.808835 0.718929 0.363928
0.882322 0.744137 0.393439
0.907958 0.747372 0.400305
0.585290 0.697749 0.317113
0.819272 0.762051 0.388037
0.884153 0.781460 0.415656
0.910277 0.792813 0.425757
0.921050 0.803983 0.426093
0.029664 0.036622 0.059968
0.088594 0.045991 0.079133
0.281834 0.066102 0.102358
0.439948 0.086549 0.119387
0.502220 0.103426 0.147402
0.035492 0.113649 0.140352
0.180636 0.164218 0.165042
0.470893 0.183841 0.141512
0.563287 0.173892 0.124849
0.658808 0.253300 0.211978
0.096193 0.369940 0.222232
0.399527 0.524239 0.254978
0.730266 0.615839 0.328527
0.825711 0.584237 0.306172
0.855436 0.592813 0.367224
0.148074 0.529656 0.314305
0.552605 0.676081 0.318242
0.831388 0.754055 0.401709
0.907988 0.786740 0.446937
0.914519 0.774624 0.501762
0.291386 0.632959 0.391272
0.609400 0.727169 0.403693
0.824704 0.783749 0.458869
0.900633 0.821439 0.527337
0.922881 0.831510 0.544732
0.030365 0.036713 0.117830
0.062959 0.043061 0.117433
0.237583 0.067475 0.154177
0.392859 0.087404 0.190951
0.474617 0.103273 0.200931
0.037842 0.090608 0.210819
0.059358 0.073426 0.198917
0.340002 0.125460 0.255589
0.491554 0.120882 0.232486
0.624201 0.203372 0.295995
0.067506 0.309331 0.365133
0.147250 0.447532 0.465049
0.536202 0.509194 0.488518
0.721065 0.441794 0.421805
0.823148 0.540688 0.500587
0.143435 0.553185 0.480293
0.215824 0.633753 0.523659
0.608545 0.719265 0.539895
0.858549 0.791989 0.638758
0.899748 0.788937 0.689998
0.189670 0.639399 0.540520
0.239536 0.664363 0.556329
0.646448 0.774563 0.611658
0.865507 0.844541 0.701534
0.912291 0.864897 0.748196
0.032410 0.036378 0.171023
0.039368 0.037964 0.150881
0.144137 0.056092 0.180667
0.319280 0.082063 0.218997
0.464302 0.105867 0.249271
0.038788 0.080262 0.255192
0.035279 0.045838 0.213107
0.094591 0.059693 0.243351
0.420539 0.108186 0.297154
0.579675 0.170718 0.343450
0.068940 0.305440 0.437873
0.069917 0.309621 0.464790
0.158587 0.274281 0.448814
0.639948 0.391257 0.546883
0.793851 0.522805 0.599954
0.142977 0.559411 0.587366
0.180301 0.621241 0.653773
0.363882 0.679957 0.684260
0.767758 0.771572 0.747372
0.889372 0.805234 0.788144
0.246586 0.682551 0.672999
0.239292 0.685908 0.680781
0.516854 0.771786 0.728298
0.821256 0.846250 0.796109
0.910307 0.876982 0.837522
0.033631 0.037354 0.198947
0.033539 0.037507 0.196109
0.047059 0.041138 0.205661
0.196048 0.065095 0.242557
0.430762 0.099123 0.284459
0.041444 0.097658 0.301030
0.040497 0.083406 0.296178
0.066712 0.082368 0.322026
0.306065 0.125246 0.375372
0.545342 0.181674 0.420020
0.066896 0.299382 0.467750
0.063996 0.275135 0.462867
0.126986 0.294301 0.501808
0.490455 0.424155 0.607660
0.753262 0.497887 0.665034
0.129763 0.516655 0.595850
0.137758 0.528557 0.611872
0.353872 0.646784 0.698817
0.677531 0.727626 0.761593
0.868833 0.786648 0.811368
0.189120 0.638239 0.675227
0.224674 0.676173 0.701289
0.488212 0.772763 0.765255
0.787076 0.845731 0.830625
0.929107 0.894743 0.888395
