assets/luts/impulz-fuji-superior-200-fpe-rec709-d8229950.cube
# (C) 2014 VisionColor & Patchflyer [www.vision-color.com]
# Generator: VC Patchmatch v.2.1.1 [64/53]
# All work and no play makes Jack a dull boy.
# LUT generated from: Fuji Superior 200_FPE
LUT_3D_SIZE 17
0.037049 0.041291 0.041779
0.055818 0.043030 0.040314
0.094362 0.049561 0.040772
0.141695 0.056001 0.042939
0.197513 0.057618 0.040833
0.256718 0.064454 0.044709
0.302983 0.064698 0.045502
0.342229 0.063539 0.046082
0.378546 0.072114 0.049134
0.409918 0.077180 0.052277
0.432898 0.076753 0.052338
0.458381 0.085573 0.053498
0.478584 0.088350 0.057008
0.498848 0.095399 0.060548
0.516350 0.095155 0.060304
0.534539 0.106874 0.061494
0.551232 0.109560 0.066957
0.039155 0.054536 0.042725
0.075227 0.065949 0.043244
0.116640 0.073152 0.043427
0.182132 0.084901 0.045014
0.256992 0.101259 0.044739
0.315099 0.101472 0.047730
0.368414 0.110689 0.048737
0.416663 0.123415 0.050019
0.450385 0.124331 0.052979
0.481849 0.128939 0.056397
0.509239 0.142733 0.057282
0.534356 0.154208 0.058564
0.551812 0.152987 0.061830
0.570031 0.159762 0.066194
0.585962 0.165835 0.066407
0.601953 0.175570 0.067414
0.616602 0.175723 0.072663
0.048676 0.083406 0.046540
0.088411 0.097749 0.047669
0.155337 0.117617 0.047517
0.223545 0.133425 0.049683
0.309239 0.147005 0.048707
0.377508 0.165011 0.052369
0.434607 0.174655 0.053223
0.482643 0.181827 0.054017
0.522148 0.198062 0.058900
0.554833 0.210178 0.062928
0.580682 0.215702 0.063111
0.605463 0.224338 0.064942
0.623163 0.233524 0.069520
0.640162 0.241825 0.074098
0.654078 0.244633 0.073854
0.666133 0.244663 0.074311
0.678584 0.249943 0.080323
0.066651 0.123354 0.053254
0.117952 0.145907 0.054200
0.200504 0.174228 0.053376
0.277256 0.194614 0.054322
0.372198 0.220890 0.054658
0.433143 0.231083 0.057465
0.491417 0.245396 0.060517
0.546014 0.263523 0.064637
0.582910 0.274662 0.067659
0.614527 0.284581 0.070863
0.640803 0.295506 0.075288
0.665492 0.305913 0.079133
0.683467 0.314611 0.082124
0.700038 0.321355 0.084688
0.711238 0.323552 0.087861
0.721065 0.323339 0.091463
0.732998 0.325597 0.094179
0.101686 0.182101 0.052094
0.176547 0.210910 0.054536
0.261784 0.246616 0.057038
0.358267 0.276066 0.059266
0.436774 0.295354 0.060731
0.494438 0.308019 0.068666
0.550973 0.322972 0.072328
0.604334 0.338842 0.074403
0.638727 0.349310 0.080476
0.669093 0.360204 0.088106
0.695064 0.370367 0.089326
0.718898 0.379034 0.092195
0.734524 0.386206 0.097353
0.747768 0.391943 0.104891
0.761746 0.396490 0.105165
0.772549 0.397101 0.107546
0.783902 0.398535 0.110079
0.167819 0.249088 0.056703
0.249760 0.280003 0.060975
0.341024 0.315740 0.066346
0.425711 0.345403 0.074281
0.507424 0.368444 0.078706
0.556802 0.380896 0.083040
0.608255 0.391516 0.085878
0.656214 0.403845 0.092439
0.686458 0.414374 0.097230
0.715175 0.424262 0.105165
0.741390 0.433936 0.105715
0.762539 0.441596 0.110658
0.777035 0.449195 0.116243
0.790127 0.454963 0.123751
0.803830 0.459266 0.124178
0.814481 0.460700 0.125460
0.821408 0.458167 0.127718
0.245960 0.316503 0.062440
0.327901 0.347234 0.068635
0.417960 0.380529 0.077394
0.497581 0.409888 0.087922
0.572091 0.433448 0.099092
0.628214 0.449592 0.104555
0.664195 0.459144 0.109407
0.709438 0.468360 0.115480
0.732631 0.472602 0.118013
0.755734 0.479896 0.122011
0.777188 0.486732 0.126223
0.796109 0.492439 0.132662
0.811582 0.499947 0.135744
0.825101 0.506371 0.140322
0.832822 0.507866 0.141146
0.839017 0.507103 0.143679
0.847837 0.505241 0.142916
0.338857 0.384558 0.067659
0.417197 0.413672 0.078798
0.494835 0.443122 0.091402
0.569100 0.469429 0.103914
0.636728 0.492470 0.118288
0.691768 0.511528 0.127871
0.728267 0.522210 0.133272
0.761074 0.530938 0.137819
0.777737 0.529717 0.141573
0.792264 0.529107 0.145510
0.811093 0.535851 0.146639
0.828824 0.540948 0.152560
0.841947 0.546227 0.155093
0.849088 0.548119 0.160189
0.856016 0.551446 0.158846
0.862211 0.550958 0.161044
0.870848 0.548363 0.159487
0.420157 0.442206 0.080201
0.487480 0.467231 0.093568
0.557610 0.492988 0.106538
0.619455 0.515068 0.122499
0.681819 0.535607 0.136751
0.727871 0.551049 0.149569
0.766354 0.564202 0.157290
0.794308 0.571191 0.161807
0.812741 0.576440 0.163790
0.827726 0.576318 0.167788
0.844297 0.580835 0.168338
0.855100 0.582544 0.172976
0.863249 0.585260 0.174899
0.870237 0.586969 0.179934
0.876646 0.589410 0.178531
0.884886 0.592554 0.176761
0.888640 0.586664 0.175875
0.491646 0.491737 0.097383
0.544060 0.511376 0.110811
0.605463 0.532921 0.125185
0.661433 0.553643 0.140902
0.716823 0.572381 0.155337
0.763882 0.587884 0.168276
0.796445 0.599176 0.178042
0.823117 0.607141 0.183993
0.842771 0.612299 0.186770
0.857023 0.616968 0.187869
0.865354 0.616297 0.188357
0.873045 0.615503 0.192477
0.879973 0.617060 0.192996
0.887022 0.620203 0.196262
0.894194 0.623255 0.195834
0.898100 0.622919 0.195682
0.901091 0.620233 0.192142
0.552544 0.533074 0.114717
0.595666 0.549035 0.127932
0.646571 0.566735 0.141909
0.699428 0.585534 0.156527
0.743587 0.601465 0.168887
0.790951 0.616449 0.181369
0.818662 0.626398 0.190982
0.843503 0.635554 0.199863
0.866178 0.642145 0.204288
0.875608 0.645899 0.205997
0.883207 0.649256 0.207858
0.890562 0.647822 0.211612
0.897002 0.648554 0.211673
0.900053 0.647761 0.213107
0.902586 0.647700 0.211673
0.906401 0.647364 0.212253
0.909972 0.645228 0.206271
0.606439 0.569085 0.131838
0.643549 0.582422 0.144625
0.683223 0.596490 0.157290
0.729488 0.612451 0.169650
0.771115 0.627741 0.181918
0.814298 0.642420 0.194339
0.839963 0.651911 0.204868
0.863401 0.660792 0.214755
0.884215 0.668544 0.223789
0.892790 0.672511 0.226444
0.900236 0.675807 0.228305
0.907439 0.678981 0.230076
0.909087 0.675471 0.229648
0.909239 0.671962 0.230655
0.911376 0.671382 0.227787
0.914519 0.671168 0.228397
0.918303 0.669306 0.222416
0.645624 0.597375 0.148104
0.681697 0.610315 0.160586
0.716243 0.622736 0.172366
0.755673 0.635798 0.183291
0.795346 0.650050 0.194400
0.829831 0.662989 0.205631
0.855344 0.672175 0.215335
0.877226 0.680262 0.224033
0.891691 0.686336 0.233616
0.901579 0.691585 0.239231
0.908873 0.694820 0.241032
0.914122 0.697261 0.243839
0.918029 0.699245 0.246860
0.918303 0.695888 0.247990
0.920470 0.695399 0.245182
0.923613 0.695949 0.244633
0.925048 0.691554 0.239261
0.677363 0.619379 0.160037
0.709926 0.631891 0.172793
0.744198 0.644251 0.184054
0.776761 0.655634 0.194369
0.813687 0.668757 0.205264
0.843870 0.680507 0.216831
0.866758 0.690120 0.226413
0.885374 0.697292 0.235630
0.897795 0.702785 0.245243
0.908080 0.707912 0.252720
0.914855 0.712032 0.256199
0.918914 0.714046 0.259556
0.922911 0.716060 0.262882
0.926055 0.717891 0.263798
0.928008 0.717525 0.261662
0.929076 0.715785 0.260746
0.931517 0.713863 0.255283
0.708278 0.640497 0.172000
0.735561 0.652857 0.185672
0.769131 0.665003 0.196536
0.799680 0.675837 0.206638
0.827634 0.686244 0.216983
0.856687 0.697536 0.227695
0.880034 0.707240 0.236820
0.891295 0.713619 0.245640
0.903258 0.718898 0.254551
0.914641 0.724086 0.262974
0.918761 0.727504 0.267979
0.922545 0.730068 0.272251
0.926574 0.732052 0.275608
0.929839 0.733913 0.277378
0.931548 0.735348 0.276921
0.932738 0.734096 0.276402
0.935332 0.732662 0.271397
0.733669 0.655543 0.173373
0.760433 0.669978 0.189303
0.791623 0.682277 0.200961
0.819791 0.692958 0.211612
0.839719 0.702205 0.223484
0.867002 0.713100 0.234287
0.889952 0.722957 0.245396
0.899138 0.729366 0.254765
0.909117 0.735378 0.263981
0.919432 0.740383 0.273564
0.923247 0.743679 0.280613
0.926482 0.746883 0.286625
0.929900 0.748898 0.290806
0.932952 0.750271 0.293797
0.934722 0.751766 0.293339
0.936584 0.753292 0.292851
0.938964 0.752132 0.288212
0.759060 0.671260 0.174411
0.785092 0.685298 0.189914
0.810361 0.698604 0.204410
0.840696 0.710506 0.218814
0.859586 0.719112 0.230167
0.880278 0.729335 0.242008
0.900267 0.739010 0.256413
0.908934 0.744869 0.264317
0.917327 0.750546 0.271977
0.922667 0.755520 0.281956
0.927031 0.758633 0.289219
0.930053 0.761410 0.294072
0.932830 0.764035 0.299809
0.934997 0.765194 0.305516
0.936858 0.766720 0.305180
0.938720 0.768277 0.304723
0.940246 0.769528 0.304631
0.034302 0.040955 0.057069
0.046906 0.042939 0.058839
0.083314 0.048066 0.058350
0.130892 0.053590 0.057771
0.184329 0.055146 0.061372
0.240635 0.059327 0.058564
0.285649 0.058503 0.058808
0.325383 0.057252 0.063294
0.358343 0.059846 0.061463
0.387884 0.063661 0.063539
0.409003 0.061860 0.064698
0.429541 0.061189 0.069215
0.451667 0.067750 0.067109
0.470771 0.073762 0.068757
0.486488 0.072450 0.068421
0.500389 0.070558 0.074434
0.518914 0.078523 0.074495
0.034638 0.059541 0.062959
0.058930 0.069062 0.069764
0.108797 0.078798 0.069551
0.179507 0.085634 0.065827
0.240574 0.090303 0.066133
0.303899 0.096620 0.065126
0.354467 0.101869 0.068116
0.396246 0.106203 0.070314
0.433600 0.109377 0.067597
0.464973 0.115389 0.069978
0.489632 0.123171 0.075746
0.511650 0.127871 0.077943
0.532799 0.135897 0.078065
0.551904 0.143954 0.083925
0.568750 0.146151 0.088167
0.585382 0.152346 0.092897
0.601373 0.155947 0.092958
0.043610 0.090425 0.069306
0.077028 0.108553 0.076356
0.152712 0.130770 0.075319
0.227604 0.141909 0.071443
0.307774 0.155886 0.071229
0.375280 0.165927 0.069520
0.424109 0.166110 0.072236
0.469551 0.178561 0.075502
0.508568 0.190372 0.073548
0.537804 0.194064 0.075746
0.561273 0.198611 0.082216
0.583856 0.208469 0.085725
0.603723 0.217777 0.085603
0.621088 0.223789 0.091279
0.635828 0.224338 0.095705
0.647669 0.227420 0.101656
0.661677 0.232334 0.101228
0.059480 0.136446 0.080323
0.113222 0.165316 0.082643
0.188327 0.188296 0.081392
0.289952 0.217136 0.078859
0.365911 0.228428 0.079347
0.435828 0.235599 0.079042
0.489235 0.247868 0.079896
0.534722 0.259403 0.082887
0.576349 0.267704 0.079591
0.608118 0.278141 0.084993
0.630854 0.287480 0.093935
0.651270 0.294591 0.097108
0.670192 0.299870 0.095369
0.685267 0.304082 0.101778
0.697108 0.307774 0.109102
0.707179 0.308415 0.114656
0.719234 0.306523 0.110170
0.086610 0.196353 0.094423
0.162356 0.226322 0.087129
0.249821 0.256596 0.089998
0.353918 0.289342 0.087709
0.430549 0.308659 0.090913
0.494179 0.313787 0.094087
0.547814 0.324224 0.091981
0.590234 0.334722 0.096315
0.629267 0.343664 0.099062
0.661707 0.352514 0.102724
0.685481 0.362768 0.108644
0.704890 0.369757 0.113008
0.721126 0.373571 0.115084
0.735622 0.377935 0.122316
0.749142 0.382239 0.126101
0.759701 0.382727 0.129824
0.766476 0.375952 0.126223
0.149905 0.262943 0.101350
0.230777 0.293217 0.087373
0.317327 0.322576 0.093355
0.412009 0.355718 0.097627
0.492790 0.378912 0.103243
0.557855 0.393530 0.107210
0.601312 0.395026 0.109895
0.640009 0.403082 0.116640
0.677546 0.413947 0.118074
0.710109 0.421485 0.121004
0.731411 0.427527 0.129580
0.749142 0.433997 0.135195
0.765164 0.440009 0.135531
0.778531 0.443122 0.143130
0.790433 0.445472 0.146456
0.798581 0.443946 0.148074
0.805203 0.437110 0.143740
0.224460 0.328954 0.108614
0.307179 0.357671 0.090852
0.389975 0.385992 0.097414
0.475242 0.416388 0.108797
0.551034 0.440406 0.118807
0.613458 0.456062 0.126009
0.655726 0.464027 0.131441
0.689235 0.467475 0.136843
0.721126 0.474037 0.139223
0.752194 0.481758 0.144106
0.771939 0.486183 0.152255
0.789731 0.491676 0.157015
0.805356 0.497810 0.157626
0.814603 0.500786 0.164401
0.822965 0.500359 0.167269
0.830625 0.498329 0.169192
0.839658 0.493355 0.162020
0.303288 0.392737 0.125612
0.387137 0.418708 0.101839
0.459480 0.444343 0.114199
0.537453 0.470375 0.126314
0.605676 0.493599 0.139712
0.659983 0.507744 0.149386
0.706508 0.517784 0.155978
0.734401 0.524742 0.160525
0.760220 0.525811 0.163333
0.784665 0.528496 0.168795
0.805875 0.534630 0.172854
0.821286 0.539391 0.176974
0.829526 0.541100 0.181064
0.839597 0.544182 0.186770
0.849515 0.547143 0.186648
0.857542 0.546136 0.187991
0.865690 0.540703 0.181338
0.378256 0.447669 0.140810
0.458640 0.470100 0.113588
0.518318 0.490822 0.128267
0.585794 0.513451 0.140932
0.648875 0.534905 0.153994
0.700938 0.552178 0.168063
0.750301 0.564294 0.177249
0.775448 0.570886 0.182467
0.798245 0.576165 0.186770
0.821683 0.577508 0.191592
0.833890 0.576257 0.194949
0.842741 0.577783 0.198367
0.850553 0.580133 0.201846
0.860319 0.582818 0.207767
0.870878 0.585290 0.205264
0.875700 0.585077 0.205447
0.878508 0.575982 0.199161
0.449638 0.495888 0.153903
0.517327 0.515068 0.130434
0.574487 0.534752 0.144991
0.628840 0.553338 0.158816
0.688960 0.572656 0.173220
0.737911 0.588251 0.185611
0.780972 0.601556 0.197879
0.810300 0.610315 0.204471
0.832517 0.615442 0.208652
0.848020 0.619226 0.214328
0.857359 0.615686 0.217380
0.863554 0.613886 0.220096
0.870451 0.615595 0.222812
0.879881 0.619348 0.227695
0.885496 0.617365 0.224643
0.888304 0.615503 0.225223
0.891722 0.610193 0.214633
0.506004 0.535882 0.173648
0.562676 0.549584 0.144625
0.616419 0.568139 0.158572
0.668147 0.584619 0.171389
0.717647 0.600885 0.184482
0.763577 0.615442 0.197330
0.802640 0.627955 0.211093
0.832273 0.637873 0.221225
0.853330 0.644434 0.227878
0.867002 0.647852 0.233829
0.877653 0.651118 0.237858
0.884855 0.650202 0.240879
0.889616 0.649470 0.242771
0.891752 0.646815 0.247196
0.897642 0.646967 0.243778
0.900450 0.644831 0.244297
0.903960 0.641505 0.233249
0.553002 0.570581 0.196658
0.607263 0.582177 0.164187
0.649317 0.596338 0.176516
0.699031 0.611597 0.188663
0.744808 0.626856 0.200717
0.783413 0.639643 0.213169
0.820523 0.651209 0.225589
0.850217 0.661097 0.236149
0.865507 0.667048 0.244541
0.879637 0.671351 0.251041
0.891630 0.674556 0.256016
0.896819 0.676997 0.258854
0.899260 0.674220 0.260533
0.902342 0.672267 0.264958
0.907500 0.672602 0.262699
0.911467 0.672541 0.262547
0.914549 0.669062 0.252872
0.593469 0.598810 0.211368
0.641718 0.605982 0.175692
0.675959 0.618372 0.186831
0.723293 0.633051 0.198581
0.766201 0.646906 0.209903
0.796506 0.658686 0.220981
0.832670 0.670039 0.233677
0.860899 0.679530 0.245945
0.873808 0.685267 0.256016
0.887907 0.690852 0.264652
0.899840 0.694087 0.270878
0.904326 0.696101 0.274510
0.908324 0.698116 0.277836
0.911467 0.696315 0.282383
0.916655 0.696803 0.280247
0.918578 0.694728 0.277714
0.920226 0.690089 0.270420
0.625055 0.620508 0.219913
0.673884 0.629084 0.190097
0.707301 0.641169 0.200900
0.745022 0.653834 0.211704
0.786068 0.666743 0.224399
0.815793 0.678401 0.235843
0.846372 0.689693 0.247410
0.871885 0.698756 0.261753
0.884489 0.704433 0.271550
0.896788 0.709865 0.280552
0.906310 0.713710 0.288518
0.911833 0.715633 0.292790
0.915862 0.717647 0.296117
0.919738 0.719478 0.299626
0.922393 0.716976 0.296513
0.923949 0.714748 0.294163
0.926970 0.713100 0.286625
0.650935 0.640558 0.228977
0.701930 0.648219 0.194766
0.734493 0.660029 0.205295
0.766690 0.672023 0.217746
0.804898 0.684596 0.231510
0.833036 0.695064 0.241001
0.858061 0.705501 0.252781
0.880613 0.715084 0.267247
0.894133 0.720729 0.276127
0.904509 0.725551 0.284886
0.910918 0.729458 0.295171
0.917082 0.732754 0.302068
0.921111 0.734768 0.305425
0.924468 0.736110 0.309239
0.927855 0.737392 0.313298
0.929534 0.735622 0.311345
0.932738 0.734676 0.304356
0.671046 0.656184 0.226963
0.727199 0.664088 0.189853
0.758541 0.675776 0.200595
0.791501 0.688563 0.216251
0.822812 0.700740 0.231205
0.849058 0.710536 0.240970
0.869963 0.720851 0.256901
0.889952 0.730831 0.272526
0.902800 0.737881 0.283360
0.909941 0.742123 0.293980
0.916014 0.746151 0.304936
0.921599 0.749905 0.314855
0.924559 0.751797 0.319493
0.927886 0.753048 0.323461
0.931365 0.754360 0.327611
0.933745 0.755856 0.328588
0.935699 0.753384 0.320897
0.698146 0.671901 0.226505
0.749844 0.677424 0.185977
0.777920 0.690547 0.200259
0.810330 0.703090 0.215641
0.841154 0.715053 0.230259
0.858183 0.724880 0.246738
0.877623 0.734615 0.261814
0.896880 0.743954 0.275822
0.908782 0.750973 0.287266
0.912993 0.755795 0.297917
0.918700 0.759457 0.307683
0.924712 0.763210 0.318090
0.927245 0.766110 0.325780
0.929412 0.767636 0.332280
0.933013 0.769009 0.336583
0.935454 0.770230 0.338109
0.937041 0.771511 0.338048
0.031403 0.042603 0.082979
0.042329 0.043336 0.084230
0.074861 0.048035 0.090730
0.121645 0.053590 0.093507
0.175967 0.055390 0.088594
0.230076 0.059663 0.092836
0.278538 0.059205 0.091432
0.320348 0.058045 0.091829
0.353185 0.060334 0.090211
0.383612 0.063355 0.093477
0.407477 0.061616 0.093812
0.428077 0.060945 0.097719
0.450202 0.067506 0.094911
0.470436 0.072847 0.099397
0.488563 0.071656 0.100099
0.502434 0.069795 0.105409
0.521263 0.077821 0.103548
0.031739 0.062562 0.089845
0.055818 0.072633 0.099855
0.096040 0.076692 0.108064
0.164523 0.082338 0.101808
0.224582 0.086397 0.098024
0.283482 0.087373 0.098909
0.335729 0.092561 0.094453
0.377234 0.094850 0.094179
0.408942 0.090150 0.097536
0.439002 0.094362 0.096742
0.465766 0.102693 0.094545
0.486213 0.105623 0.095949
0.502922 0.103609 0.100984
0.520684 0.109590 0.104952
0.540093 0.115969 0.104097
0.556023 0.120974 0.106050
0.569360 0.117800 0.106233
0.034760 0.098085 0.104616
0.061769 0.117525 0.118715
0.115480 0.129915 0.122560
0.196292 0.144381 0.122347
0.279759 0.150759 0.116030
0.342351 0.154360 0.114107
0.396918 0.163241 0.116365
0.443610 0.166964 0.113100
0.478248 0.173526 0.118135
0.508141 0.176577 0.114961
0.535973 0.186648 0.120699
0.559564 0.191348 0.120394
0.577966 0.198123 0.126589
0.596674 0.202426 0.128695
0.613977 0.208743 0.132692
0.631830 0.210147 0.133608
0.645624 0.212680 0.137911
0.046876 0.146334 0.122042
0.098787 0.174105 0.122927
0.161685 0.191897 0.132845
0.257481 0.218997 0.130678
0.342596 0.229648 0.126467
0.410986 0.239384 0.123842
0.465461 0.246647 0.123201
0.510216 0.248020 0.119783
0.544091 0.255436 0.129213
0.577783 0.265568 0.126680
0.603815 0.273320 0.132143
0.625422 0.275517 0.131502
0.641077 0.280552 0.140139
0.657710 0.286046 0.142885
0.673793 0.290166 0.145754
0.690028 0.289403 0.146334
0.701778 0.284489 0.146151
0.071839 0.210849 0.137209
0.130770 0.233890 0.139590
0.217868 0.260838 0.138918
0.310155 0.286748 0.137697
0.403235 0.310033 0.139986
0.468238 0.316716 0.137942
0.521660 0.322972 0.137972
0.566094 0.329503 0.136751
0.600977 0.336889 0.145174
0.635462 0.345983 0.141207
0.665370 0.354772 0.146395
0.685328 0.359258 0.149233
0.698726 0.362860 0.158999
0.713954 0.366339 0.161288
0.730129 0.368048 0.160006
0.742641 0.364446 0.160830
0.748745 0.356909 0.163912
0.120333 0.273960 0.154726
0.188388 0.298558 0.148379
0.282811 0.326787 0.142275
0.366766 0.350744 0.148165
0.461646 0.377142 0.151095
0.524926 0.390631 0.155856
0.570123 0.392004 0.160281
0.615106 0.398322 0.157656
0.649622 0.407233 0.162722
0.680629 0.412634 0.162905
0.709895 0.419806 0.170352
0.731411 0.426368 0.172213
0.746334 0.433539 0.179141
0.760586 0.435187 0.179995
0.771939 0.433722 0.180911
0.784298 0.430121 0.179446
0.790768 0.422431 0.181216
0.182925 0.335576 0.170443
0.266178 0.362951 0.150179
0.353338 0.387701 0.147280
0.426917 0.410742 0.158328
0.512413 0.436591 0.165255
0.578088 0.453529 0.174624
0.623102 0.460639 0.180240
0.660182 0.460426 0.179690
0.692775 0.465492 0.186954
0.720974 0.471504 0.186984
0.748714 0.478370 0.195071
0.771023 0.483894 0.195102
0.782406 0.487373 0.201968
0.793240 0.490303 0.202029
0.804044 0.488777 0.203006
0.816403 0.484565 0.201022
0.826535 0.478950 0.197421
0.263127 0.398749 0.186130
0.341039 0.421851 0.164981
0.415320 0.441291 0.154696
0.486763 0.463630 0.165377
0.560922 0.488441 0.179721
0.626566 0.506065 0.189609
0.674525 0.516930 0.196750
0.708003 0.521843 0.203738
0.735805 0.522210 0.210178
0.759823 0.524742 0.211154
0.786587 0.531853 0.217197
0.801114 0.533928 0.220493
0.813382 0.536004 0.224521
0.824002 0.538720 0.224887
0.834257 0.539971 0.224399
0.845640 0.535241 0.221683
0.849973 0.525902 0.219028
0.336187 0.452735 0.202609
0.404517 0.471199 0.185519
0.474159 0.489326 0.165743
0.539727 0.509972 0.178073
0.609003 0.531823 0.194156
0.671778 0.552666 0.209689
0.714565 0.563073 0.219242
0.749996 0.570184 0.227604
0.776364 0.575097 0.232853
0.794797 0.573449 0.233097
0.813565 0.573632 0.240604
0.829557 0.577630 0.242618
0.841978 0.581537 0.245945
0.851316 0.583459 0.248081
0.859983 0.583459 0.246983
0.865324 0.578759 0.243778
0.869810 0.568872 0.240391
0.397696 0.497658 0.224002
0.463020 0.515648 0.201999
0.525536 0.528801 0.179873
0.578790 0.545373 0.192782
0.644099 0.565087 0.207370
0.703792 0.584466 0.221805
0.742763 0.596216 0.233768
0.779324 0.604517 0.242618
0.804593 0.609522 0.249577
0.818296 0.612940 0.255558
0.836423 0.612085 0.262486
0.849546 0.613123 0.264714
0.861875 0.616785 0.266575
0.866331 0.616266 0.267887
0.873106 0.614862 0.267613
0.880064 0.610925 0.261875
0.884001 0.605280 0.259159
0.452155 0.536736 0.242924
0.510094 0.550256 0.213413
0.568475 0.562310 0.197055
0.618006 0.577539 0.209140
0.672816 0.593988 0.221866
0.729732 0.612146 0.237858
0.767880 0.624475 0.251286
0.804288 0.634974 0.262699
0.832242 0.642817 0.272221
0.845640 0.646143 0.278050
0.858579 0.649348 0.283696
0.869017 0.647639 0.285100
0.874418 0.644312 0.286168
0.878111 0.643427 0.286961
0.885191 0.644739 0.287510
0.892302 0.641321 0.282536
0.896574 0.638025 0.278141
0.501366 0.571801 0.260441
0.554162 0.581903 0.229038
0.605737 0.591608 0.210941
0.653986 0.606439 0.222721
0.699580 0.620447 0.234897
0.752499 0.636652 0.249699
0.788815 0.648066 0.261295
0.820462 0.658503 0.274205
0.847898 0.666651 0.285252
0.862760 0.671778 0.292058
0.874266 0.674556 0.297795
0.882689 0.676356 0.303929
0.887907 0.672663 0.304753
0.891356 0.671229 0.305180
0.897032 0.672541 0.307378
0.903624 0.670588 0.302678
0.905486 0.663996 0.296910
0.542290 0.599878 0.272648
0.586267 0.605890 0.239048
0.636622 0.615686 0.215763
0.683680 0.630152 0.227268
0.727291 0.643580 0.241001
0.771969 0.657984 0.254917
0.807309 0.669123 0.266239
0.833646 0.678401 0.280583
0.858854 0.687434 0.295293
0.875090 0.693538 0.304509
0.884733 0.696529 0.311650
0.893065 0.698329 0.317693
0.900450 0.700160 0.323156
0.904845 0.699733 0.323919
0.908782 0.698360 0.324224
0.912322 0.695857 0.321508
0.914580 0.690578 0.316136
0.570397 0.620600 0.282841
0.619287 0.628840 0.252171
0.669093 0.639185 0.227756
0.707149 0.651698 0.239963
0.749905 0.664881 0.253727
0.791409 0.678035 0.266972
0.818051 0.687953 0.278660
0.843046 0.696590 0.292088
0.867399 0.705043 0.305150
0.881865 0.710903 0.315892
0.890410 0.714626 0.324071
0.898924 0.716762 0.330358
0.907195 0.718563 0.336370
0.910552 0.719905 0.340215
0.914824 0.718929 0.340581
0.919158 0.717372 0.338079
0.922606 0.715511 0.332860
0.596033 0.640345 0.291386
0.648676 0.648005 0.255283
0.693629 0.655116 0.224674
0.726619 0.667903 0.240299
0.766567 0.680629 0.253910
0.806485 0.692988 0.266941
0.829892 0.703578 0.282811
0.852293 0.713008 0.297307
0.876249 0.721462 0.310643
0.890532 0.727810 0.323888
0.897246 0.731899 0.334600
0.905486 0.735805 0.343694
0.913115 0.737301 0.349462
0.916960 0.738552 0.353643
0.920439 0.739864 0.357794
0.924926 0.738979 0.355871
0.928405 0.736996 0.349798
0.615961 0.656153 0.285740
0.674586 0.663966 0.248447
0.719814 0.673609 0.228153
0.751980 0.686091 0.243412
0.782742 0.697993 0.258000
0.821195 0.709834 0.273533
0.845396 0.720211 0.288884
0.865751 0.730159 0.303471
0.884672 0.738949 0.317540
0.900053 0.745418 0.330571
0.906279 0.749020 0.339818
0.912566 0.752712 0.349371
0.918090 0.755856 0.359228
0.922484 0.757137 0.363714
0.926085 0.758480 0.367987
0.930388 0.759487 0.371923
0.933806 0.757412 0.365484
0.640375 0.672450 0.276799
0.694209 0.679652 0.238773
0.739437 0.685023 0.204410
0.770932 0.697230 0.219364
0.801968 0.709560 0.237003
0.834592 0.723232 0.262455
0.858305 0.733181 0.277256
0.877684 0.742489 0.290074
0.892912 0.751369 0.310155
0.906645 0.759731 0.329564
0.912169 0.763790 0.339971
0.917449 0.767758 0.351415
0.922332 0.771878 0.364172
0.925536 0.774319 0.373236
0.929351 0.775509 0.377600
0.933989 0.776394 0.381445
0.936950 0.777615 0.383032
0.032074 0.045136 0.107820
0.036896 0.043977 0.108675
0.071351 0.048646 0.119997
0.118166 0.052949 0.126406
0.171450 0.053956 0.127596
0.229831 0.058412 0.128573
0.278080 0.058198 0.127687
0.319554 0.057740 0.130159
0.355932 0.059846 0.132784
0.384649 0.062776 0.134798
0.407935 0.061097 0.132021
0.428504 0.060761 0.131716
0.449714 0.066224 0.135470
0.468818 0.071351 0.138705
