assets/luts/impulz-fuji-superior-200-fc-rec709-558934a6.cube
# (C) 2014 VisionColor & Patchflyer [www.vision-color.com]
# Generator: VC Patchmatch v.2.1.1 [64/53]
# All work and no play makes Jack a dull boy.
# LUT generated from: Fuji Superior 200_FC
LUT_3D_SIZE 5
0.035615 0.033082 0.033082
0.277348 0.037018 0.032044
0.542992 0.062776 0.044770
0.691310 0.086793 0.059693
0.810452 0.111849 0.078706
0.095003 0.212070 0.027405
0.356054 0.265354 0.050904
0.614527 0.318242 0.074861
0.766018 0.361242 0.094392
0.864958 0.378637 0.111299
0.301701 0.482033 0.068879
0.549508 0.547723 0.113832
0.737606 0.597253 0.138582
0.841856 0.612116 0.151400
0.896300 0.617975 0.155795
0.494026 0.687434 0.124605
0.662776 0.722225 0.156252
0.823606 0.763149 0.189273
0.885588 0.787289 0.203006
0.911162 0.778653 0.201297
0.606958 0.817533 0.140963
0.751095 0.851713 0.184878
0.863767 0.871824 0.215946
0.905608 0.883757 0.238224
0.924376 0.891539 0.243626
0.029908 0.040101 0.245335
0.217533 0.032258 0.233371
0.483192 0.046632 0.228336
0.644892 0.061616 0.222995
0.781003 0.074220 0.216190
0.072572 0.245121 0.217166
0.264286 0.256870 0.231693
0.530358 0.274815 0.242924
0.695460 0.298009 0.251530
0.861173 0.291936 0.238010
0.222873 0.494972 0.269963
0.411475 0.521385 0.253971
0.641505 0.551843 0.288884
0.779965 0.565942 0.301457
0.888151 0.535241 0.275364
0.362066 0.684321 0.323491
0.533074 0.704616 0.278508
0.727169 0.732692 0.322637
0.851926 0.755093 0.350042
0.905760 0.740749 0.332647
0.456764 0.827146 0.328527
0.609094 0.861784 0.246098
0.780118 0.872526 0.307500
0.884672 0.887602 0.359564
0.928832 0.892912 0.388708
0.030762 0.053223 0.449958
0.130282 0.042756 0.490761
0.398474 0.041047 0.376196
0.563043 0.053986 0.372229
0.702358 0.064942 0.354894
0.072633 0.241672 0.398932
0.175906 0.226444 0.416052
0.394690 0.213107 0.393683
0.579705 0.232883 0.391791
0.779782 0.219516 0.349310
0.146456 0.452918 0.444526
0.273320 0.462074 0.449561
0.508202 0.486488 0.471046
0.682948 0.493019 0.467720
0.865324 0.455970 0.410407
0.229831 0.652552 0.501060
0.376684 0.674098 0.480293
0.586664 0.683772 0.498054
0.772671 0.714473 0.533471
0.902556 0.710140 0.477363
0.323339 0.821500 0.528222
0.473304 0.855955 0.463416
0.663813 0.891051 0.454093
0.830839 0.900298 0.521172
0.935088 0.910887 0.572259
0.029786 0.069245 0.632502
0.089418 0.043854 0.640406
0.284596 0.045167 0.524071
0.481239 0.046784 0.485115
0.623713 0.059907 0.468238
0.073457 0.259434 0.573663
0.125795 0.218204 0.557488
0.282185 0.194308 0.516594
0.468055 0.198978 0.493355
0.673182 0.193301 0.467414
0.123812 0.437537 0.577783
0.206119 0.430396 0.572168
0.376516 0.428534 0.571740
0.554742 0.427665 0.569268
0.764767 0.371862 0.509697
0.184695 0.631678 0.645258
0.277378 0.627008 0.624170
0.464576 0.645319 0.639673
0.686213 0.684688 0.683009
0.891661 0.661097 0.625879
0.235477 0.805936 0.686275
0.328862 0.838926 0.666560
0.501259 0.884978 0.688411
0.720272 0.921904 0.716670
0.939361 0.933562 0.770932
0.028748 0.083589 0.781979
0.057649 0.041382 0.764370
0.190219 0.043000 0.669276
0.370916 0.048554 0.612238
0.570855 0.055177 0.602228
0.058137 0.276341 0.744198
0.063539 0.194339 0.744656
0.139773 0.150729 0.697597
0.305913 0.155520 0.650782
0.553399 0.168093 0.631495
0.086336 0.448646 0.723415
0.103212 0.389471 0.726558
0.145388 0.321569 0.720272
0.307195 0.306401 0.702876
0.606867 0.319799 0.692470
0.134432 0.618280 0.765042
0.159579 0.577417 0.753964
0.240909 0.570520 0.772274
0.417670 0.571588 0.808499
0.766537 0.577691 0.818418
0.173526 0.778439 0.808133
0.203464 0.778042 0.794705
0.289433 0.836393 0.848234
0.504845 0.906523 0.901976
0.959869 0.959869 0.951537
