assets/luts/impulz-kodak-ektar-100-fc-log-71592d73.cube
# (C) 2014 VisionColor & Patchflyer [www.vision-color.com]
# Generator: VC Patchmatch v.2.1.1 [64/53]
# All work and no play makes Jack a dull boy.
# LUT generated from: Kodak Ektar 100_FC
LUT_3D_SIZE 17
0.030304 0.014008 0.020722
0.049195 0.020783 0.027619
0.084932 0.025635 0.031647
0.124636 0.030365 0.036347
0.171237 0.034638 0.041016
0.222843 0.039429 0.045808
0.292607 0.044038 0.050050
0.371206 0.047303 0.053620
0.444144 0.050629 0.056703
0.514153 0.054414 0.059541
0.577935 0.061067 0.063386
0.637171 0.071473 0.069093
0.690089 0.081971 0.074647
0.737636 0.090730 0.080751
0.772213 0.096498 0.087098
0.797055 0.100954 0.093538
0.806790 0.107881 0.099062
0.037537 0.033295 0.027924
0.046296 0.032624 0.028046
0.080598 0.038575 0.032319
0.115724 0.053315 0.037079
0.157565 0.065675 0.041016
0.206027 0.071626 0.044617
0.273503 0.075074 0.047883
0.347601 0.082704 0.050660
0.414359 0.090700 0.053071
0.481865 0.097902 0.055695
0.547539 0.103273 0.059724
0.608423 0.116182 0.065980
0.663661 0.136568 0.073243
0.712245 0.159152 0.081392
0.746548 0.168124 0.088045
0.771756 0.173190 0.094240
0.784176 0.176120 0.099580
0.045624 0.073701 0.040803
0.053376 0.073152 0.039734
0.070436 0.073610 0.035859
0.103365 0.085664 0.039399
0.143008 0.095247 0.041413
0.184482 0.106691 0.043366
0.244633 0.116426 0.044800
0.316136 0.125063 0.046937
0.384588 0.133700 0.049348
0.453086 0.144717 0.052796
0.519677 0.155581 0.057282
0.585473 0.174105 0.065034
0.641779 0.197482 0.073396
0.691066 0.226596 0.082673
0.724605 0.246860 0.090761
0.750027 0.256840 0.097475
0.765133 0.248295 0.102144
0.053254 0.125978 0.054231
0.060243 0.124758 0.049775
0.074220 0.120851 0.044892
0.092500 0.119814 0.041627
0.125154 0.133364 0.042878
0.164096 0.138094 0.042756
0.217960 0.146365 0.043275
0.282719 0.160555 0.044434
0.355962 0.178866 0.047181
0.428397 0.193149 0.050813
0.500771 0.204593 0.056641
0.569238 0.231540 0.066072
0.629816 0.267857 0.077119
0.679622 0.306157 0.088014
0.713283 0.329107 0.096712
0.737514 0.347173 0.106020
0.752102 0.331823 0.109895
0.059052 0.183719 0.065736
0.065492 0.181613 0.059876
0.074495 0.176333 0.053986
0.093690 0.171328 0.048981
0.114534 0.170626 0.045045
0.147677 0.177523 0.043366
0.185000 0.178653 0.042206
0.248905 0.193088 0.042512
0.319295 0.209720 0.044831
0.400076 0.238590 0.049989
0.475517 0.260716 0.057374
0.548852 0.290410 0.067475
0.610834 0.327306 0.079011
0.667140 0.373602 0.093416
0.705135 0.411902 0.106813
0.730861 0.436255 0.118471
0.744533 0.411353 0.120577
0.060273 0.245396 0.071229
0.068269 0.243442 0.064820
0.076722 0.238437 0.058991
0.087617 0.231693 0.053986
0.108736 0.226444 0.049073
0.135164 0.223117 0.044160
0.168521 0.224735 0.043610
0.216190 0.230686 0.043122
0.281636 0.252781 0.045228
0.363119 0.281529 0.049683
0.447990 0.310491 0.058137
0.523842 0.347051 0.069459
0.593622 0.389807 0.083772
0.653193 0.437476 0.099641
0.698726 0.483711 0.116579
0.727565 0.511437 0.131350
0.741604 0.484382 0.132662
0.058198 0.304143 0.074037
0.068940 0.305394 0.068360
0.078981 0.303441 0.063508
0.087800 0.296880 0.059663
0.104646 0.291020 0.056275
0.131014 0.286381 0.051942
0.163333 0.285008 0.048035
0.205264 0.281987 0.046448
0.255497 0.289326 0.047089
0.330098 0.320012 0.051362
0.413291 0.353368 0.059083
0.496086 0.392340 0.070741
0.568109 0.434150 0.085023
0.634852 0.475868 0.101778
0.687892 0.521904 0.121431
0.723354 0.555627 0.139712
0.739467 0.534356 0.142916
0.058534 0.366766 0.080964
0.069276 0.369574 0.076692
0.079225 0.374212 0.073823
0.088624 0.370169 0.069551
0.102327 0.366735 0.066224
0.124483 0.361151 0.063050
0.152987 0.359228 0.059693
0.196475 0.355596 0.054383
0.241428 0.360021 0.054841
0.302632 0.368292 0.055634
0.380056 0.396002 0.061250
0.456382 0.426581 0.070344
0.535256 0.461372 0.083772
0.605402 0.502617 0.100893
0.669367 0.545830 0.121584
0.712001 0.571801 0.139742
0.731594 0.549767 0.142794
0.061952 0.428504 0.093477
0.071901 0.434012 0.090852
0.079103 0.440238 0.088746
0.086641 0.443107 0.084871
0.099062 0.440421 0.080690
0.120790 0.438834 0.076783
0.145876 0.433158 0.073701
0.189303 0.428794 0.068330
0.230838 0.423362 0.062654
0.281575 0.427222 0.063569
0.351583 0.439918 0.065705
0.422354 0.460456 0.072023
0.495415 0.485176 0.082460
0.566354 0.504540 0.093965
0.632990 0.533501 0.111208
0.690272 0.558190 0.130037
0.716640 0.540490 0.135592
0.066529 0.488533 0.108827
0.072084 0.496498 0.107790
0.079011 0.505425 0.106844
0.085328 0.512200 0.104250
0.094759 0.515450 0.100557
0.113558 0.517617 0.097078
0.139956 0.513741 0.093202
0.174350 0.507027 0.087861
0.217868 0.497520 0.080171
0.261662 0.487404 0.072114
0.321630 0.492073 0.074372
0.383673 0.494789 0.075502
0.448280 0.500389 0.080415
0.516075 0.513359 0.089082
0.591943 0.528435 0.102937
0.660639 0.549828 0.121950
0.698573 0.527581 0.126833
0.072358 0.549737 0.129061
0.075654 0.557305 0.128298
0.079255 0.566155 0.127535
0.083619 0.573144 0.125673
0.091981 0.580041 0.123964
0.103151 0.587335 0.122499
0.130556 0.589624 0.122927
0.161379 0.587533 0.120729
0.198978 0.575814 0.112398
0.241550 0.560632 0.101106
0.283055 0.538781 0.085267
0.346288 0.537957 0.084810
0.414466 0.535119 0.086854
0.476661 0.535851 0.092195
0.547448 0.539239 0.101289
0.627283 0.546227 0.115541
0.676539 0.531823 0.124056
0.079561 0.611139 0.154696
0.081514 0.615778 0.153414
0.083864 0.621942 0.151644
0.086366 0.628656 0.149691
0.091829 0.631586 0.150637
0.101961 0.637812 0.153811
0.120302 0.647303 0.160006
0.153475 0.650324 0.163577
0.189334 0.644709 0.160800
0.229496 0.629664 0.144564
0.270054 0.609064 0.128450
0.320562 0.584283 0.106630
0.384436 0.575921 0.102663
0.444007 0.567712 0.099702
0.521508 0.567010 0.110018
0.604456 0.577173 0.125399
0.668269 0.569970 0.135348
0.091005 0.665583 0.186007
0.091890 0.665522 0.182925
0.093263 0.669062 0.180362
0.095705 0.674983 0.178775
0.099825 0.677211 0.180941
0.110597 0.681849 0.192355
0.126955 0.690394 0.200900
0.158328 0.698054 0.222324
0.195071 0.698909 0.222019
0.237156 0.691981 0.210147
0.279484 0.673823 0.185824
0.326268 0.650629 0.160464
0.393011 0.633112 0.142947
0.467231 0.630701 0.145541
0.528496 0.623621 0.138064
0.600000 0.623072 0.145663
0.665278 0.621942 0.159365
0.104128 0.707210 0.221073
0.104555 0.705165 0.217411
0.105623 0.706447 0.215122
0.108827 0.711330 0.213870
0.112978 0.713985 0.216403
0.129030 0.720241 0.233890
0.147311 0.727993 0.254307
0.180453 0.736294 0.282963
0.220066 0.745083 0.296483
0.259007 0.744930 0.285374
0.303777 0.733608 0.252445
0.346807 0.712032 0.223026
0.420539 0.697719 0.202243
0.480537 0.682673 0.186831
0.557916 0.678828 0.190463
0.632319 0.684077 0.193057
0.689326 0.682368 0.201022
0.118410 0.740719 0.257908
0.118593 0.738125 0.255711
0.119661 0.738918 0.253697
0.123720 0.742153 0.252537
0.132479 0.746883 0.258061
0.151156 0.753841 0.277501
0.182712 0.762356 0.313298
0.217594 0.770413 0.353216
0.269749 0.781155 0.378332
0.313359 0.787533 0.383490
0.362371 0.781643 0.344091
0.409247 0.770169 0.310521
0.468421 0.754940 0.277958
0.533165 0.745266 0.264073
0.604547 0.739773 0.256596
0.676783 0.743465 0.259678
0.723323 0.741848 0.261234
0.134859 0.761837 0.297673
0.135744 0.760861 0.297765
0.136751 0.761227 0.297063
0.140871 0.763821 0.295872
0.155703 0.769345 0.306401
0.177340 0.776791 0.324834
0.224521 0.788296 0.369970
0.275547 0.799405 0.415717
0.343389 0.812619 0.459052
0.398871 0.820951 0.468208
0.451667 0.825467 0.453559
0.493751 0.815885 0.411231
0.544823 0.803647 0.374212
0.600946 0.797330 0.357641
0.665034 0.793484 0.347570
0.718898 0.793576 0.338231
0.762539 0.792111 0.334447
0.157290 0.773404 0.343725
0.159670 0.773465 0.345678
0.161196 0.774075 0.345617
0.162203 0.775814 0.343359
0.181155 0.782620 0.357336
0.208774 0.791104 0.377752
0.259068 0.804288 0.415900
0.323720 0.818509 0.461799
0.396262 0.833249 0.507622
0.468605 0.845121 0.534386
0.525628 0.851347 0.531975
0.568841 0.848814 0.511131
0.610224 0.839994 0.475471
0.660334 0.835294 0.458534
0.707179 0.831144 0.442481
0.757168 0.830320 0.432227
0.791684 0.829648 0.412390
0.033814 0.016693 0.025116
0.047578 0.018860 0.029053
0.082185 0.023957 0.033600
0.117861 0.028931 0.042359
0.157900 0.032898 0.050324
0.205081 0.037507 0.054932
0.271855 0.041840 0.058381
0.348699 0.044709 0.063478
0.425284 0.048402 0.066651
0.497826 0.052186 0.069642
0.564385 0.058808 0.071260
0.626490 0.067414 0.075410
0.684504 0.074861 0.079957
0.737362 0.080873 0.084901
0.772396 0.086458 0.091005
0.796689 0.091768 0.096559
0.807584 0.098268 0.101778
0.036255 0.028382 0.033387
0.048219 0.032288 0.036500
0.088899 0.038636 0.042969
0.135805 0.042664 0.045075
0.191012 0.046052 0.048798
0.258518 0.048432 0.051392
0.334783 0.052064 0.055268
0.410819 0.055726 0.057862
0.490196 0.057832 0.059693
0.560540 0.063050 0.063416
0.628962 0.070588 0.068513
0.679866 0.081697 0.074495
0.729244 0.090669 0.080262
0.766964 0.096132 0.086519
0.793545 0.101106 0.092744
0.804318 0.106722 0.098146
0.809628 0.113893 0.102937
0.044068 0.068299 0.047181
0.056947 0.082277 0.052461
0.077302 0.080995 0.046754
0.123476 0.083467 0.047913
0.171603 0.087770 0.048554
0.232273 0.095705 0.049500
0.305028 0.101442 0.051606
0.378653 0.103304 0.053712
0.456382 0.109194 0.055818
0.526741 0.117678 0.060060
0.597375 0.130404 0.065858
0.653376 0.142336 0.072816
0.703700 0.157504 0.080079
0.740200 0.176028 0.087861
0.767636 0.185458 0.094484
0.779446 0.189090 0.099733
0.788907 0.181521 0.103883
0.050233 0.116457 0.066438
0.060700 0.140871 0.066407
0.077790 0.138003 0.059968
0.105928 0.136355 0.051514
0.150393 0.138308 0.050294
0.204501 0.139956 0.048371
0.270726 0.150301 0.048066
0.343481 0.159884 0.050568
0.420768 0.167056 0.052857
0.494682 0.176730 0.057374
0.568597 0.194827 0.064454
0.628473 0.215610 0.072877
0.679988 0.241764 0.082399
0.715999 0.263890 0.090700
0.743587 0.279210 0.098940
0.760250 0.268711 0.103548
0.772976 0.247776 0.106783
0.054749 0.170718 0.082612
0.062104 0.208743 0.075257
0.074434 0.204685 0.067353
0.098909 0.197574 0.059785
0.129335 0.192691 0.052430
0.171878 0.193851 0.049378
0.226322 0.189792 0.045197
0.303349 0.202701 0.047517
0.385275 0.221103 0.051240
0.468956 0.243717 0.058015
0.546807 0.265812 0.065888
0.611444 0.287022 0.075227
0.666743 0.324102 0.087892
0.706630 0.363684 0.101961
0.733761 0.383032 0.111421
0.749660 0.370855 0.115633
0.760525 0.325780 0.114199
0.055451 0.231205 0.092897
0.061494 0.275425 0.079866
0.074495 0.276097 0.073701
0.089967 0.267948 0.066743
0.120455 0.258549 0.058778
0.154665 0.254551 0.051820
0.201633 0.253971 0.048585
0.260777 0.251072 0.048249
0.349050 0.274357 0.051514
0.434073 0.296727 0.057771
0.520211 0.330022 0.067781
0.590143 0.360143 0.078981
0.651881 0.401831 0.094331
0.692805 0.443671 0.109529
0.726711 0.467689 0.123354
0.743618 0.449073 0.127047
0.754330 0.397955 0.124056
0.054322 0.291234 0.097383
0.059663 0.349706 0.082826
0.074159 0.354528 0.078462
0.090303 0.353307 0.073274
0.110689 0.346044 0.067353
0.146304 0.338659 0.061036
0.190646 0.335210 0.054902
0.239048 0.322606 0.054627
0.306889 0.326467 0.054414
0.393790 0.355962 0.060334
0.483299 0.390600 0.069368
0.565194 0.425879 0.082399
0.630243 0.461646 0.098360
0.684077 0.506310 0.119295
0.720882 0.532464 0.134493
0.741787 0.524590 0.141329
0.749905 0.464790 0.133761
0.054719 0.353613 0.103212
0.061219 0.412711 0.092775
0.073457 0.423209 0.091371
0.088441 0.428244 0.087800
0.104311 0.423667 0.082704
0.134340 0.417624 0.078950
0.175937 0.411002 0.072175
0.225895 0.405295 0.064851
0.288090 0.399069 0.062226
0.357534 0.404089 0.064454
0.440513 0.432502 0.070649
0.520699 0.460578 0.080995
0.598642 0.493477 0.097383
0.657191 0.536187 0.118502
0.706081 0.550835 0.133577
0.731350 0.541772 0.140658
0.742519 0.489418 0.135134
0.057893 0.415503 0.116762
0.065156 0.477501 0.109468
0.074434 0.488029 0.108461
0.083742 0.498375 0.106691
0.098543 0.500862 0.102937
0.121035 0.501472 0.100069
0.158480 0.495171 0.097230
0.204776 0.490074 0.091798
0.259464 0.475151 0.077333
0.321920 0.471885 0.077455
0.395987 0.478828 0.074525
0.473442 0.494728 0.081056
0.548104 0.507683 0.091981
0.622904 0.527214 0.108370
0.676631 0.543389 0.124392
0.715969 0.540764 0.135225
0.729702 0.499062 0.132174
0.062623 0.478798 0.134615
0.071351 0.543420 0.130922
0.077699 0.553552 0.129946
0.083650 0.562707 0.127718
0.091859 0.568048 0.126497
0.110597 0.571221 0.124025
0.143465 0.574868 0.126894
0.183368 0.565591 0.121248
0.237507 0.551156 0.108034
0.290074 0.532616 0.091646
0.357519 0.531853 0.090578
0.422705 0.523186 0.083223
0.494789 0.521538 0.088960
0.572259 0.532341 0.102846
0.646418 0.535760 0.116457
0.694301 0.531853 0.127687
0.711849 0.487160 0.123476
0.068574 0.541894 0.157046
0.079194 0.605493 0.155856
0.081819 0.611841 0.153414
0.086091 0.620264 0.151644
0.091859 0.625177 0.151583
0.103090 0.632990 0.154452
0.128756 0.643824 0.160922
0.166506 0.642725 0.159670
0.213703 0.633005 0.151827
0.265995 0.610285 0.130495
0.318181 0.585016 0.108278
0.389624 0.572656 0.103212
0.459693 0.559380 0.099428
0.537194 0.553094 0.106569
0.609491 0.549218 0.116365
0.674739 0.539666 0.126894
0.701747 0.509117 0.128084
0.076387 0.602655 0.182925
0.090089 0.666010 0.185611
0.091585 0.669367 0.181979
0.093690 0.673518 0.179049
0.097139 0.676387 0.179232
0.107637 0.682857 0.187442
0.123140 0.691524 0.200412
0.160891 0.697627 0.210330
0.202426 0.696223 0.211063
0.249729 0.679988 0.187686
0.307805 0.656703 0.162661
0.374945 0.630640 0.135775
0.441840 0.612116 0.126741
0.523491 0.602197 0.128084
0.603815 0.599817 0.140261
0.674464 0.597650 0.150637
0.697932 0.550958 0.141268
0.087678 0.654871 0.213382
0.103578 0.711452 0.219486
0.104341 0.712123 0.215946
0.106111 0.713985 0.213138
0.109316 0.716335 0.212253
0.122347 0.720607 0.228855
0.143954 0.728145 0.252079
0.178347 0.736324 0.281712
0.227390 0.743038 0.288151
0.274296 0.737087 0.273350
0.331731 0.720729 0.237308
0.395422 0.696529 0.206973
0.478218 0.682734 0.188357
0.550530 0.669947 0.178714
0.613519 0.660426 0.172183
0.681208 0.653315 0.184054
0.715572 0.628504 0.182284
0.101472 0.695827 0.250919
0.117922 0.739773 0.257115
0.118593 0.738827 0.254429
0.120882 0.740780 0.253025
0.127474 0.744656 0.255009
0.144839 0.750668 0.272465
0.179294 0.759518 0.308812
0.215366 0.767788 0.343847
0.282261 0.781094 0.378271
0.331273 0.783536 0.366491
0.390692 0.775051 0.334264
0.448981 0.758297 0.297246
0.525872 0.745357 0.275792
0.598444 0.737850 0.259648
0.664851 0.730678 0.258793
0.718379 0.728511 0.248020
0.744900 0.707668 0.236301
0.118379 0.730861 0.295415
0.138094 0.759731 0.300938
0.138827 0.758450 0.299199
0.141299 0.759640 0.298680
0.148959 0.763943 0.301885
0.165835 0.770199 0.318578
0.211398 0.782254 0.357000
0.263508 0.793667 0.406378
0.338018 0.809293 0.447730
0.405905 0.820554 0.464515
0.464424 0.819059 0.432074
0.521660 0.811795 0.397833
0.583398 0.798001 0.365057
0.647608 0.793729 0.348516
0.714046 0.790127 0.337652
0.757229 0.782773 0.326818
0.780545 0.771572 0.311711
0.137972 0.756008 0.340276
0.167971 0.776425 0.355413
0.167361 0.775235 0.353826
0.169436 0.776028 0.352697
0.169924 0.778103 0.350774
0.193423 0.785946 0.368353
0.240635 0.798550 0.405402
0.309865 0.814145 0.454505
0.392142 0.831388 0.506767
0.474601 0.844724 0.530144
0.542626 0.852903 0.529686
0.593439 0.847349 0.498024
0.644221 0.840177 0.469123
0.697505 0.835966 0.452247
0.748989 0.833036 0.434516
0.796658 0.831998 0.416754
0.815335 0.821042 0.397559
0.165652 0.772091 0.390143
0.215457 0.791745 0.426307
0.210086 0.789425 0.420264
0.204990 0.788296 0.414282
0.196597 0.788113 0.406256
0.218204 0.794644 0.421302
0.259556 0.805936 0.450141
0.334951 0.823209 0.494514
0.414572 0.839597 0.538384
0.501747 0.854337 0.576196
0.573388 0.862943 0.588403
0.634546 0.866331 0.586816
0.681910 0.863035 0.563500
0.730831 0.859739 0.546227
0.771267 0.856840 0.527276
0.811582 0.855253 0.506157
0.841093 0.854551 0.480354
0.037690 0.016938 0.045319
0.050477 0.018921 0.047578
0.074678 0.020813 0.047059
0.109346 0.026246 0.053285
0.146365 0.030976 0.060365
0.187869 0.034241 0.068238
0.248295 0.038453 0.075074
0.325139 0.041505 0.078279
0.402945 0.045380 0.081392
0.481468 0.049958 0.083619
0.551354 0.055299 0.084321
0.619226 0.061067 0.084749
0.679927 0.067384 0.088411
0.734218 0.072999 0.091859
0.771389 0.078279 0.096559
0.796780 0.083558 0.101259
0.808408 0.089021 0.105226
0.039734 0.028107 0.053895
0.051911 0.031373 0.061585
0.081300 0.033204 0.060212
0.126345 0.038331 0.060883
0.174960 0.042573 0.065949
0.235996 0.044434 0.071260
0.309514 0.048402 0.073976
0.385855 0.052216 0.073030
0.467918 0.053986 0.075502
0.545968 0.058991 0.074952
0.618189 0.064698 0.078614
0.674006 0.073762 0.081178
0.726619 0.081117 0.086061
0.766598 0.085969 0.091554
0.794736 0.090944 0.096529
0.805814 0.096468 0.101595
0.811582 0.102571 0.105745
0.040406 0.056153 0.066224
0.052155 0.066682 0.077546
0.075135 0.059571 0.065400
0.126986 0.065797 0.068574
0.185122 0.066896 0.066682
0.256931 0.068238 0.066682
0.338033 0.068849 0.065248
0.425162 0.071046 0.066224
0.501320 0.074067 0.067750
0.579721 0.076112 0.068574
0.646693 0.083864 0.073976
0.708186 0.091676 0.079530
0.753353 0.099001 0.085298
0.785122 0.103365 0.091585
0.800259 0.108278 0.097261
0.807279 0.113924 0.102144
0.810880 0.117678 0.106600
0.046448 0.103639 0.084352
0.055726 0.124636 0.090364
0.077699 0.125063 0.082033
0.109041 0.123049 0.071901
0.165286 0.122774 0.068482
0.228824 0.124117 0.065370
0.306157 0.130495 0.063325
0.390478 0.135439 0.063569
0.465385 0.137087 0.064820
0.544289 0.143404 0.066316
0.615625 0.157839 0.072541
0.679072 0.174350 0.079561
0.725338 0.186099 0.086824
0.756710 0.195163 0.093782
0.773831 0.198367 0.099825
0.788205 0.182101 0.103670
0.794003 0.178500 0.107790
0.050599 0.158206 0.101015
0.056611 0.190433 0.102174
0.072633 0.196902 0.092348
0.099916 0.193545 0.083009
0.142977 0.191287 0.073976
0.202609 0.190036 0.067567
0.270726 0.186587 0.060914
0.353216 0.198917 0.060578
0.433402 0.209262 0.064088
0.511940 0.219730 0.066163
0.585931 0.235630 0.072786
0.654658 0.260594 0.081727
0.702327 0.279362 0.090639
0.733883 0.295201 0.099092
0.753017 0.292576 0.105196
0.767483 0.268345 0.107942
0.779660 0.238132 0.110475
0.050813 0.217136 0.115785
0.055879 0.258030 0.110506
0.069886 0.275212 0.097993
0.091371 0.274540 0.090700
0.129610 0.267948 0.083680
0.174868 0.261418 0.073884
0.232975 0.255589 0.067323
0.305303 0.253910 0.059174
0.396384 0.272618 0.063355
0.483238 0.291356 0.067231
0.566201 0.318395 0.076387
0.638025 0.349523 0.087037
0.691341 0.378119 0.099763
0.724605 0.396612 0.110872
0.744991 0.391272 0.118074
0.757992 0.351751 0.117586
0.769009 0.312139 0.117861
0.049653 0.276493 0.123873
0.053986 0.332341 0.116365
0.068360 0.350866 0.103853
0.088289 0.359976 0.100191
0.115541 0.354177 0.094697
0.162234 0.343893 0.086275
0.212436 0.338491 0.076692
0.272496 0.331579 0.069337
0.351736 0.334707 0.066499
0.448692 0.359960 0.069978
0.535164 0.386755 0.078187
0.615122 0.418402 0.090913
0.674800 0.451911 0.106203
0.716915 0.479438 0.122927
0.737606 0.474067 0.130220
0.751064 0.429786 0.127810
0.760006 0.370977 0.123415
0.049958 0.340337 0.131380
0.056336 0.397665 0.124697
0.067567 0.430076 0.113222
0.085359 0.444846 0.111604
0.109407 0.451194 0.109163
0.145907 0.446220 0.106783
0.195193 0.435111 0.097475
0.251499 0.425620 0.084688
0.320775 0.416236 0.081392
0.400351 0.418311 0.075044
0.491295 0.442603 0.081147
0.576028 0.472358 0.092042
0.653391 0.510246 0.111177
0.698970 0.529015 0.126864
0.728725 0.520928 0.135317
0.743099 0.480079 0.133211
0.752712 0.422827 0.127718
0.052888 0.403845 0.144503
0.060151 0.464286 0.140200
0.070314 0.504768 0.131838
0.080018 0.517830 0.130831
0.099275 0.529915 0.130465
0.124971 0.531228 0.129549
0.174624 0.525490 0.130861
0.228885 0.513802 0.119722
0.287083 0.495750 0.101381
0.361929 0.488212 0.089174
0.440574 0.488075 0.085603
0.523842 0.501152 0.091951
0.602884 0.518761 0.104250
0.669688 0.528923 0.118990
0.704524 0.523583 0.128756
0.727871 0.491524 0.129885
0.737758 0.441535 0.124453
0.057649 0.467781 0.161440
0.066743 0.531792 0.163149
0.075135 0.573938 0.155642
0.081697 0.584466 0.154025
0.091341 0.594202 0.153719
0.113375 0.602594 0.156313
0.148760 0.606271 0.161196
0.206531 0.601877 0.164004
0.264057 0.587686 0.151446
0.327550 0.565057 0.124392
0.400610 0.554376 0.115633
0.467720 0.539025 0.097841
0.552666 0.537591 0.103731
0.629236 0.540337 0.116152
0.682246 0.522271 0.122499
0.707698 0.492164 0.123964
0.719783 0.448005 0.119326
0.065126 0.534325 0.187076
0.075837 0.595666 0.190707
0.086336 0.640192 0.185702
0.090089 0.647608 0.183108
0.095308 0.653834 0.181003
0.107942 0.657649 0.187655
0.135103 0.666438 0.195407
0.187182 0.672755 0.213321
0.242725 0.662898 0.205600
0.309483 0.645350 0.181186
0.376013 0.619501 0.151736
0.454170 0.603204 0.140169
0.521233 0.581750 0.119539
0.595819 0.564691 0.122255
0.657191 0.546075 0.128054
0.693782 0.513420 0.127901
0.706966 0.476783 0.124941
0.073671 0.594659 0.216129
0.087343 0.654658 0.223331
0.100771 0.693812 0.220432
0.101656 0.695979 0.215305
0.104616 0.699550 0.212955
0.117189 0.703975 0.222416
0.139803 0.711299 0.243442
0.184268 0.722316 0.269688
0.238788 0.724483 0.269902
0.304326 0.718685 0.252750
0.375525 0.697444 0.220737
0.450629 0.673274 0.189548
0.532128 0.650813 0.173831
0.598779 0.633783 0.160281
0.661067 0.609277 0.157839
0.698146 0.577050 0.153780
0.702510 0.519158 0.139406
0.086000 0.646204 0.249943
0.101778 0.699123 0.259800
0.117922 0.737057 0.259190
0.118257 0.737697 0.254337
0.122255 0.739864 0.252964
0.133669 0.744106 0.262913
0.164614 0.752285 0.295384
0.207340 0.761807 0.339605
0.273716 0.772183 0.355108
0.340871 0.774746 0.353307
0.411566 0.761776 0.309850
0.492317 0.745296 0.277714
0.581628 0.731502 0.254002
0.639002 0.711482 0.230137
0.685969 0.689082 0.213687
0.723751 0.663996 0.211185
0.725155 0.611902 0.188876
0.101778 0.688289 0.291478
0.117922 0.729519 0.299962
0.134127 0.758846 0.298192
0.135134 0.759823 0.296849
0.141146 0.762661 0.298497
0.157229 0.768917 0.309117
0.200504 0.778592 0.350683
0.256443 0.791379 0.400458
0.335485 0.807279 0.445930
0.411002 0.816922 0.449500
0.475990 0.811673 0.416693
0.547417 0.802029 0.381811
0.630243 0.789212 0.355200
0.697200 0.784451 0.334539
0.739284 0.766781 0.307378
0.762264 0.746212 0.281071
0.755947 0.697230 0.255009
0.119417 0.723873 0.335851
0.141543 0.751766 0.347417
0.165988 0.775479 0.353643
0.167117 0.775631 0.353002
0.165377 0.776028 0.349981
0.181216 0.782223 0.360204
0.224094 0.793606 0.394049
0.293355 0.809506 0.445441
0.374777 0.826352 0.494636
0.471366 0.842252 0.528740
0.540185 0.844053 0.506462
0.607080 0.839872 0.486275
0.669795 0.831937 0.456580
0.734249 0.828122 0.438056
0.784970 0.825040 0.411902
0.802884 0.808164 0.387396
0.801358 0.784878 0.356878
0.144198 0.752010 0.384375
0.180331 0.773251 0.404547
0.223423 0.794675 0.430976
0.219974 0.793057 0.426886
0.203891 0.788571 0.413153
0.207218 0.791012 0.414221
0.244144 0.801144 0.442756
0.309224 0.816678 0.484108
0.400443 0.835721 0.537865
0.499107 0.853208 0.574639
0.583978 0.864713 0.593927
0.649073 0.864012 0.575769
0.703273 0.861814 0.554162
0.756802 0.858000 0.535363
0.797787 0.855131 0.505516
0.838621 0.853727 0.481361
0.832853 0.830686 0.445991
0.182559 0.773404 0.440253
0.237217 0.793240 0.475776
0.295171 0.813199 0.516472
0.270848 0.806119 0.497536
0.247868 0.799893 0.478828
0.233249 0.797696 0.468116
0.264134 0.805936 0.489601
0.324178 0.820218 0.527459
0.407797 0.838224 0.571832
0.503182 0.856535 0.616449
0.588479 0.868345 0.643671
0.659846 0.875334 0.654078
0.710994 0.874937 0.639948
0.757534 0.872587 0.621149
0.798306 0.868986 0.595666
0.831662 0.867247 0.567987
0.860319 0.866148 0.536858
0.044007 0.019623 0.075654
0.057191 0.020661 0.073182
0.076783 0.021668 0.070375
0.101137 0.023285 0.069734
0.135256 0.027253 0.078798
0.175631 0.031067 0.084688
0.231113 0.035462 0.092683
0.304936 0.039338 0.099550
0.382254 0.043610 0.104646
0.461295 0.048127 0.107515
0.534936 0.053407 0.106325
0.605402 0.058991 0.105989
0.668605 0.064637 0.105898
0.725460 0.070192 0.106416
