assets/luts/impulz-kodak-ultramax-400-fc-log-47e83cd8.cube
# (C) 2014 VisionColor & Patchflyer [www.vision-color.com]
# Generator: VC Patchmatch v.2.1.1 [64/53]
# All work and no play makes Jack a dull boy.
# LUT generated from: Kodak Ultramax 400_FC
LUT_3D_SIZE 9
0.021515 0.025727 0.021515
0.060670 0.025208 0.028443
0.127260 0.022858 0.025727
0.227512 0.023865 0.029572
0.366323 0.023560 0.033265
0.524498 0.024750 0.037140
0.689357 0.025177 0.041444
0.839750 0.027832 0.049531
0.915251 0.041718 0.074861
0.035157 0.057862 0.019928
0.080293 0.056916 0.019409
0.169009 0.064485 0.017823
0.289708 0.077699 0.022248
0.428458 0.080323 0.024598
0.572839 0.084230 0.029480
0.725704 0.077790 0.035431
0.866941 0.070680 0.045777
0.941283 0.084108 0.071473
0.057160 0.109499 0.012543
0.111421 0.123995 0.012543
0.201511 0.132662 0.013886
0.329290 0.151644 0.017060
0.475395 0.165530 0.020447
0.613550 0.177523 0.024231
0.757656 0.166934 0.030457
0.889738 0.163210 0.040803
0.950103 0.178286 0.066773
0.126284 0.212039 0.010590
0.178012 0.236637 0.012055
0.255467 0.249149 0.013855
0.370962 0.257694 0.016419
0.514290 0.275639 0.018494
0.649744 0.301366 0.020844
0.783444 0.289464 0.026154
0.899443 0.277745 0.034180
0.943786 0.276677 0.058839
0.217655 0.345663 0.010712
0.252018 0.380697 0.013458
0.318273 0.398764 0.016022
0.425681 0.406394 0.018158
0.544839 0.424338 0.018585
0.670497 0.432547 0.019471
0.796292 0.428428 0.021210
0.891661 0.400626 0.024933
0.929107 0.376440 0.045197
0.290959 0.468330 0.011383
0.314244 0.513451 0.014374
0.379980 0.536034 0.017700
0.476143 0.541039 0.018708
0.587213 0.549187 0.018555
0.704280 0.564813 0.019287
0.805142 0.552239 0.019867
0.878752 0.525444 0.020783
0.911070 0.487251 0.033570
0.307958 0.592035 0.012085
0.342718 0.626642 0.014191
0.408667 0.647730 0.016052
0.506188 0.655970 0.017273
0.619318 0.656550 0.017914
0.728573 0.657588 0.018952
0.819669 0.657893 0.019867
0.874144 0.636408 0.020447
0.896910 0.600122 0.028046
0.281956 0.730495 0.012024
0.333928 0.747921 0.013458
0.414313 0.759548 0.015076
0.525414 0.764370 0.016693
0.645624 0.761563 0.018006
0.744289 0.750332 0.019226
0.824308 0.737209 0.020111
0.872251 0.743313 0.020722
0.884703 0.717189 0.026795
0.236851 0.837247 0.011353
0.313878 0.845426 0.013581
0.411902 0.851164 0.017243
0.524376 0.848051 0.021942
0.633570 0.839323 0.024872
0.728573 0.828885 0.026337
0.795316 0.815244 0.026001
0.848692 0.797879 0.024537
0.874327 0.806912 0.025086
0.025574 0.025818 0.081605
0.054688 0.025483 0.080049
0.132570 0.022065 0.084138
0.242496 0.023102 0.094118
0.371298 0.023377 0.099519
0.508995 0.024262 0.105959
0.663233 0.024598 0.110750
0.803830 0.027924 0.115969
0.886412 0.044099 0.133394
0.030579 0.065522 0.066224
0.081239 0.073915 0.076722
0.177646 0.066499 0.069551
0.306828 0.056245 0.065644
0.458793 0.051270 0.064271
0.630533 0.042237 0.059388
0.801938 0.037140 0.060304
0.907530 0.041993 0.074311
0.923888 0.097383 0.132662
0.057984 0.145602 0.055299
0.115999 0.168582 0.049714
0.234409 0.182010 0.058961
0.386954 0.168307 0.053620
0.535286 0.165774 0.053681
0.685725 0.143191 0.052888
0.842924 0.121035 0.055299
0.937682 0.112245 0.069306
0.942046 0.185702 0.129427
0.110994 0.249149 0.054688
0.189151 0.303853 0.034333
0.284428 0.329335 0.044648
0.455802 0.347189 0.053346
0.603616 0.331945 0.045380
0.740780 0.299001 0.042267
0.873838 0.264942 0.045045
0.943145 0.245029 0.062043
0.936797 0.296269 0.122164
0.178042 0.373556 0.051148
0.269963 0.450065 0.022889
0.345281 0.493828 0.034302
0.485649 0.499535 0.042634
0.644816 0.515724 0.044190
0.770108 0.485618 0.037049
0.883970 0.432914 0.030213
0.927520 0.380270 0.047608
0.927825 0.399863 0.106600
0.221378 0.494179 0.044526
0.295720 0.578851 0.014221
0.364965 0.619593 0.020478
0.496315 0.630426 0.028473
0.650767 0.632013 0.033143
0.798367 0.637171 0.034546
0.878264 0.590356 0.025635
0.906493 0.529870 0.035920
0.915831 0.512840 0.090028
0.213809 0.605737 0.025483
0.281346 0.722744 0.012207
0.360845 0.748959 0.014679
0.504692 0.757717 0.017884
0.660136 0.754208 0.021332
0.790646 0.744045 0.024140
0.873075 0.737026 0.024628
0.890196 0.681361 0.031525
0.905760 0.634791 0.073426
0.196384 0.735348 0.015167
0.242313 0.833494 0.011780
0.346014 0.843442 0.015656
0.485542 0.846799 0.022950
0.632456 0.836423 0.027771
0.750240 0.823514 0.029908
0.830289 0.804074 0.028229
0.874907 0.808438 0.027710
0.890776 0.746212 0.064424
0.181369 0.848203 0.011719
0.244236 0.877531 0.021515
0.368902 0.878141 0.036164
0.507866 0.876036 0.057710
0.614710 0.866697 0.067201
0.706661 0.858061 0.066835
0.770657 0.843870 0.058808
0.829190 0.823270 0.048829
0.866392 0.832364 0.049958
0.025116 0.025238 0.187289
0.049531 0.024018 0.169528
0.126802 0.021881 0.155001
0.236606 0.021729 0.158633
0.371298 0.022644 0.167422
0.501030 0.023346 0.181399
0.642969 0.024140 0.189273
0.768063 0.027314 0.186709
0.847776 0.046265 0.190921
0.026581 0.069673 0.157168
0.057130 0.062715 0.193759
0.161471 0.059998 0.174899
0.299718 0.050477 0.160067
0.441886 0.047333 0.158846
0.599710 0.041871 0.157778
0.757687 0.037812 0.154360
0.864073 0.045777 0.154696
0.885008 0.107057 0.192264
0.047242 0.154604 0.136324
0.094362 0.188144 0.166018
0.183505 0.172061 0.157534
0.317784 0.161196 0.150240
0.470115 0.144717 0.141939
0.625498 0.129702 0.137331
0.794858 0.106355 0.132448
0.907988 0.103395 0.136721
0.909636 0.207675 0.206271
0.091005 0.266239 0.131807
0.147097 0.330663 0.135225
0.241886 0.324804 0.134096
0.404929 0.341466 0.156497
0.556435 0.325872 0.140475
0.687251 0.300740 0.133913
0.836179 0.264240 0.129030
0.931853 0.239490 0.133150
0.913573 0.325719 0.207584
0.141268 0.393362 0.121553
0.190677 0.473625 0.108431
0.287846 0.471641 0.102663
0.447517 0.493889 0.128817
0.619821 0.510781 0.140017
0.742123 0.484123 0.120729
0.860197 0.434348 0.109346
0.923613 0.387930 0.118837
0.910399 0.440833 0.202304
0.166598 0.515190 0.113344
0.189700 0.598901 0.060639
0.281712 0.605402 0.060243
0.454871 0.627619 0.089693
0.627207 0.630579 0.111788
0.773754 0.638727 0.113313
0.867979 0.601404 0.095491
0.911528 0.545373 0.098482
0.911955 0.553674 0.191409
0.153292 0.627771 0.077546
0.168551 0.733577 0.023163
0.261387 0.760189 0.024628
0.432761 0.773037 0.047822
0.616999 0.761959 0.076661
0.752895 0.750423 0.086275
0.856565 0.739132 0.081025
0.896819 0.702113 0.085451
0.908782 0.670436 0.179995
0.133486 0.755428 0.043183
0.164767 0.844572 0.016754
0.245884 0.868864 0.020905
0.425025 0.871946 0.046418
0.594034 0.861234 0.068391
0.717220 0.843595 0.075257
0.800565 0.816648 0.066957
0.867155 0.813230 0.065034
0.898161 0.766140 0.160769
0.127321 0.867674 0.028840
0.193790 0.888151 0.041291
0.324010 0.885832 0.079927
0.488472 0.881987 0.124544
0.606683 0.871763 0.154421
0.702235 0.866117 0.161288
0.771206 0.858000 0.150301
0.827237 0.838590 0.128359
0.876310 0.841794 0.123384
0.025788 0.026123 0.342916
0.047669 0.024475 0.285557
0.115389 0.022461 0.249271
0.216068 0.021180 0.230777
0.350134 0.022095 0.239292
0.484352 0.022766 0.265019
0.609003 0.023896 0.269444
0.721859 0.026001 0.249729
0.799344 0.045747 0.241520
0.027893 0.078309 0.278111
0.040192 0.050050 0.378317
0.110140 0.046571 0.302495
0.262181 0.046815 0.275395
0.425528 0.039643 0.269139
0.572213 0.036500 0.264195
0.708827 0.033417 0.241276
0.807858 0.047578 0.226413
0.833341 0.111757 0.242222
0.047089 0.160372 0.246372
0.063905 0.160708 0.300145
0.126864 0.144869 0.276951
0.269688 0.144564 0.270817
0.417792 0.130465 0.253727
0.567788 0.120363 0.245274
0.728191 0.108003 0.227909
0.850736 0.114809 0.216526
0.864805 0.218235 0.261540
0.073426 0.265232 0.242771
0.106996 0.326879 0.308125
0.186007 0.315496 0.293370
0.323033 0.308873 0.283726
0.463218 0.301701 0.272465
0.603525 0.284230 0.258824
0.756680 0.253651 0.237125
0.874693 0.242893 0.226566
0.889220 0.331701 0.281682
0.104067 0.395148 0.240284
0.131350 0.482292 0.271458
0.216922 0.475364 0.259495
0.366217 0.464958 0.258701
0.545449 0.479545 0.284001
0.672114 0.466545 0.258808
0.794247 0.432364 0.238407
0.886748 0.407736 0.232273
0.896391 0.456733 0.303624
0.125917 0.524926 0.228611
0.131716 0.624018 0.188708
0.211643 0.618372 0.181018
0.372137 0.596124 0.198749
0.565362 0.609674 0.248371
0.712932 0.616785 0.257710
0.820798 0.594568 0.230182
0.897612 0.562554 0.222354
0.907897 0.570214 0.308019
0.119356 0.651087 0.176745
0.111940 0.767117 0.113329
0.180056 0.776974 0.095079
0.354910 0.743526 0.123796
0.560067 0.744991 0.184588
0.701686 0.737484 0.212787
0.824491 0.726467 0.209094
0.895537 0.710964 0.214450
0.916167 0.686854 0.309850
0.102754 0.780148 0.123201
0.111299 0.873747 0.071260
0.184695 0.887480 0.071565
0.350591 0.865507 0.104005
0.559655 0.856718 0.160815
0.697047 0.845335 0.194156
0.797940 0.831022 0.186725
0.877775 0.815152 0.169894
0.911955 0.786038 0.288899
0.098695 0.888609 0.092470
0.166262 0.904387 0.115785
0.289982 0.890501 0.169467
0.458656 0.886046 0.227344
0.601862 0.882872 0.277180
0.706508 0.881193 0.295308
0.795529 0.881224 0.292165
0.860990 0.873411 0.266651
0.901946 0.863310 0.240772
0.026703 0.026825 0.587076
0.040223 0.025696 0.477165
0.093355 0.023774 0.400229
0.194766 0.022400 0.362127
0.311467 0.021759 0.324590
0.451865 0.022400 0.338872
0.571069 0.023774 0.338079
0.678370 0.025544 0.303838
0.757198 0.042390 0.287602
0.027008 0.082307 0.462150
0.031708 0.041779 0.665660
0.078553 0.039185 0.512184
0.209110 0.037659 0.452873
0.373938 0.037507 0.382788
0.530312 0.032044 0.365164
0.662379 0.028595 0.322118
0.751919 0.044648 0.286809
0.780545 0.105165 0.288640
0.043915 0.164675 0.393332
0.047303 0.153964 0.505867
0.081788 0.116732 0.436164
0.201053 0.117586 0.391089
0.364324 0.122133 0.378210
0.523323 0.106081 0.352346
0.666941 0.095216 0.305257
0.780392 0.112154 0.282658
0.804532 0.213962 0.310521
0.068269 0.266423 0.378134
0.079500 0.301671 0.471336
0.135470 0.284611 0.434409
0.238712 0.267277 0.396658
0.399481 0.277531 0.401114
0.538613 0.258061 0.368765
0.676509 0.240421 0.324178
0.799588 0.245670 0.298070
0.849882 0.340551 0.346990
0.085603 0.388800 0.382071
0.100343 0.473625 0.474327
0.168826 0.466148 0.463218
0.299870 0.449210 0.441764
0.477745 0.456230 0.439658
0.593927 0.439567 0.409842
0.718074 0.409323 0.356161
0.839506 0.380453 0.317357
0.882597 0.455009 0.383810
0.099519 0.522667 0.374716
0.095827 0.627329 0.401480
0.158480 0.619883 0.390799
0.301274 0.595239 0.397818
0.484138 0.582269 0.403403
0.657877 0.594537 0.425742
0.777081 0.579416 0.387472
0.875212 0.556710 0.358923
0.907103 0.594385 0.437201
0.094484 0.654963 0.327871
0.075624 0.781430 0.293812
0.138552 0.791165 0.277302
0.292912 0.749935 0.311391
0.502281 0.727871 0.338704
0.666362 0.737240 0.390555
0.809140 0.732937 0.397818
0.895598 0.719539 0.375906
0.927031 0.721584 0.459373
0.076875 0.788876 0.254749
0.078401 0.886717 0.209400
0.146548 0.903838 0.224140
0.309026 0.875303 0.265064
0.507027 0.861204 0.295369
0.675654 0.856138 0.352224
0.806210 0.853697 0.369314
0.902617 0.849393 0.351644
0.931334 0.828641 0.454459
0.074037 0.895567 0.200214
0.139132 0.909911 0.244800
0.271397 0.898802 0.315480
0.452247 0.892515 0.378286
0.604929 0.899138 0.436851
0.723781 0.901976 0.466667
0.822110 0.905150 0.471580
0.893187 0.906706 0.455589
0.928466 0.902617 0.434806
0.026886 0.029175 0.819562
0.034363 0.026703 0.687877
0.080629 0.024872 0.594461
0.178408 0.023590 0.557870
0.287297 0.022705 0.492790
0.403113 0.022309 0.412634
0.529168 0.023651 0.411505
0.644190 0.025483 0.379400
0.728573 0.038636 0.357763
0.024231 0.091707 0.668559
0.025727 0.039429 0.872999
0.050721 0.034485 0.724010
0.151324 0.032776 0.700053
0.299458 0.032471 0.605417
0.464942 0.032715 0.500908
0.617304 0.028046 0.449134
0.712123 0.041260 0.390326
0.734768 0.098695 0.362860
0.040955 0.184390 0.581918
0.027100 0.147585 0.760174
0.046754 0.096681 0.645548
0.138994 0.098451 0.577462
0.288716 0.101564 0.545510
0.460304 0.105440 0.504417
0.621088 0.085542 0.442847
0.720607 0.100771 0.386450
0.754177 0.202365 0.382452
0.061921 0.286442 0.540963
0.048798 0.292165 0.695781
0.080385 0.258656 0.619547
0.163104 0.228443 0.522545
0.312184 0.240589 0.513817
0.474495 0.242542 0.506218
0.613825 0.218769 0.439277
0.734707 0.226596 0.391363
0.795895 0.334051 0.425208
0.074311 0.395239 0.520012
0.064546 0.458305 0.653727
0.113741 0.440940 0.634684
0.225391 0.415061 0.581079
0.374502 0.408042 0.544427
0.537224 0.418845 0.544762
0.653559 0.390066 0.473030
0.778134 0.379263 0.427436
0.847959 0.466194 0.485542
0.080476 0.510613 0.524193
0.057923 0.612207 0.647623
0.109621 0.605951 0.641886
0.240253 0.592432 0.625010
0.428916 0.578531 0.597208
0.602594 0.578393 0.580224
0.697322 0.559472 0.519982
0.816861 0.530083 0.465812
0.898131 0.595300 0.539940
0.067781 0.649744 0.495735
0.037110 0.771267 0.546334
0.082033 0.788571 0.557900
0.223987 0.769772 0.582712
0.442222 0.742351 0.576913
0.621027 0.722255 0.554467
0.783322 0.728023 0.565942
0.885863 0.714534 0.532174
0.928710 0.731868 0.599390
0.048585 0.787686 0.427741
0.037934 0.887297 0.440635
0.091615 0.907073 0.471946
0.253162 0.888762 0.525856
0.476005 0.876799 0.539834
0.648127 0.863462 0.531960
0.802243 0.864622 0.559304
0.913756 0.871305 0.557046
0.936614 0.842313 0.614771
0.042908 0.896574 0.364034
0.094301 0.911711 0.427268
0.220050 0.904631 0.509911
0.410269 0.907408 0.575448
0.598306 0.913512 0.603800
0.735103 0.917632 0.628336
0.831724 0.918791 0.638987
0.904387 0.921080 0.636210
0.938537 0.924376 0.626505
0.025910 0.033722 0.910185
0.030945 0.028229 0.799130
0.062470 0.026062 0.773465
0.142824 0.024506 0.763409
0.249348 0.023682 0.692180
0.355627 0.023499 0.596094
0.481392 0.023316 0.520623
0.613001 0.025574 0.496193
0.712856 0.036683 0.472267
0.019135 0.101656 0.849149
0.025513 0.035370 0.919127
0.034302 0.031434 0.832425
0.092042 0.029236 0.839414
0.212970 0.027863 0.764813
0.372198 0.028077 0.695308
0.567895 0.029053 0.665370
0.683284 0.041382 0.564355
0.703883 0.095216 0.482551
0.025635 0.196017 0.805097
0.015991 0.159335 0.942901
0.025177 0.076143 0.823438
0.074464 0.079500 0.784680
0.193469 0.083253 0.735973
0.359350 0.085908 0.694759
0.561639 0.087739 0.673609
0.678401 0.100374 0.565240
0.708492 0.193332 0.494881
0.040162 0.297398 0.742016
0.017517 0.295750 0.910048
0.028656 0.232456 0.844862
0.085863 0.189654 0.691447
0.210651 0.205646 0.677272
0.373053 0.211261 0.666041
0.553887 0.213336 0.640040
0.682124 0.212772 0.557153
0.754269 0.321355 0.533043
0.052583 0.425849 0.697719
0.026551 0.454917 0.856291
0.044068 0.411399 0.824735
0.132860 0.375387 0.738827
0.263996 0.359670 0.680659
0.437049 0.377371 0.683680
0.607263 0.379873 0.656550
0.733181 0.362142 0.574731
0.814817 0.455619 0.590265
0.055451 0.532921 0.691615
0.027741 0.608454 0.848753
0.052491 0.589151 0.844892
0.161975 0.557305 0.785626
0.342428 0.544900 0.746990
0.514382 0.538994 0.713985
0.684108 0.548730 0.700038
0.779507 0.520775 0.617090
0.875181 0.589227 0.651545
0.042542 0.636408 0.680812
0.014832 0.739162 0.836393
0.035828 0.768643 0.856474
0.146685 0.751034 0.832670
0.361074 0.744503 0.802441
0.571466 0.718441 0.754574
0.735958 0.711910 0.728481
0.835508 0.683009 0.662959
0.925811 0.726894 0.719020
0.025238 0.772305 0.630152
0.012970 0.866728 0.728298
0.039002 0.906737 0.781125
0.164538 0.895567 0.802884
0.384695 0.887694 0.793744
0.619181 0.878264 0.751553
0.762295 0.858793 0.713405
0.898405 0.853819 0.725887
0.940276 0.856901 0.752438
0.019409 0.887633 0.579675
0.056855 0.913695 0.650416
0.158633 0.909667 0.719173
0.336477 0.914488 0.772824
0.547677 0.928344 0.779919
0.729915 0.928130 0.764553
0.831754 0.929381 0.774411
0.909392 0.928832 0.776150
0.941772 0.927092 0.774624
0.026276 0.031983 0.927245
0.029053 0.029023 0.844785
0.046174 0.027588 0.853849
0.097505 0.026001 0.851194
0.188846 0.025208 0.789395
0.296727 0.024933 0.729488
0.423835 0.025574 0.693477
0.570062 0.026429 0.672816
0.685328 0.037324 0.623896
0.017304 0.117494 0.940429
0.025116 0.037354 0.928374
0.028260 0.039612 0.885801
0.059022 0.040101 0.893217
0.148180 0.039643 0.854337
0.283879 0.039979 0.815976
0.453956 0.041505 0.806729
0.631556 0.043122 0.791012
0.676509 0.098024 0.636408
0.015381 0.224338 0.941711
0.014496 0.177951 0.960388
0.020447 0.079316 0.881224
0.048219 0.089265 0.890806
0.133318 0.096559 0.876768
0.270237 0.098543 0.830411
0.445228 0.099031 0.811093
0.623682 0.101595 0.797024
0.672908 0.192081 0.642542
0.016815 0.311009 0.905669
0.011658 0.296300 0.947326
0.016052 0.230259 0.916503
0.045747 0.177554 0.844297
0.135088 0.195895 0.847013
0.281590 0.206363 0.818906
0.465278 0.210666 0.800748
0.629450 0.208957 0.781735
0.717250 0.310918 0.675868
0.022766 0.425925 0.857450
0.011658 0.409842 0.924895
0.023926 0.376516 0.923125
0.079667 0.346578 0.860288
0.162005 0.320272 0.818021
0.334051 0.343587 0.824155
0.533165 0.355276 0.817349
0.693172 0.356100 0.794705
0.790219 0.444541 0.719844
0.027955 0.554101 0.856382
0.013214 0.566247 0.934295
0.036133 0.548196 0.939757
0.139345 0.536782 0.896208
0.286809 0.521218 0.858763
0.426413 0.499779 0.845457
0.638743 0.515923 0.848844
0.782071 0.515618 0.819577
0.868284 0.580133 0.769650
0.021668 0.643397 0.847868
0.010529 0.698909 0.928985
0.028687 0.716854 0.942168
0.132311 0.707149 0.911345
0.327382 0.710719 0.888334
0.540230 0.702113 0.882109
0.696834 0.674556 0.862364
0.849699 0.671778 0.851530
0.917937 0.714076 0.836789
0.014313 0.741207 0.836545
0.009674 0.826017 0.914641
0.017914 0.886442 0.927855
0.106752 0.882017 0.908385
0.296315 0.881071 0.902617
0.560342 0.877806 0.897429
0.721004 0.853574 0.867124
0.858701 0.839536 0.853361
0.937713 0.852628 0.866606
0.009857 0.845823 0.806302
0.028779 0.896513 0.868254
0.101228 0.911131 0.876585
0.265431 0.914885 0.890349
0.490867 0.928679 0.888731
0.692546 0.935393 0.874571
0.806821 0.932311 0.879667
0.887541 0.939879 0.870115
0.945861 0.933165 0.873472
0.025879 0.033631 0.934691
0.026459 0.034913 0.896452
0.035035 0.036561 0.897795
0.070497 0.036439 0.892882
0.144381 0.035370 0.864836
0.246128 0.035615 0.836545
0.365240 0.036011 0.825162
0.507958 0.037446 0.825833
0.639277 0.038819 0.803800
0.016449 0.134646 0.958373
0.021332 0.076112 0.891905
0.031373 0.082033 0.892424
0.070680 0.090883 0.900267
0.144564 0.095338 0.880430
0.245151 0.094728 0.845640
0.367773 0.095888 0.828824
0.504540 0.097047 0.821073
0.631495 0.099092 0.807950
0.012116 0.256748 0.960479
0.015930 0.189883 0.923125
0.035279 0.159762 0.873655
0.080446 0.170626 0.888426
0.159945 0.185367 0.873014
0.266239 0.188174 0.847440
0.394720 0.190280 0.828855
0.522942 0.190616 0.813413
0.637446 0.189914 0.803494
0.011048 0.323308 0.945068
0.016693 0.293736 0.923400
0.045777 0.269780 0.879515
0.099123 0.272953 0.857450
0.187610 0.286107 0.864744
0.315282 0.298283 0.861082
0.459022 0.306676 0.856626
0.593744 0.311376 0.843900
0.698238 0.306950 0.829221
0.010773 0.405936 0.925719
0.026520 0.402853 0.928100
0.079194 0.398978 0.891234
0.165301 0.401846 0.867491
0.283467 0.417655 0.877836
0.428626 0.433982 0.884459
0.585046 0.442771 0.887541
0.700618 0.446708 0.877226
0.786831 0.440726 0.864683
0.011292 0.528466 0.935760
0.036316 0.530266 0.945617
0.123232 0.538109 0.919280
0.263188 0.555138 0.892729
0.405219 0.562356 0.898253
0.535225 0.567285 0.906859
0.686198 0.578302 0.914183
0.798733 0.581109 0.908812
0.869627 0.571588 0.892241
0.010590 0.633143 0.938994
0.033845 0.644678 0.947478
0.116365 0.653986 0.926665
0.277943 0.685847 0.905608
0.462303 0.709224 0.914000
0.619272 0.707942 0.923156
0.754330 0.704585 0.925719
0.864408 0.710628 0.926177
0.918700 0.704677 0.920287
0.009674 0.730983 0.930724
0.024933 0.762753 0.939635
0.093965 0.774472 0.924437
0.240375 0.798642 0.913603
0.452659 0.829007 0.921477
0.645884 0.838651 0.930266
0.773281 0.855985 0.931182
0.888090 0.847807 0.929320
0.936736 0.842893 0.929015
0.009461 0.831479 0.925383
0.018769 0.888640 0.926360
0.079042 0.905882 0.913207
0.213672 0.905913 0.907286
0.437827 0.924926 0.920287
0.670909 0.935271 0.931517
0.790829 0.930510 0.932738
0.870970 0.938140 0.934081
0.953887 0.953887 0.945678
