assets/luts/impulz-fuji-superior-200-fc-rec709-558934a6.cube
# (C) 2014 VisionColor & Patchflyer [www.vision-color.com]
# Generator: VC Patchmatch v.2.1.1 [64/53]
# All work and no play makes Jack a dull boy.
# LUT generated from: Fuji Superior 200_FC
LUT_3D_SIZE 17
0.035615 0.033082 0.033082
0.074861 0.032288 0.031922
0.129732 0.035004 0.032349
0.194858 0.038483 0.034394
0.277348 0.037018 0.032044
0.356176 0.045808 0.037171
0.428412 0.049897 0.039063
0.491768 0.053254 0.040864
0.542992 0.062776 0.044770
0.587640 0.070039 0.049531
0.625452 0.072755 0.050965
0.662257 0.081453 0.053925
0.691310 0.086793 0.059693
0.721096 0.093965 0.065095
0.752712 0.097078 0.067597
0.785428 0.106722 0.070619
0.810452 0.111849 0.078706
0.040467 0.060121 0.028565
0.078584 0.063294 0.029511
0.134371 0.066804 0.029755
0.203861 0.072419 0.033082
0.289006 0.083375 0.032410
0.367681 0.086366 0.037324
0.441321 0.095979 0.040070
0.506493 0.108614 0.043061
0.557763 0.113344 0.047150
0.603693 0.120302 0.052552
0.644251 0.131594 0.055207
0.681422 0.141482 0.058381
0.709529 0.144015 0.064027
0.738460 0.152255 0.070161
0.766293 0.158145 0.073365
0.798550 0.165988 0.076204
0.822934 0.169131 0.084138
0.050233 0.102388 0.025177
0.089845 0.106874 0.027253
0.144656 0.113161 0.028992
0.213504 0.121401 0.033204
0.300328 0.129183 0.034760
0.380194 0.144320 0.040986
0.454994 0.153750 0.043915
0.519799 0.161288 0.046387
0.573571 0.177493 0.052338
0.619471 0.189029 0.058381
0.661433 0.194400 0.060639
0.699886 0.203403 0.064118
0.728511 0.212619 0.070497
0.757351 0.221500 0.076631
0.784329 0.224521 0.079438
0.812009 0.225864 0.081910
0.835630 0.231968 0.089448
0.068788 0.148104 0.029419
0.106752 0.157168 0.032776
0.169131 0.169741 0.034333
0.234226 0.178531 0.038697
0.327245 0.196872 0.042878
0.396612 0.203464 0.048676
0.471031 0.217655 0.053346
0.543175 0.237186 0.058167
0.592279 0.245701 0.062562
0.635859 0.253666 0.067994
0.680507 0.269078 0.072419
0.721401 0.282841 0.076295
0.747463 0.288884 0.082063
0.773037 0.293004 0.087343
0.800046 0.300145 0.091005
0.827787 0.305364 0.094270
0.850309 0.304906 0.099825
0.095003 0.212070 0.027405
0.144961 0.222263 0.033387
0.202182 0.239078 0.039551
0.285863 0.256352 0.045991
0.356054 0.265354 0.050904
0.427375 0.278538 0.059510
0.496880 0.292210 0.065034
0.564691 0.307195 0.069001
0.614527 0.318242 0.074861
0.661128 0.332128 0.081392
0.700252 0.342748 0.084565
0.740414 0.354040 0.087953
0.766018 0.361242 0.094392
0.791165 0.370214 0.101259
0.815915 0.375708 0.103059
0.842588 0.379950 0.105867
0.864958 0.378637 0.111299
0.137514 0.277958 0.035279
0.191623 0.290898 0.043122
0.255131 0.308843 0.051911
0.328283 0.327520 0.061524
0.408789 0.342809 0.068849
0.467460 0.354589 0.073884
0.532570 0.363439 0.078492
0.596643 0.379461 0.084047
0.641077 0.390600 0.088869
0.685939 0.403021 0.095735
0.725368 0.412634 0.097932
0.761746 0.424353 0.102266
0.784085 0.432959 0.107851
0.808499 0.441199 0.114504
0.832883 0.446143 0.116335
0.855375 0.448188 0.118563
0.873137 0.446021 0.121889
0.186679 0.344976 0.045258
0.242618 0.359869 0.054353
0.310460 0.379156 0.064637
0.380331 0.399359 0.075257
0.458824 0.417746 0.085328
0.522988 0.433005 0.091432
0.573709 0.444602 0.096468
0.636072 0.457465 0.101442
0.673762 0.460395 0.105257
0.710475 0.468391 0.109712
0.749447 0.480171 0.113558
0.783536 0.489082 0.118990
0.806973 0.497566 0.122774
0.827207 0.503868 0.127474
0.846067 0.508629 0.129030
0.864897 0.510277 0.131624
0.880247 0.507012 0.132113
0.244968 0.417426 0.055512
0.306737 0.434852 0.066438
0.370779 0.454459 0.077852
0.441184 0.473060 0.088746
0.511788 0.490425 0.099886
0.576318 0.509209 0.108278
0.627543 0.522362 0.113649
0.674311 0.533135 0.118318
0.707149 0.532799 0.121828
0.737118 0.533562 0.125582
0.772885 0.543755 0.128603
0.805478 0.551141 0.134005
0.827817 0.557885 0.137362
0.843168 0.561395 0.141268
0.856596 0.567681 0.141756
0.873838 0.568933 0.144106
0.889799 0.564996 0.144167
0.301701 0.482033 0.068879
0.360479 0.498909 0.080507
0.420417 0.515923 0.091493
0.483955 0.532555 0.102937
0.549508 0.547723 0.113832
0.607691 0.561791 0.123934
0.660945 0.578332 0.131044
0.704341 0.588037 0.135988
0.737606 0.597253 0.138582
0.766201 0.597681 0.141634
0.798276 0.603998 0.143801
0.824399 0.606958 0.148287
0.841856 0.612116 0.151400
0.857084 0.615351 0.155306
0.870207 0.620386 0.155703
0.884153 0.625330 0.155032
0.896300 0.617975 0.155795
0.356115 0.540215 0.084077
0.406012 0.554467 0.095583
0.462654 0.569146 0.106081
0.519799 0.584283 0.116854
0.581628 0.598321 0.127352
0.639887 0.611383 0.137270
0.687099 0.625422 0.146090
0.731441 0.638025 0.152346
0.766049 0.646815 0.155703
0.793271 0.655360 0.157443
0.817075 0.656916 0.158938
0.840085 0.656916 0.162692
0.855222 0.659083 0.165133
0.869078 0.663508 0.168307
0.882322 0.668513 0.168826
0.890745 0.669520 0.167971
0.899626 0.666285 0.167086
0.407813 0.594751 0.098665
0.451850 0.606073 0.109071
0.501762 0.618036 0.118807
0.555779 0.631434 0.128756
0.607996 0.643519 0.137179
0.665675 0.655482 0.146456
0.710964 0.668757 0.155337
0.755062 0.681941 0.163760
0.793484 0.692592 0.168582
0.814389 0.700069 0.170962
0.832731 0.706996 0.173495
0.855436 0.706020 0.176974
0.870176 0.706966 0.179049
0.879393 0.705348 0.181033
0.886656 0.706966 0.180789
0.894835 0.707637 0.180362
0.904265 0.705837 0.177737
0.456977 0.646143 0.112581
0.497078 0.654505 0.121492
0.538476 0.663539 0.130251
0.587915 0.674342 0.138674
0.636927 0.685512 0.146944
0.688655 0.696498 0.155703
0.733242 0.708858 0.165194
0.775570 0.721065 0.174350
0.814817 0.732326 0.182681
0.834928 0.740047 0.185855
0.852872 0.746853 0.188357
0.870207 0.753414 0.190738
0.879484 0.749111 0.191501
0.885435 0.744106 0.192630
0.892119 0.744778 0.191867
0.898802 0.744778 0.192477
0.908629 0.743557 0.189944
0.494026 0.687434 0.124605
0.533013 0.695521 0.133242
0.570916 0.703548 0.141421
0.615869 0.711604 0.148806
0.662776 0.722225 0.156252
0.707973 0.732021 0.164096
0.751095 0.743160 0.172610
0.791592 0.754604 0.180819
0.823606 0.763149 0.189273
0.846952 0.772213 0.194675
0.864530 0.778866 0.197086
0.876768 0.783627 0.200046
0.885588 0.787289 0.203006
0.891417 0.782406 0.204074
0.898100 0.783169 0.203372
0.904234 0.784237 0.203891
0.911162 0.778653 0.201297
0.525597 0.721553 0.133089
0.561791 0.729732 0.142336
0.601129 0.738705 0.150179
0.640101 0.746365 0.157351
0.684810 0.755581 0.164736
0.728115 0.764431 0.173007
0.766384 0.773770 0.180514
0.803098 0.783841 0.188968
0.832364 0.791440 0.197330
0.856779 0.799435 0.204105
0.872740 0.807340 0.207767
0.881895 0.811002 0.211002
0.890929 0.814633 0.214206
0.898161 0.818540 0.215518
0.903929 0.818326 0.214572
0.909148 0.815671 0.214603
0.914000 0.815061 0.211185
0.556848 0.754635 0.141329
0.590417 0.764157 0.152010
0.629572 0.773312 0.159609
0.666377 0.780758 0.166720
0.706050 0.787533 0.174136
0.748440 0.796048 0.181796
0.786252 0.804623 0.188693
0.811643 0.811154 0.195834
0.839872 0.818296 0.203647
0.866728 0.825528 0.211063
0.877440 0.830686 0.215518
0.886534 0.834684 0.219364
0.895598 0.838315 0.222568
0.903166 0.841794 0.224521
0.907835 0.844175 0.224582
0.913176 0.842252 0.224918
0.918181 0.842435 0.221775
0.582086 0.785031 0.141268
0.618006 0.797848 0.154330
0.655390 0.807523 0.162905
0.692012 0.814511 0.170565
0.728847 0.818387 0.179751
0.769162 0.826352 0.187594
0.805142 0.833860 0.195529
0.825742 0.839200 0.202609
0.848661 0.845243 0.209903
0.873106 0.851652 0.218021
0.883116 0.855772 0.223819
0.891875 0.860105 0.228794
0.900481 0.863157 0.232547
0.907561 0.865080 0.235569
0.912352 0.867521 0.235630
0.917418 0.870085 0.235721
0.922271 0.870237 0.232822
0.606958 0.817533 0.140963
0.641901 0.830014 0.153658
0.675502 0.841733 0.165499
0.715908 0.848722 0.176089
0.751095 0.851713 0.184878
0.788052 0.858183 0.194034
0.825620 0.863767 0.204013
0.844999 0.867857 0.210056
0.863767 0.871824 0.215946
0.877684 0.874571 0.223209
0.889220 0.877531 0.229221
0.897948 0.880827 0.233371
0.905608 0.883757 0.238224
0.911315 0.884611 0.243198
0.916320 0.887083 0.243351
0.921263 0.889647 0.243442
0.924376 0.891539 0.243626
0.034577 0.033326 0.078492
0.060365 0.031800 0.073640
0.114229 0.032959 0.072053
0.178592 0.035279 0.065217
0.256565 0.032624 0.068238
0.332952 0.038605 0.065705
0.406378 0.041566 0.066133
0.473121 0.043732 0.071138
0.527153 0.048707 0.071809
0.572229 0.054780 0.074495
0.610651 0.056184 0.075715
0.647608 0.058228 0.079957
0.680446 0.065431 0.081147
0.710811 0.071687 0.084077
0.742306 0.073762 0.085298
0.774960 0.074708 0.089784
0.805203 0.082582 0.093080
0.036103 0.066590 0.060426
0.068452 0.067781 0.066835
0.131106 0.071656 0.065583
0.209781 0.072023 0.063569
0.292058 0.075288 0.065034
0.374853 0.081270 0.066682
0.444038 0.087251 0.070832
0.505821 0.094087 0.074220
0.564355 0.101198 0.075441
0.610803 0.108766 0.079805
0.645472 0.116182 0.085664
0.678431 0.122194 0.089754
0.711757 0.131380 0.092866
0.741787 0.139284 0.099184
0.770748 0.142489 0.105013
0.800839 0.148531 0.110475
0.830137 0.154726 0.113924
0.046662 0.111635 0.059327
0.083925 0.117494 0.064332
0.142245 0.124727 0.064759
0.222751 0.128298 0.062715
0.307012 0.136172 0.066560
0.390509 0.143771 0.068147
0.458869 0.145541 0.072450
0.520653 0.156954 0.077790
0.579065 0.169100 0.080049
0.625086 0.174746 0.084291
0.661707 0.180606 0.090578
0.697536 0.190616 0.095644
0.730922 0.199893 0.098787
0.760494 0.206088 0.104952
0.788754 0.208133 0.110719
0.813901 0.212955 0.116182
0.842710 0.219059 0.119142
0.069123 0.165927 0.060853
0.108614 0.179385 0.061311
0.166079 0.187625 0.061646
0.243290 0.198337 0.063996
0.324742 0.203800 0.068574
0.405402 0.207736 0.072816
0.474281 0.217563 0.077363
0.536980 0.228244 0.082277
0.594568 0.235538 0.084169
0.641657 0.246403 0.090517
0.679988 0.257023 0.098024
0.715236 0.264714 0.102876
0.748562 0.269932 0.105348
0.777249 0.275395 0.111330
0.803037 0.281437 0.117525
0.827756 0.284153 0.122774
0.855039 0.282139 0.124453
0.094514 0.230747 0.069673
0.140932 0.242222 0.063966
0.203128 0.255131 0.070405
0.281285 0.270420 0.073365
0.357458 0.281895 0.079408
0.435126 0.285496 0.085603
0.500206 0.291112 0.089021
0.557931 0.300969 0.094667
0.619226 0.315435 0.098756
0.667201 0.324071 0.104005
0.700343 0.331243 0.110353
0.733272 0.339422 0.115450
0.767391 0.348882 0.118196
0.796323 0.354925 0.124239
0.818967 0.356909 0.128786
0.842161 0.356939 0.133120
0.866697 0.353582 0.133822
0.136934 0.296757 0.075959
0.183169 0.308934 0.067140
0.246036 0.322332 0.075715
0.316899 0.339574 0.083162
0.399237 0.355688 0.091066
0.470130 0.364935 0.097047
0.530907 0.367315 0.102174
0.586191 0.376806 0.108705
0.641352 0.389319 0.112825
0.690425 0.396887 0.117830
0.725704 0.404517 0.124147
0.755398 0.413153 0.129580
0.783047 0.421759 0.131899
0.811460 0.426398 0.138033
0.834440 0.428046 0.142214
0.853635 0.427192 0.143740
0.875547 0.423377 0.143404
0.184695 0.362860 0.084382
0.232547 0.378119 0.073548
0.293614 0.391608 0.082185
0.362890 0.409125 0.093172
0.438666 0.426429 0.102968
0.510857 0.439368 0.111086
0.567193 0.446967 0.117128
0.617472 0.450477 0.122560
0.667277 0.458167 0.126864
0.714992 0.468055 0.132082
0.748989 0.473854 0.138643
0.779355 0.481331 0.143130
0.805661 0.489357 0.145632
0.825681 0.493812 0.151339
0.846830 0.495369 0.154879
0.865873 0.493965 0.156588
0.882963 0.487831 0.154086
0.235569 0.431739 0.100710
0.285252 0.443641 0.086336
0.346563 0.459358 0.097108
0.413245 0.473854 0.107759
0.479988 0.490455 0.118471
0.547311 0.503563 0.127291
0.607477 0.513451 0.134249
0.650874 0.523156 0.139193
0.696208 0.526726 0.142885
0.737179 0.529412 0.148592
0.772122 0.536004 0.153292
0.799893 0.542321 0.157504
0.820127 0.546715 0.161501
0.841856 0.551843 0.165957
0.858488 0.555566 0.167636
0.876280 0.554864 0.168826
0.892546 0.547936 0.166415
0.287877 0.493294 0.115206
0.338903 0.506554 0.098177
0.395056 0.520806 0.108614
0.454932 0.534295 0.118715
0.519234 0.549432 0.129030
0.581064 0.562890 0.139284
0.643793 0.574762 0.147982
0.685679 0.585000 0.153597
0.724315 0.593423 0.158450
0.764553 0.594324 0.163760
0.793240 0.592859 0.167880
0.815457 0.596277 0.171817
0.833402 0.600488 0.175906
0.854978 0.605035 0.180453
0.872587 0.608545 0.180453
0.882658 0.608484 0.180941
0.895384 0.598383 0.178500
0.340429 0.549096 0.127779
0.385351 0.561913 0.112398
0.439796 0.575555 0.122560
0.491920 0.588281 0.132143
0.555474 0.601801 0.142672
0.614160 0.614008 0.151736
0.669581 0.625574 0.161288
0.715755 0.638727 0.167941
0.753414 0.646937 0.172702
0.785855 0.653193 0.178378
0.812802 0.649500 0.182162
0.832486 0.647944 0.185855
0.848386 0.650416 0.189731
0.867338 0.655329 0.194217
0.879728 0.654627 0.193149
0.887449 0.652796 0.193423
0.899016 0.647730 0.188724
0.385931 0.601068 0.143282
0.425055 0.612055 0.123293
0.476661 0.624811 0.133028
0.528618 0.634577 0.141726
0.582971 0.645655 0.150759
0.638911 0.656886 0.160220
0.691127 0.667597 0.170779
0.736751 0.679408 0.179538
0.774807 0.689815 0.186069
0.805600 0.695521 0.191897
0.830076 0.701564 0.196139
0.850370 0.700526 0.199435
0.864042 0.699763 0.202548
0.874601 0.696315 0.206912
0.884184 0.697688 0.205264
0.892058 0.695491 0.205509
0.902861 0.692958 0.200839
0.426734 0.649927 0.160067
0.466255 0.658137 0.137667
0.510033 0.666712 0.146120
0.561212 0.674983 0.154269
0.610407 0.684718 0.162387
0.660182 0.695094 0.171633
0.710445 0.705104 0.181216
0.755520 0.715785 0.190036
0.788907 0.725002 0.197696
0.820340 0.732235 0.203922
0.847471 0.737850 0.208896
0.859556 0.742550 0.211856
0.870512 0.739223 0.214267
0.882017 0.736294 0.218601
0.889128 0.736416 0.217563
0.896483 0.736599 0.217563
0.906676 0.733730 0.213199
0.464424 0.691066 0.170901
0.499428 0.694881 0.146059
0.539086 0.704067 0.153872
0.588129 0.712184 0.161776
0.635096 0.720485 0.169467
0.678279 0.729549 0.177371
0.726986 0.739284 0.187076
0.769467 0.748165 0.196689
0.799435 0.756161 0.205325
0.830961 0.764828 0.212985
0.857420 0.770199 0.218997
0.867460 0.773800 0.222507
0.876463 0.777432 0.225681
0.888029 0.774777 0.230106
0.895171 0.775204 0.229160
0.900908 0.772183 0.228122
0.908293 0.767300 0.224186
0.494575 0.724575 0.177371
0.531060 0.730373 0.156435
0.570001 0.739467 0.164004
0.611597 0.747890 0.171450
0.658839 0.754757 0.179965
0.700893 0.763638 0.188052
0.743496 0.772641 0.196414
0.785489 0.780423 0.207248
0.814633 0.788388 0.215641
0.843168 0.796078 0.223484
0.863828 0.801816 0.230747
0.875975 0.805173 0.234958
0.885069 0.808804 0.238163
0.893828 0.811948 0.241550
0.900267 0.807675 0.240024
0.905943 0.804471 0.239109
0.910857 0.804929 0.234073
0.518425 0.756130 0.185000
0.557519 0.764401 0.159762
0.595483 0.773251 0.167147
0.634363 0.781552 0.176089
0.679896 0.788418 0.185550
0.719631 0.796109 0.192325
0.758816 0.803891 0.200534
0.798581 0.811063 0.210758
0.828336 0.818723 0.218418
0.852354 0.825193 0.225925
0.867338 0.829129 0.234287
0.881010 0.833738 0.240299
0.890166 0.837430 0.243503
0.897734 0.839139 0.247257
0.905394 0.840665 0.251225
0.911223 0.838163 0.250553
0.916289 0.839780 0.245945
0.535912 0.789212 0.182925
0.580163 0.797909 0.156069
0.617121 0.806790 0.163760
0.658900 0.814664 0.175265
0.698940 0.822049 0.186252
0.736965 0.828672 0.193240
0.776089 0.835691 0.204135
0.813901 0.842527 0.214817
0.841184 0.848997 0.222995
0.858305 0.853391 0.231662
0.872892 0.857176 0.240452
0.886687 0.860716 0.248508
0.894469 0.862852 0.252659
0.901976 0.864317 0.256565
0.909789 0.865843 0.260624
0.915679 0.868132 0.261967
0.919707 0.865446 0.257053
0.562066 0.821622 0.181460
0.600610 0.829282 0.151461
0.638727 0.836698 0.163363
0.679774 0.844419 0.174655
0.718807 0.851774 0.185397
0.753902 0.855375 0.198093
0.791104 0.860838 0.208560
0.827359 0.866331 0.218143
0.851682 0.870451 0.226200
0.863767 0.872801 0.233799
0.878080 0.875517 0.241672
0.893034 0.878355 0.250156
0.899626 0.881224 0.256657
0.905455 0.882445 0.262181
0.913573 0.884031 0.266392
0.918639 0.885710 0.268132
0.921904 0.887663 0.268315
0.031617 0.036774 0.137636
0.055299 0.033265 0.134218
0.102144 0.032380 0.128603
0.163973 0.034363 0.124178
0.236362 0.031525 0.113741
0.309026 0.036439 0.115938
0.383551 0.039063 0.114229
0.452369 0.041657 0.115206
0.506828 0.046387 0.115023
0.553887 0.051942 0.118441
0.597589 0.053864 0.119875
0.634821 0.055940 0.123201
0.667994 0.063233 0.123171
0.698817 0.069184 0.126894
0.735164 0.071748 0.128908
0.767971 0.072755 0.132387
0.799100 0.080690 0.133913
0.032929 0.072328 0.117067
0.064363 0.072480 0.128115
0.116304 0.068605 0.127749
0.193912 0.067659 0.121004
0.268833 0.068452 0.110475
0.350866 0.069825 0.111849
0.423316 0.076112 0.108980
0.486275 0.081331 0.109133
0.542351 0.082216 0.112978
0.590204 0.088502 0.114168
0.630365 0.096803 0.114412
0.663691 0.101411 0.116732
0.694057 0.102876 0.120821
0.724361 0.109194 0.124849
0.759915 0.115602 0.126864
0.791348 0.120790 0.129732
0.820188 0.121584 0.131868
0.040742 0.120241 0.103334
0.075593 0.128481 0.112856
0.120241 0.126650 0.114260
0.202518 0.129824 0.113924
0.288884 0.130587 0.111055
0.367895 0.133211 0.112154
0.441230 0.141146 0.116945
0.505730 0.145632 0.118471
0.557702 0.153262 0.123964
0.605371 0.159213 0.124849
0.647913 0.169924 0.130831
0.684535 0.175875 0.133181
0.712734 0.181704 0.138979
0.745418 0.186984 0.143343
0.779843 0.195651 0.147921
0.815122 0.197879 0.150515
0.843870 0.200626 0.154482
0.062135 0.177523 0.108583
0.100771 0.190005 0.107424
0.149477 0.189487 0.113558
0.222171 0.199435 0.115663
0.311284 0.204379 0.114199
0.390051 0.210208 0.116579
0.459449 0.214664 0.120607
0.523461 0.217105 0.122011
0.576288 0.226902 0.129915
0.623682 0.235752 0.132296
0.665736 0.244480 0.138094
0.701869 0.248264 0.140261
0.731411 0.255253 0.146700
0.760494 0.261234 0.150515
0.793759 0.267216 0.154574
0.828672 0.267521 0.156985
0.855741 0.261418 0.159518
0.093050 0.249454 0.112306
0.131960 0.254917 0.113069
0.185428 0.260624 0.111299
0.257450 0.270817 0.114107
0.337041 0.280034 0.119753
0.413397 0.283055 0.122713
0.479408 0.286503 0.127901
0.540887 0.293584 0.130770
0.596033 0.303807 0.137789
0.644343 0.311254 0.139193
0.685969 0.318608 0.145876
0.721492 0.326299 0.149264
0.751247 0.333196 0.155978
0.779843 0.337316 0.159579
0.808896 0.337407 0.161715
0.841459 0.336187 0.163973
0.867948 0.331884 0.167605
0.130526 0.314000 0.123598
0.170901 0.321538 0.118257
0.226871 0.329076 0.113161
0.296544 0.339696 0.120851
0.376898 0.353216 0.127291
0.444892 0.361212 0.133852
0.506981 0.361913 0.141360
0.567193 0.367651 0.143709
0.616846 0.375647 0.149722
0.665583 0.383856 0.152377
0.710872 0.392462 0.159518
0.743648 0.399390 0.162661
0.767636 0.406409 0.168307
0.797024 0.409705 0.170352
0.825315 0.410925 0.172885
0.853422 0.406867 0.173556
0.878294 0.400549 0.176242
0.172793 0.376898 0.134859
0.220615 0.390326 0.122744
0.273686 0.396735 0.120516
0.336553 0.407507 0.130343
0.409583 0.421485 0.138705
0.481941 0.433845 0.148074
0.540337 0.439399 0.154513
0.594629 0.438758 0.157961
0.645075 0.446357 0.164523
0.688869 0.453773 0.167178
0.731991 0.461219 0.174807
0.766384 0.467140 0.176669
0.790066 0.472541 0.182040
0.810269 0.477516 0.183505
0.836667 0.478004 0.186130
0.865843 0.473426 0.186587
0.886473 0.465064 0.185061
0.223514 0.444007 0.147036
0.268711 0.452735 0.135103
0.318669 0.459602 0.127932
0.379736 0.470039 0.137453
0.446662 0.485084 0.148562
0.516854 0.498024 0.157565
0.578210 0.508629 0.165011
0.627771 0.513939 0.172213
0.674159 0.515740 0.178470
0.714199 0.518669 0.181918
0.755917 0.525963 0.188296
0.784451 0.529992 0.191928
0.810513 0.534691 0.195377
0.830625 0.539391 0.196994
0.848905 0.540795 0.198978
0.876554 0.535821 0.198978
0.890837 0.524712 0.197360
0.273625 0.504173 0.161746
0.314519 0.512535 0.150973
0.364569 0.518730 0.137179
0.423224 0.529534 0.146944
0.488350 0.542290 0.158694
0.552270 0.556786 0.170047
0.610346 0.568292 0.179080
0.661616 0.576440 0.187167
0.703212 0.583185 0.192844
0.740047 0.581872 0.195315
0.776883 0.582452 0.203128
0.805417 0.587762 0.205478
0.829282 0.593256 0.208255
0.848142 0.596399 0.211032
0.865385 0.597620 0.212497
0.878202 0.592218 0.211429
0.893645 0.580682 0.209384
0.317815 0.555932 0.179416
0.360265 0.567224 0.164767
0.406806 0.571771 0.148623
0.460182 0.581109 0.157473
0.521660 0.591730 0.168154
0.582330 0.605158 0.178805
0.635065 0.616205 0.188449
0.687526 0.626398 0.196902
0.728817 0.632898 0.203800
0.759640 0.638605 0.209628
0.795987 0.637720 0.217075
0.821561 0.638422 0.219730
0.844419 0.643000 0.221805
0.855222 0.643183 0.223758
0.870481 0.642939 0.225467
0.884825 0.638697 0.222446
0.896422 0.631434 0.221469
0.359380 0.605859 0.194003
0.400366 0.617029 0.173648
0.444312 0.620020 0.161624
0.495277 0.628229 0.169741
0.548974 0.636805 0.178714
0.609583 0.648829 0.190524
0.660456 0.659632 0.200870
0.710414 0.669917 0.210269
0.755276 0.680232 0.219333
0.785397 0.685817 0.225040
0.814481 0.691218 0.230564
0.837461 0.688746 0.232822
0.853422 0.684596 0.234684
0.862486 0.683742 0.236149
0.874846 0.686305 0.238010
0.889311 0.682795 0.235599
0.899931 0.678431 0.233829
0.398627 0.653834 0.206760
0.436957 0.660121 0.186679
0.477363 0.663447 0.172122
0.526970 0.671443 0.180026
0.575372 0.678920 0.188174
0.633387 0.688838 0.198917
0.681819 0.698878 0.207858
0.727718 0.707912 0.217655
0.771756 0.716731 0.227024
0.803952 0.725155 0.233341
0.829587 0.729732 0.238987
0.847654 0.732601 0.245121
0.863493 0.727901 0.246860
0.872374 0.726192 0.248081
0.881529 0.727474 0.250950
0.893645 0.725765 0.248569
0.903899 0.718196 0.246189
0.434577 0.694209 0.216098
0.463783 0.696620 0.194156
0.505058 0.702296 0.175967
0.553491 0.710109 0.183688
0.602686 0.717037 0.192782
0.653193 0.725887 0.202213
0.700313 0.735683 0.210910
0.743221 0.743526 0.221683
0.785031 0.751064 0.232700
0.818326 0.759670 0.240543
0.838865 0.764431 0.247410
0.856718 0.767239 0.253483
0.872679 0.770260 0.258915
0.882414 0.769741 0.260349
0.890440 0.768093 0.262577
0.898253 0.764889 0.261479
0.907988 0.758999 0.258854
0.459998 0.726589 0.224887
0.495644 0.731929 0.203708
0.536217 0.738949 0.184604
0.579858 0.746609 0.192905
0.628504 0.753384 0.201999
0.675685 0.760891 0.210819
0.716182 0.768643 0.219272
0.757656 0.775876 0.229404
0.798032 0.782986 0.239231
0.825742 0.788998 0.247837
0.843992 0.794278 0.255192
0.862150 0.797696 0.261418
0.879911 0.800565 0.267460
0.887480 0.802274 0.271214
0.895872 0.801358 0.273625
0.904204 0.799710 0.272801
0.911376 0.799008 0.269291
0.482826 0.757687 0.232517
0.522972 0.765896 0.205844
0.558526 0.771756 0.182315
0.600305 0.779599 0.193820
0.646418 0.786343 0.203006
0.691890 0.792721 0.211704
0.731472 0.799893 0.222751
0.770352 0.807157 0.233127
0.809720 0.814389 0.243198
0.836820 0.820340 0.254185
0.852415 0.824735 0.263066
0.870390 0.830076 0.271153
0.885191 0.832151 0.276921
0.893309 0.833616 0.281041
0.901152 0.835172 0.285130
0.909636 0.834653 0.284672
0.916564 0.832547 0.280980
0.499001 0.791287 0.227878
0.545647 0.799558 0.200809
0.584070 0.807218 0.184665
0.624811 0.814878 0.195865
0.663783 0.822202 0.206577
0.709224 0.827329 0.217716
0.748287 0.834073 0.228428
0.785122 0.841428 0.238468
0.820157 0.847257 0.248722
0.849363 0.852415 0.259617
0.864073 0.855436 0.267124
0.878874 0.858549 0.274937
0.889830 0.861112 0.283543
0.898680 0.862608 0.287968
0.906798 0.864195 0.292180
0.915160 0.865293 0.296361
0.922210 0.862150 0.292760
0.519768 0.825376 0.220523
0.561120 0.833005 0.193210
0.595880 0.840574 0.167575
0.635767 0.848081 0.178561
0.676692 0.853880 0.191379
0.723568 0.856260 0.209598
0.761807 0.861234 0.219852
0.797452 0.867338 0.228458
0.829007 0.870939 0.243473
0.858030 0.874296 0.257969
0.872190 0.877134 0.266239
0.884733 0.880156 0.275822
0.895781 0.883146 0.286717
0.903655 0.884947 0.294438
0.911681 0.886229 0.298802
0.920256 0.887175 0.303014
0.925994 0.888823 0.304936
0.033326 0.042023 0.190677
0.047395 0.036927 0.190372
0.096651 0.035462 0.194491
0.156924 0.034577 0.180148
0.226688 0.031952 0.178378
0.302739 0.036622 0.170748
0.375616 0.039185 0.168276
0.439155 0.041871 0.170626
0.496132 0.045960 0.171054
0.541558 0.050935 0.172305
0.585382 0.052674 0.170443
0.622950 0.054932 0.170413
0.655299 0.060975 0.172213
0.685420 0.066468 0.173831
