assets/luts/impulz-kodak-ektar-100-fc-log-71592d73.cube
# (C) 2014 VisionColor & Patchflyer [www.vision-color.com]
# Generator: VC Patchmatch v.2.1.1 [64/53]
# All work and no play makes Jack a dull boy.
# LUT generated from: Kodak Ektar 100_FC
LUT_3D_SIZE 5
0.030304 0.014008 0.020722
0.171237 0.034638 0.041016
0.444144 0.050629 0.056703
0.690089 0.081971 0.074647
0.806790 0.107881 0.099062
0.059052 0.183719 0.065736
0.114534 0.170626 0.045045
0.319295 0.209720 0.044831
0.610834 0.327306 0.079011
0.744533 0.411353 0.120577
0.061952 0.428504 0.093477
0.099062 0.440421 0.080690
0.230838 0.423362 0.062654
0.495415 0.485176 0.082460
0.716640 0.540490 0.135592
0.091005 0.665583 0.186007
0.099825 0.677211 0.180941
0.195071 0.698909 0.222019
0.393011 0.633112 0.142947
0.665278 0.621942 0.159365
0.157290 0.773404 0.343725
0.181155 0.782620 0.357336
0.396262 0.833249 0.507622
0.610224 0.839994 0.475471
0.791684 0.829648 0.412390
0.050141 0.022980 0.112490
0.127016 0.025086 0.096834
0.366323 0.041901 0.126040
0.655543 0.062470 0.128878
0.804013 0.083650 0.125429
0.043122 0.131411 0.156405
0.156558 0.153597 0.163790
0.488640 0.140230 0.123140
0.751583 0.118166 0.096254
0.818906 0.131411 0.118288
0.044739 0.381140 0.204471
0.109010 0.483330 0.197848
0.363027 0.484306 0.190860
0.659022 0.451667 0.116274
0.766140 0.393469 0.142672
0.088228 0.637385 0.325780
0.169589 0.750973 0.367498
0.314290 0.779599 0.455909
0.672175 0.784451 0.408453
0.751766 0.621973 0.220279
0.237980 0.784237 0.540185
0.422339 0.841917 0.649226
0.441642 0.843107 0.650950
0.748226 0.888029 0.749203
0.885161 0.886076 0.666010
0.059388 0.033112 0.399161
0.176150 0.030945 0.291234
0.349020 0.037140 0.236912
0.637049 0.060212 0.243198
0.797513 0.081514 0.181857
0.046815 0.104128 0.460929
0.120699 0.074128 0.554849
0.486992 0.087587 0.364843
0.751797 0.082429 0.217670
0.820066 0.116548 0.179110
0.029480 0.334905 0.377111
0.120272 0.436545 0.468711
0.460960 0.461295 0.469627
0.741909 0.371572 0.341512
0.835935 0.392782 0.288685
0.086946 0.614221 0.459724
0.287953 0.762387 0.610101
0.443290 0.758389 0.584100
0.771054 0.796384 0.621759
0.857420 0.732754 0.453346
0.289738 0.792599 0.659968
0.591791 0.867918 0.777768
0.644221 0.876371 0.787076
0.821073 0.902159 0.839048
0.919615 0.915099 0.839139
0.060670 0.039399 0.819089
0.213474 0.038849 0.624674
0.462318 0.044862 0.456428
0.638178 0.063508 0.382666
0.782162 0.085145 0.353826
0.058564 0.065705 0.843198
0.070283 0.047150 0.905150
0.438407 0.056458 0.647532
0.732052 0.089601 0.525048
0.794736 0.127382 0.360937
0.040864 0.262592 0.660288
0.072908 0.165850 0.844984
0.300832 0.180896 0.747692
0.730037 0.357198 0.656611
0.838834 0.412650 0.583856
0.058503 0.548669 0.594842
0.154940 0.674006 0.705989
0.415976 0.726894 0.739498
0.771176 0.771176 0.769406
0.923339 0.797116 0.781277
0.217105 0.761593 0.710170
0.400946 0.815518 0.775723
0.657389 0.877745 0.842039
0.834134 0.920684 0.856352
0.937346 0.937224 0.868772
0.063386 0.043000 0.932342
0.185458 0.041199 0.822446
0.463844 0.053040 0.678981
0.656947 0.068727 0.598901
0.757382 0.092866 0.570794
0.062684 0.061738 0.940185
0.090883 0.057649 0.933745
0.386404 0.067414 0.775113
0.681788 0.112123 0.669795
0.765133 0.212375 0.666590
0.057496 0.134752 0.905791
0.103487 0.090303 0.927062
0.371786 0.113527 0.819028
0.725063 0.318517 0.766201
0.816922 0.534325 0.793088
0.082490 0.466957 0.757229
0.149905 0.371130 0.817258
0.470848 0.470542 0.847349
0.787991 0.629038 0.867735
0.901732 0.796597 0.891966
0.171511 0.717037 0.739376
0.287694 0.772824 0.775143
0.534066 0.855039 0.853788
0.826658 0.929229 0.921721
0.959930 0.959930 0.951598
