assets/luts/impulz-fuji-pro-400-fpe-log-d9ea23d0.cube
# (C) 2014 VisionColor & Patchflyer [www.vision-color.com]
# Generator: VC Patchmatch v.2.1.1 [64/53]
# All work and no play makes Jack a dull boy.
# LUT generated from: Fuji Pro 400_FPE
LUT_3D_SIZE 17
0.033509 0.036683 0.037079
0.037903 0.039918 0.039826
0.059419 0.041230 0.038239
0.091829 0.045045 0.038911
0.136233 0.049775 0.040131
0.190982 0.055756 0.042145
0.259464 0.059968 0.046296
0.314519 0.060700 0.049561
0.354589 0.061616 0.052399
0.378210 0.062684 0.054414
0.397375 0.068544 0.057404
0.426947 0.084596 0.063386
0.461280 0.107576 0.071015
0.494545 0.129824 0.078309
0.519829 0.145449 0.085023
0.539666 0.155550 0.090913
0.553185 0.161227 0.101503
0.033845 0.044526 0.040192
0.041596 0.047395 0.040528
0.063661 0.050111 0.039399
0.109651 0.066072 0.042634
0.164157 0.079316 0.045777
0.218204 0.084932 0.047822
0.281773 0.088472 0.051301
0.340490 0.096895 0.056855
0.389013 0.106722 0.063630
0.420417 0.114351 0.068544
0.441932 0.119326 0.071901
0.472206 0.135409 0.077974
0.504417 0.157778 0.086152
0.532311 0.176791 0.093385
0.556848 0.192111 0.100221
0.576654 0.203128 0.106630
0.593835 0.213443 0.117800
0.036378 0.066224 0.042817
0.046113 0.070192 0.043336
0.086885 0.083253 0.045838
0.130739 0.096620 0.048310
0.187594 0.109285 0.051026
0.250370 0.126894 0.057557
0.316258 0.140200 0.063539
0.376486 0.150912 0.070314
0.426001 0.161349 0.077455
0.468635 0.179324 0.088106
0.499031 0.192386 0.094636
0.525505 0.204257 0.099886
0.552087 0.220462 0.106569
0.576043 0.233463 0.112215
0.598169 0.247105 0.118685
0.620264 0.261723 0.125856
0.636439 0.270512 0.136019
0.044068 0.103212 0.050111
0.070344 0.114626 0.052277
0.111879 0.126802 0.054658
0.161715 0.142733 0.059724
0.224887 0.168826 0.066621
0.288792 0.182864 0.072358
0.348867 0.193545 0.078431
0.416922 0.222675 0.092775
0.479728 0.253605 0.108492
0.529259 0.277958 0.122103
0.559319 0.286076 0.127230
0.586725 0.299748 0.135592
0.607935 0.305791 0.138888
0.626581 0.308751 0.140871
0.645197 0.315343 0.144198
0.659052 0.319097 0.147768
0.674189 0.326940 0.156222
0.058045 0.151186 0.061463
0.102174 0.170535 0.065705
0.144015 0.184878 0.068421
0.206271 0.204318 0.075563
0.262699 0.223758 0.082094
0.329229 0.247807 0.093294
0.391409 0.272190 0.105928
0.459800 0.301259 0.119966
0.522835 0.332692 0.136690
0.581018 0.368658 0.160678
0.619959 0.389502 0.175906
0.643214 0.395300 0.179934
0.660822 0.394537 0.179690
0.675013 0.388098 0.177371
0.687251 0.382116 0.175631
0.698329 0.380499 0.176059
0.709834 0.381903 0.179599
0.081331 0.213535 0.079957
0.141939 0.238529 0.086885
0.199710 0.260075 0.093324
0.257038 0.280156 0.101900
0.316121 0.299992 0.110201
0.378103 0.322667 0.119936
0.434043 0.345144 0.134157
0.498253 0.376822 0.155062
0.567391 0.418662 0.181369
0.627588 0.456764 0.206210
0.672267 0.481880 0.224430
0.698207 0.486885 0.231144
0.712001 0.479011 0.228489
0.722866 0.468025 0.222751
0.729488 0.454139 0.214755
0.734829 0.442725 0.209384
0.743801 0.439796 0.208499
0.116060 0.281834 0.107729
0.187625 0.309850 0.116396
0.263752 0.337972 0.126040
0.323812 0.358846 0.134707
0.376944 0.377432 0.144930
0.431662 0.397726 0.155489
0.478355 0.417777 0.167086
0.539010 0.446189 0.186587
0.598398 0.478630 0.209934
0.660090 0.513970 0.239200
0.708461 0.538781 0.261204
0.739437 0.549004 0.270878
0.754055 0.542443 0.268772
0.764614 0.533501 0.263890
0.768795 0.517540 0.254093
0.772671 0.505577 0.247837
0.778317 0.498512 0.243320
0.165896 0.352422 0.139284
0.240650 0.379446 0.147372
0.335958 0.413809 0.161746
0.399435 0.436423 0.173190
0.450217 0.454215 0.184421
0.492180 0.469841 0.194430
0.534920 0.487694 0.204837
0.575662 0.506111 0.220371
0.634073 0.536049 0.244724
0.692103 0.565972 0.270604
0.739834 0.588525 0.292638
0.771359 0.597070 0.302281
0.790158 0.595789 0.303105
0.801480 0.588525 0.299321
0.806851 0.577142 0.292241
0.809079 0.565911 0.285130
0.813077 0.560204 0.281163
0.234974 0.419455 0.171115
0.317098 0.447562 0.180545
0.407126 0.480308 0.195712
0.470665 0.503151 0.209812
0.520302 0.521340 0.221561
0.558816 0.536324 0.232547
0.591257 0.550164 0.242771
0.628641 0.567285 0.258671
0.662760 0.581628 0.271489
0.721218 0.606836 0.294774
0.764187 0.622919 0.313176
0.794583 0.630365 0.323308
0.815030 0.631189 0.326390
0.829465 0.630274 0.326940
0.836118 0.622889 0.321843
0.839048 0.614404 0.315160
0.842252 0.609400 0.311315
0.310536 0.482551 0.202090
0.391394 0.510552 0.215000
0.479316 0.542077 0.230228
0.537346 0.562127 0.244450
0.581720 0.577722 0.255833
0.618647 0.591943 0.266606
0.647578 0.603784 0.277165
0.676936 0.616510 0.289799
0.711635 0.629999 0.303899
0.745922 0.643091 0.317693
0.790799 0.657740 0.334203
0.817716 0.663996 0.343420
0.837064 0.665553 0.347967
0.852598 0.665919 0.350134
0.861021 0.661921 0.347478
0.863981 0.656001 0.341680
0.865782 0.650324 0.337530
0.394965 0.540551 0.230808
0.471412 0.567620 0.246342
0.542290 0.592828 0.261540
0.595666 0.610712 0.274815
0.632898 0.623255 0.284825
0.662837 0.633112 0.292943
0.691463 0.644221 0.303410
0.719692 0.655329 0.314549
0.748318 0.665827 0.327031
0.782071 0.677699 0.340276
0.815518 0.688563 0.352392
0.841398 0.694545 0.361486
0.856291 0.695949 0.366186
0.869383 0.697749 0.370214
0.878904 0.697505 0.370611
0.885161 0.692775 0.365423
0.885679 0.686458 0.360906
0.457893 0.585382 0.254734
0.524163 0.608911 0.269566
0.588434 0.631220 0.284123
0.639338 0.648035 0.296391
0.672358 0.658198 0.306310
0.701900 0.667597 0.315831
0.726864 0.675441 0.325017
0.754879 0.685450 0.335729
0.780850 0.694453 0.346410
0.806394 0.703487 0.357031
0.837247 0.713527 0.368444
0.856657 0.719875 0.376196
0.871916 0.722683 0.381964
0.885039 0.726162 0.386938
0.892454 0.725978 0.387915
0.897368 0.724178 0.385626
0.898283 0.718196 0.381903
0.486458 0.613275 0.267613
0.547906 0.634882 0.282048
0.613397 0.656794 0.298253
0.667781 0.674769 0.312535
0.704707 0.685969 0.324041
0.736324 0.695583 0.335515
0.761166 0.703334 0.344945
0.784207 0.710231 0.354070
0.808835 0.718929 0.363928
0.829007 0.725216 0.371893
0.851225 0.732845 0.380713
0.870634 0.739620 0.388495
0.882322 0.744137 0.393439
0.893034 0.747280 0.397894
0.901305 0.750912 0.401679
0.907286 0.752224 0.402533
0.907958 0.747372 0.400305
0.508263 0.636744 0.278141
0.569940 0.657618 0.293309
0.637446 0.678492 0.311345
0.693812 0.696559 0.327611
0.731685 0.708125 0.339605
0.768368 0.718929 0.353307
0.792081 0.726467 0.363043
0.814298 0.733364 0.372229
0.833097 0.739437 0.379400
0.851530 0.745602 0.386816
0.867460 0.751308 0.392920
0.885161 0.757565 0.400244
0.892180 0.761013 0.403937
0.901335 0.764340 0.406531
0.907164 0.767330 0.409491
0.911223 0.769863 0.410864
0.913481 0.768826 0.411536
0.529229 0.658381 0.289281
0.596948 0.678187 0.306889
0.664881 0.698787 0.325414
0.720211 0.715846 0.342535
0.762356 0.728908 0.356085
0.798672 0.739651 0.369848
0.820493 0.746273 0.379553
0.840330 0.752438 0.388220
0.855497 0.757321 0.393713
0.869993 0.762173 0.399207
0.882292 0.766140 0.403143
0.893797 0.770596 0.408118
0.900511 0.774594 0.413306
0.906859 0.777798 0.414832
0.910582 0.780514 0.414984
0.914458 0.783566 0.416510
0.916045 0.783200 0.418372
0.555474 0.679530 0.302586
0.629725 0.699062 0.322454
0.699489 0.718410 0.342168
0.753506 0.734615 0.359136
0.792721 0.746944 0.372412
0.826352 0.757015 0.384771
0.845090 0.762722 0.393805
0.860929 0.767636 0.401312
0.873564 0.771481 0.405493
0.885222 0.775570 0.409064
0.895140 0.779416 0.411475
0.902068 0.782193 0.415137
0.907652 0.785336 0.419409
0.910765 0.787594 0.423346
0.914031 0.790402 0.423468
0.917174 0.794125 0.419928
0.918517 0.794003 0.422187
0.585290 0.697749 0.317113
0.662776 0.717037 0.338903
0.731411 0.735134 0.358892
0.785733 0.751064 0.376165
0.819272 0.762051 0.388037
0.843961 0.770108 0.397436
0.858152 0.774258 0.404181
0.872374 0.778256 0.410956
0.884153 0.781460 0.415656
0.893095 0.784817 0.418158
0.901549 0.788296 0.420294
0.906279 0.790921 0.422492
0.910277 0.792813 0.425757
0.913024 0.794736 0.429725
0.915465 0.796536 0.433326
0.918212 0.799649 0.431769
0.921050 0.803983 0.426093
0.034028 0.039063 0.041566
0.036194 0.039277 0.042237
0.056275 0.040711 0.041321
0.083192 0.043854 0.044739
0.120729 0.048249 0.048524
0.171450 0.054536 0.051179
0.237217 0.058778 0.053712
0.292515 0.060121 0.057374
0.343572 0.062318 0.059907
0.374426 0.063691 0.062440
0.399939 0.068940 0.064424
0.431403 0.081727 0.068818
0.462989 0.097841 0.074952
0.488319 0.111727 0.081544
0.511131 0.125612 0.088716
0.525750 0.134127 0.097627
0.535546 0.136263 0.109499
0.033295 0.042939 0.043153
0.040986 0.049531 0.049409
0.069245 0.053407 0.049439
0.111452 0.058198 0.048432
0.166171 0.063630 0.049226
0.232273 0.066743 0.049317
0.301762 0.069734 0.053376
0.350530 0.072816 0.057282
0.378882 0.069673 0.057557
0.400031 0.073610 0.060090
0.424201 0.083314 0.063844
0.459510 0.105226 0.071290
0.492500 0.127932 0.078248
0.517632 0.143648 0.083772
0.538323 0.154971 0.090883
0.553246 0.161807 0.102022
0.567071 0.169009 0.115785
0.035462 0.063905 0.045930
0.047974 0.078157 0.053254
0.099245 0.094331 0.057130
0.142916 0.098024 0.055848
0.205844 0.110353 0.059968
0.274601 0.122408 0.062989
0.342687 0.128054 0.066682
0.389654 0.129030 0.070619
0.425940 0.134493 0.074556
0.456245 0.141756 0.079713
0.483772 0.154726 0.085054
0.511406 0.167880 0.090394
0.538384 0.184604 0.096010
0.561975 0.200168 0.102022
0.583673 0.214115 0.109438
0.599359 0.222019 0.120638
0.612818 0.227939 0.133547
0.039551 0.097108 0.056794
0.060609 0.122286 0.061067
0.113588 0.140108 0.064973
0.185946 0.160555 0.070863
0.248600 0.172061 0.074830
0.317067 0.181765 0.078523
0.392996 0.203464 0.087617
0.446906 0.216953 0.096193
0.491005 0.225681 0.102510
0.522545 0.232792 0.107851
0.547875 0.238926 0.113283
0.571649 0.250309 0.118807
0.589868 0.255528 0.120150
0.611444 0.268345 0.125612
0.629480 0.276097 0.130831
0.645472 0.284459 0.140566
0.659907 0.291783 0.152895
0.046845 0.140200 0.069673
0.084504 0.187564 0.078859
0.151339 0.213413 0.084871
0.226200 0.232395 0.090852
0.302358 0.258671 0.101747
0.370443 0.278157 0.110658
0.452750 0.307073 0.123476
0.506050 0.319356 0.131228
0.555734 0.338216 0.146181
0.595361 0.354772 0.159762
0.623194 0.362982 0.167117
0.637324 0.356329 0.162783
0.650080 0.350500 0.160494
0.662470 0.346349 0.158999
0.675196 0.345037 0.159609
0.688350 0.348333 0.166018
0.699397 0.351080 0.173220
0.063935 0.199069 0.086519
0.117220 0.260410 0.103182
0.208194 0.294606 0.113497
0.283101 0.318013 0.120302
0.355886 0.341451 0.131380
0.425803 0.368643 0.144686
0.500191 0.397879 0.162936
0.557961 0.418021 0.178134
0.613352 0.442557 0.196170
0.654047 0.459205 0.209934
0.686946 0.466957 0.219913
0.699916 0.456367 0.216587
0.704799 0.439094 0.207004
0.713466 0.428290 0.201724
0.719265 0.417212 0.195621
0.728969 0.413947 0.195956
0.738918 0.413794 0.199374
0.096803 0.268559 0.108095
0.160159 0.343511 0.135286
0.273182 0.384268 0.149020
0.369497 0.417929 0.161837
0.437125 0.440818 0.175387
0.495293 0.462821 0.190249
0.550301 0.489006 0.209201
0.603769 0.503395 0.222507
0.658701 0.521126 0.240604
0.705165 0.539635 0.258915
0.741146 0.551598 0.271977
0.758450 0.547021 0.271763
0.761288 0.528161 0.260899
0.762631 0.509178 0.249516
0.764248 0.492836 0.239414
0.767910 0.482155 0.233768
0.775876 0.477882 0.231632
0.143648 0.339239 0.137057
0.221241 0.411368 0.166293
0.338643 0.452720 0.182620
0.436515 0.486992 0.198886
0.501076 0.508217 0.212833
0.549020 0.525154 0.225071
0.598428 0.546273 0.241337
0.642161 0.565835 0.259709
0.695567 0.581170 0.276890
0.738918 0.593622 0.291905
0.776822 0.604273 0.305699
0.795071 0.600702 0.306981
0.802518 0.589654 0.300084
0.803555 0.571344 0.288762
0.804410 0.558679 0.280034
0.805203 0.547021 0.272557
0.812100 0.542718 0.270054
0.203891 0.405936 0.165560
0.302480 0.476036 0.198123
0.409689 0.513649 0.214176
0.499931 0.545480 0.232822
0.561898 0.566583 0.248203
0.605173 0.582086 0.260319
0.646220 0.597864 0.273777
0.686381 0.615686 0.290654
0.730724 0.631128 0.307836
0.774105 0.641505 0.321904
0.809354 0.649378 0.333989
0.827146 0.647913 0.337285
0.836240 0.641566 0.334081
0.839323 0.629938 0.325872
0.840574 0.618067 0.317418
0.841489 0.608331 0.310185
0.844419 0.603387 0.308476
0.259495 0.467933 0.192081
0.381262 0.532830 0.228305
0.478309 0.566827 0.244846
0.558923 0.595605 0.263218
0.612238 0.612543 0.277134
0.653132 0.626886 0.288548
0.691188 0.640497 0.302220
0.722530 0.652674 0.314763
0.765530 0.667018 0.331182
0.800076 0.678737 0.344488
0.833280 0.685298 0.355657
0.851072 0.685237 0.359686
0.861082 0.680537 0.358831
0.865385 0.672023 0.353521
0.867765 0.663691 0.346929
0.867796 0.654688 0.339879
0.869749 0.649531 0.338048
0.324437 0.522393 0.218448
0.447364 0.580041 0.252171
0.527642 0.608087 0.269474
0.603418 0.634607 0.286473
0.656855 0.651576 0.301762
0.693843 0.663630 0.313115
0.729915 0.676234 0.326696
0.761715 0.687617 0.338933
0.797116 0.700038 0.353002
0.826078 0.709346 0.364385
0.856199 0.718685 0.375586
0.871305 0.718013 0.379248
0.879454 0.716213 0.380713
0.884337 0.710079 0.377783
0.888731 0.704738 0.373693
0.889799 0.695186 0.365728
0.888029 0.688289 0.363592
0.362737 0.561486 0.241245
0.488289 0.614343 0.269017
0.564813 0.640558 0.286503
0.635126 0.664332 0.303502
0.691066 0.682277 0.320195
0.729854 0.694606 0.333654
0.763088 0.704799 0.346319
0.792050 0.713832 0.357549
0.821256 0.723262 0.369055
0.845029 0.732021 0.378943
0.868254 0.739528 0.388067
0.885710 0.744686 0.394873
0.894041 0.744137 0.397253
0.897642 0.741024 0.396185
0.901396 0.738094 0.394354
0.903258 0.731929 0.389319
0.902007 0.722438 0.386053
0.383978 0.588922 0.256657
0.506676 0.636622 0.277256
0.581750 0.661341 0.296056
0.654749 0.684993 0.315648
0.715114 0.704158 0.334203
0.757351 0.716793 0.349676
0.791562 0.727169 0.363012
0.815000 0.734005 0.372473
0.838956 0.741451 0.381903
0.858640 0.747921 0.389868
0.877012 0.755154 0.397833
0.894224 0.760708 0.404578
0.901061 0.763973 0.407446
0.905669 0.763729 0.408148
0.910430 0.764675 0.409155
0.911986 0.759701 0.406012
0.911192 0.752407 0.404791
0.404028 0.612573 0.269993
0.529839 0.658198 0.287602
0.605646 0.681483 0.307622
0.683314 0.704524 0.330724
0.742855 0.723232 0.349676
0.785702 0.735805 0.365301
0.816678 0.745296 0.377966
0.838956 0.752041 0.387243
0.855924 0.757168 0.393652
0.873167 0.762844 0.400610
0.886229 0.767788 0.405554
0.899290 0.773342 0.412055
0.905791 0.776669 0.415930
0.910307 0.779995 0.414832
0.913695 0.780636 0.415442
0.915343 0.779416 0.415656
0.917174 0.776883 0.419043
0.445167 0.639490 0.287510
0.556390 0.677974 0.301488
0.635187 0.700740 0.322972
0.713619 0.722225 0.346380
0.768124 0.739101 0.364569
0.809140 0.751247 0.379736
0.835477 0.759640 0.391089
0.855497 0.765652 0.399542
0.872007 0.770596 0.405554
0.884611 0.775143 0.409522
0.896666 0.779690 0.413611
0.903899 0.783261 0.418036
0.910246 0.787137 0.423438
0.913359 0.790219 0.422309
0.916716 0.793301 0.420386
0.918212 0.792569 0.420996
0.918914 0.789975 0.425910
0.495338 0.666621 0.305608
0.581262 0.695094 0.316472
0.661097 0.715663 0.337896
0.736629 0.736110 0.360113
0.788602 0.751949 0.377569
0.824857 0.763302 0.391211
0.849485 0.771359 0.402319
0.867216 0.776577 0.410315
0.883207 0.781186 0.415930
0.894072 0.785336 0.419013
0.903624 0.789303 0.421302
0.908232 0.791775 0.424048
0.912444 0.794308 0.427924
0.915068 0.796475 0.432715
0.917876 0.799771 0.430213
0.920714 0.803616 0.424872
0.921019 0.801266 0.430793
0.548241 0.690669 0.323888
0.600977 0.707424 0.331151
0.675807 0.726009 0.350591
0.744747 0.744167 0.369940
0.796384 0.759854 0.387213
0.828305 0.769894 0.399634
0.850950 0.777432 0.410071
0.868101 0.782376 0.418006
0.882506 0.786496 0.424384
0.893339 0.790402 0.428595
0.901976 0.794400 0.431617
0.908049 0.798093 0.434180
0.912016 0.799832 0.436530
0.915068 0.801633 0.440131
0.917754 0.803281 0.443641
0.920439 0.806638 0.440589
0.923064 0.810941 0.435340
0.031006 0.036927 0.046845
0.032807 0.037079 0.047669
0.047181 0.039673 0.052979
0.072786 0.042420 0.054170
0.106691 0.046540 0.057099
0.150423 0.052094 0.061372
0.209384 0.057527 0.065339
0.271366 0.060487 0.067506
0.323766 0.062867 0.070222
0.368780 0.065583 0.073701
0.401099 0.069062 0.075868
0.432166 0.076204 0.077729
0.461158 0.088350 0.082246
0.484138 0.098787 0.087892
0.498268 0.106386 0.096223
0.508019 0.111086 0.106813
0.518761 0.112642 0.119173
0.030365 0.040528 0.049287
0.040101 0.047486 0.056550
0.058595 0.050813 0.063691
0.098940 0.055604 0.061219
0.145144 0.060212 0.061799
0.204379 0.064149 0.063783
0.272190 0.068757 0.066743
0.328374 0.073243 0.068116
0.363928 0.070558 0.069306
0.400854 0.072816 0.070008
0.427924 0.079255 0.073030
0.461891 0.096345 0.077546
0.490486 0.113252 0.083101
0.507744 0.122286 0.089784
0.519707 0.127810 0.098848
0.533227 0.133577 0.110536
0.547845 0.140108 0.124880
0.030030 0.057099 0.061677
0.040009 0.068299 0.073121
0.070863 0.077272 0.073518
0.118563 0.082582 0.073732
0.176974 0.087922 0.070497
0.244907 0.092378 0.069490
0.313054 0.094972 0.069276
0.374853 0.097414 0.072236
0.407507 0.097627 0.073060
0.433875 0.098329 0.072663
0.462318 0.112245 0.077211
0.493111 0.129610 0.082002
0.520317 0.146395 0.088197
0.537804 0.155520 0.093568
0.551080 0.161135 0.101411
0.565759 0.168460 0.114748
0.588281 0.184970 0.137606
0.032685 0.089418 0.070253
0.051240 0.111574 0.078676
0.086458 0.124636 0.081758
0.163485 0.145174 0.087556
0.224460 0.151064 0.084993
0.300053 0.165255 0.089326
0.372396 0.178958 0.092714
0.436469 0.187411 0.097536
0.473915 0.186435 0.098909
0.504356 0.191562 0.100740
0.525353 0.192477 0.101747
0.551873 0.206607 0.106081
0.570275 0.212039 0.109102
0.586511 0.219516 0.114199
0.602380 0.228611 0.122927
0.616999 0.235935 0.134493
0.638758 0.251621 0.156893
0.039124 0.131716 0.082094
0.066743 0.172366 0.094606
0.114534 0.194003 0.097261
0.197238 0.217350 0.103487
0.282200 0.241154 0.111299
0.359762 0.255497 0.115145
0.434440 0.269825 0.119905
0.501900 0.288304 0.130007
0.546944 0.298985 0.138155
0.581628 0.304112 0.140383
0.603021 0.303960 0.140963
0.614160 0.292454 0.136568
0.628290 0.293156 0.138247
0.641627 0.295293 0.140383
0.656916 0.303349 0.148836
0.669795 0.307591 0.157687
0.686915 0.319860 0.179049
0.049805 0.186252 0.099306
0.088228 0.241764 0.111818
0.155337 0.279759 0.119814
0.252049 0.313420 0.130190
0.337667 0.334676 0.139498
0.421042 0.364248 0.154116
0.492546 0.380911 0.162417
0.569406 0.408988 0.180392
0.619669 0.425391 0.192935
0.655299 0.428473 0.198032
0.674067 0.421225 0.196902
0.683955 0.406973 0.191226
0.688228 0.388556 0.182315
0.696681 0.381598 0.179232
0.705745 0.378058 0.179538
0.716274 0.377935 0.183566
0.731929 0.387366 0.202060
0.075074 0.254246 0.118288
0.123171 0.324712 0.138064
0.207370 0.363241 0.148318
0.324056 0.405447 0.165011
0.407218 0.429984 0.175692
0.479667 0.452506 0.188907
0.549172 0.480797 0.207248
0.619181 0.500343 0.224491
0.674723 0.516274 0.241825
0.716854 0.526452 0.252201
0.737179 0.521187 0.252628
0.746242 0.506798 0.245701
0.747372 0.483726 0.234592
0.748165 0.465156 0.222934
0.754391 0.456428 0.219577
0.760616 0.451057 0.218265
0.774472 0.458839 0.233829
0.109957 0.326726 0.139223
0.177646 0.396551 0.162020
0.276844 0.443961 0.179843
0.397757 0.488273 0.200565
0.495201 0.522271 0.218296
0.556161 0.540917 0.232914
0.612741 0.559167 0.249302
0.669688 0.581781 0.270268
0.721416 0.592645 0.285893
0.762509 0.597925 0.296330
0.788144 0.598413 0.301305
0.801297 0.589471 0.297612
0.803891 0.572686 0.288945
0.801968 0.553552 0.276738
0.801785 0.538720 0.267124
0.805570 0.529778 0.262394
0.815946 0.531212 0.269627
0.162356 0.393149 0.164034
0.253117 0.461097 0.190555
0.361318 0.512627 0.215854
0.469108 0.551064 0.237400
0.557534 0.581170 0.255344
0.610941 0.596765 0.268498
0.659342 0.612421 0.283268
0.710826 0.630762 0.301274
0.759503 0.646113 0.319097
0.799039 0.649439 0.328588
0.821744 0.647883 0.332738
0.835874 0.644190 0.333135
0.842222 0.634119 0.328557
0.841398 0.618952 0.317845
0.840330 0.603800 0.307622
0.841550 0.596490 0.304631
0.847379 0.595254 0.309178
0.214252 0.455207 0.188663
0.312459 0.514549 0.218906
0.429694 0.566461 0.245884
0.527123 0.601007 0.266026
0.607324 0.626978 0.283635
0.659632 0.642756 0.298100
0.701900 0.656306 0.312230
0.745907 0.671138 0.327520
0.791165 0.685725 0.344396
0.829374 0.697597 0.358740
0.851499 0.697047 0.363928
0.865232 0.693629 0.365057
0.873564 0.687282 0.362737
0.873167 0.675776 0.355016
0.871977 0.663020 0.346593
0.873045 0.656123 0.343786
0.877195 0.655695 0.349523
0.253056 0.504295 0.217319
0.340642 0.553429 0.242130
0.474922 0.605524 0.266636
0.565820 0.636835 0.286198
0.645624 0.662409 0.305180
0.699214 0.677607 0.321599
0.738369 0.689570 0.334966
0.778286 0.701473 0.349004
0.812253 0.712459 0.361822
0.846220 0.723568 0.375036
0.871183 0.731655 0.384985
0.883421 0.728573 0.386603
0.891112 0.726955 0.387427
0.894072 0.718624 0.382483
0.893919 0.708125 0.376135
0.892607 0.698207 0.372778
0.893034 0.695491 0.379309
0.268467 0.537957 0.242191
0.358404 0.582727 0.260685
0.502953 0.632807 0.278630
0.590478 0.660945 0.300084
0.671443 0.686793 0.319829
0.731472 0.704768 0.339666
0.770077 0.716152 0.353796
0.807034 0.726741 0.366949
0.833341 0.735164 0.377325
0.859983 0.745022 0.388434
0.880217 0.752621 0.397345
0.898192 0.758907 0.404974
0.903807 0.757229 0.405524
0.906157 0.753475 0.403723
0.906645 0.744411 0.399145
0.907286 0.737514 0.397772
0.905821 0.729488 0.402808
0.275029 0.561669 0.258061
0.374884 0.605524 0.272709
0.525170 0.655482 0.287114
0.616754 0.683253 0.311803
0.697963 0.708186 0.334783
0.761349 0.727626 0.356176
0.801694 0.739925 0.371405
0.833280 0.749264 0.384100
0.854093 0.755520 0.392370
0.874632 0.762295 0.400854
0.889708 0.768551 0.408209
0.903044 0.774166 0.414130
0.909850 0.777707 0.416510
0.913146 0.776699 0.416449
0.914336 0.772488 0.415412
0.914794 0.765927 0.415808
0.913115 0.758328 0.422553
0.307225 0.589136 0.275395
0.420142 0.633051 0.286412
0.555261 0.677607 0.299168
0.650629 0.704280 0.327855
0.732723 0.728084 0.352575
0.790951 0.745937 0.372259
0.824735 0.756069 0.385657
0.852384 0.764462 0.397375
0.868833 0.769223 0.403662
0.885374 0.774990 0.410407
0.897154 0.779660 0.415625
0.906065 0.784360 0.422126
0.912505 0.787961 0.425452
0.916228 0.791653 0.422919
0.917784 0.789761 0.423285
0.918486 0.787015 0.427070
0.918120 0.781430 0.437903
0.352361 0.617212 0.292668
0.464790 0.657649 0.303746
0.581994 0.694789 0.314977
0.674952 0.719539 0.342290
0.753841 0.741238 0.366308
0.807309 0.757839 0.384894
0.837522 0.767483 0.397375
0.862303 0.774838 0.408148
0.878782 0.779507 0.414435
0.891844 0.784268 0.419776
0.902373 0.788785 0.423774
0.908598 0.792538 0.428595
0.913725 0.795712 0.433906
0.917266 0.798795 0.432685
0.920134 0.802731 0.428443
0.920165 0.800046 0.433906
0.918944 0.796323 0.448615
0.422400 0.650294 0.314122
0.522515 0.683406 0.326268
0.597070 0.705318 0.330541
0.686213 0.728450 0.355779
0.755764 0.747372 0.374914
0.805661 0.762631 0.392615
0.836332 0.772366 0.405341
0.860288 0.779538 0.416724
0.878141 0.784726 0.423774
0.892851 0.790127 0.429877
0.902312 0.795102 0.434485
0.908721 0.798764 0.437568
0.913756 0.801358 0.440925
0.916838 0.803555 0.445533
0.919860 0.806973 0.442725
0.922393 0.810819 0.437934
0.920623 0.806973 0.453498
0.488777 0.678523 0.338323
0.550103 0.698451 0.347601
0.605890 0.713008 0.347814
0.680049 0.731716 0.365057
0.748104 0.750179 0.383185
0.796719 0.764523 0.399481
0.827329 0.774044 0.412207
0.852171 0.781338 0.423926
0.870665 0.787198 0.433265
0.886931 0.792874 0.440620
0.896971 0.798856 0.447913
0.904326 0.803433 0.452247
0.909880 0.806332 0.456367
0.914031 0.808286 0.459327
0.917906 0.809628 0.461006
0.920195 0.812711 0.460243
0.922362 0.816526 0.457679
0.029969 0.036530 0.052552
0.032898 0.037018 0.055055
0.042664 0.038911 0.059876
0.065309 0.042329 0.065064
0.094728 0.045930 0.068910
0.133944 0.050263 0.071107
0.186557 0.056062 0.075654
0.245518 0.060243 0.081636
0.304784 0.065370 0.088289
0.354101 0.068940 0.092897
0.394080 0.073365 0.094301
0.425086 0.079225 0.096590
0.450599 0.086061 0.099977
0.471809 0.092836 0.104128
