assets/luts/impulz-fujicolor-200-fpe-rec709-3d521ee8.cube
# (C) 2014 VisionColor & Patchflyer [www.vision-color.com]
# Generator: VC Patchmatch v.2.1.1 [64/53]
# All work and no play makes Jack a dull boy.
# LUT generated from: FujiColor 200_FPE
LUT_3D_SIZE 9
0.037293 0.045075 0.047242
0.144717 0.085023 0.048829
0.275547 0.123323 0.042329
0.368475 0.147066 0.047333
0.433722 0.162905 0.048920
0.476173 0.172671 0.050202
0.517266 0.184909 0.052552
0.550958 0.193759 0.054475
0.584802 0.209781 0.057221
0.050507 0.106538 0.100465
0.151125 0.136690 0.065492
0.304295 0.181582 0.046387
0.421118 0.214328 0.052918
0.507744 0.242008 0.057404
0.567224 0.260746 0.060334
0.615595 0.280827 0.066438
0.654383 0.298100 0.071138
0.684688 0.314275 0.076600
0.101076 0.197086 0.167117
0.219547 0.233097 0.098817
0.346563 0.256779 0.064057
0.471138 0.294560 0.069001
0.565606 0.326757 0.074556
0.639338 0.354559 0.083986
0.690822 0.375463 0.092622
0.728542 0.395605 0.104158
0.757504 0.411536 0.109407
0.145541 0.284825 0.225772
0.305333 0.334264 0.147280
0.453666 0.370062 0.110140
0.528618 0.377997 0.096864
0.620417 0.406256 0.105196
0.691920 0.433051 0.121950
0.744717 0.455329 0.136965
0.778500 0.474037 0.152193
0.801175 0.488502 0.163210
0.171267 0.362554 0.278111
0.374914 0.421912 0.194644
0.528679 0.456733 0.161318
0.618952 0.473396 0.151431
0.670283 0.477577 0.146304
0.735653 0.499336 0.164401
0.782254 0.519493 0.188693
0.811124 0.536522 0.209628
0.832151 0.550439 0.221714
0.182681 0.418677 0.323766
0.419562 0.481483 0.243992
0.574731 0.515984 0.212528
0.669459 0.534478 0.204135
0.728756 0.543450 0.203586
0.765866 0.553765 0.220493
0.808865 0.570275 0.243168
0.832914 0.586603 0.271305
0.851774 0.601740 0.288273
0.181125 0.462715 0.366247
0.437720 0.527153 0.284916
0.600153 0.561120 0.254795
0.704677 0.582269 0.251164
0.765194 0.595056 0.262791
0.805844 0.607874 0.283757
0.830564 0.620447 0.309880
0.852842 0.635737 0.339391
0.867033 0.647486 0.359503
0.177554 0.496101 0.404578
0.435981 0.559503 0.331243
0.613886 0.594659 0.292424
0.725338 0.617243 0.289891
0.786007 0.632074 0.308934
0.828244 0.650843 0.347692
0.852384 0.666499 0.382452
0.864500 0.679744 0.417456
0.875914 0.693172 0.445441
0.167697 0.523400 0.443305
0.413672 0.586969 0.378302
0.601678 0.620874 0.337835
0.725643 0.642359 0.320317
0.790982 0.658442 0.339757
0.836454 0.676966 0.380529
0.862425 0.701961 0.445472
0.874205 0.720027 0.497200
0.877684 0.732509 0.533288
0.031586 0.055177 0.084535
0.108034 0.089235 0.129885
0.245884 0.132448 0.145541
0.345251 0.152926 0.142489
0.410407 0.161349 0.133486
0.454353 0.164340 0.127626
0.489693 0.167208 0.120424
0.521721 0.164553 0.114809
0.552087 0.171206 0.110445
0.045808 0.123690 0.153323
0.138308 0.149660 0.149966
0.301671 0.195254 0.147585
0.417060 0.219547 0.137881
0.495033 0.228916 0.128939
0.551141 0.240543 0.121187
0.598230 0.246769 0.121798
0.634852 0.258885 0.117189
0.664088 0.271336 0.119173
0.074769 0.211002 0.225528
0.176333 0.231479 0.206485
0.331823 0.273411 0.166110
0.465705 0.308354 0.161776
0.560204 0.335424 0.162600
0.630426 0.350103 0.157046
0.678706 0.362432 0.159396
0.722194 0.377661 0.156069
0.745327 0.384771 0.153292
0.110811 0.293400 0.288640
0.218296 0.322362 0.264530
0.396551 0.371374 0.218173
0.513664 0.393774 0.189853
0.607111 0.418677 0.197940
0.678248 0.436805 0.203372
0.732815 0.451331 0.207218
0.771176 0.466499 0.209445
0.799252 0.475563 0.201602
0.133608 0.362463 0.340642
0.250278 0.403357 0.315831
0.441688 0.451362 0.272282
0.574578 0.481971 0.248875
0.652125 0.492409 0.231510
0.712917 0.507317 0.248844
0.772457 0.527153 0.261387
0.808011 0.541436 0.266636
0.830533 0.551598 0.273350
0.146212 0.413489 0.383734
0.262333 0.460670 0.357458
0.476234 0.509361 0.313420
0.614862 0.543297 0.304417
0.705318 0.563317 0.300908
0.752987 0.570245 0.301335
0.799924 0.583154 0.318791
0.830564 0.599481 0.336217
0.853239 0.610162 0.341680
0.148470 0.454902 0.421241
0.264042 0.508202 0.393469
0.484260 0.556725 0.357824
0.638941 0.591852 0.346777
0.735470 0.614618 0.359808
0.786862 0.628229 0.370977
0.823392 0.639094 0.383154
0.850340 0.652827 0.400946
0.866087 0.664179 0.418006
0.145602 0.483650 0.452461
0.256535 0.543481 0.431281
0.492958 0.594812 0.399695
0.656489 0.630793 0.390906
0.752346 0.652949 0.400519
0.805661 0.670680 0.430823
0.843503 0.684260 0.450050
0.858854 0.698238 0.480842
0.875212 0.712764 0.502190
0.142733 0.509667 0.484382
0.248966 0.575677 0.473762
0.484596 0.627131 0.442054
0.657465 0.664271 0.437110
0.753841 0.685664 0.442420
0.818631 0.703670 0.464759
0.850828 0.720607 0.507042
0.868833 0.739620 0.557336
0.874327 0.751156 0.587060
0.032349 0.071015 0.126406
0.057343 0.091066 0.161929
0.196109 0.134707 0.209842
0.315831 0.160281 0.226810
0.396002 0.174350 0.229831
0.447303 0.180697 0.226780
0.485206 0.180026 0.221927
0.518181 0.175357 0.215396
0.548089 0.166690 0.201114
0.040467 0.138796 0.191653
0.096864 0.151186 0.185000
0.221530 0.190066 0.237491
0.361120 0.217441 0.239994
0.452491 0.229587 0.233310
0.519188 0.235630 0.226139
0.563531 0.235904 0.215427
0.603418 0.232456 0.203525
0.633722 0.232883 0.187839
0.064698 0.231510 0.282200
0.146456 0.244846 0.267582
0.267460 0.262028 0.262486
0.422980 0.297246 0.264195
0.529381 0.315282 0.257328
0.603723 0.327794 0.252537
0.657221 0.335729 0.246860
0.698634 0.336889 0.233921
0.725216 0.342626 0.220645
0.087495 0.307073 0.342870
0.178164 0.328954 0.328252
0.311009 0.349737 0.321599
0.454383 0.387243 0.296788
0.569299 0.414588 0.300389
0.656428 0.432013 0.297856
0.715084 0.443397 0.293095
0.759884 0.447181 0.277684
0.785031 0.449226 0.261967
0.104372 0.368078 0.392401
0.206180 0.401617 0.376104
0.340826 0.429786 0.370703
0.491005 0.467323 0.353826
0.596918 0.492012 0.343542
0.682673 0.508934 0.346227
0.752865 0.526390 0.348150
0.798032 0.536492 0.340154
0.823972 0.538323 0.324285
0.118685 0.412268 0.428870
0.218021 0.453040 0.414923
0.356268 0.493233 0.408881
0.523247 0.532708 0.394263
0.635523 0.562829 0.396246
0.709102 0.577173 0.397467
0.773159 0.591485 0.407965
0.824430 0.610773 0.409216
0.846372 0.615564 0.406287
0.122103 0.449653 0.462287
0.219852 0.497566 0.447364
0.366125 0.545647 0.444160
0.534447 0.584863 0.437598
0.668177 0.620630 0.445655
0.744442 0.639979 0.459449
0.794675 0.652125 0.469612
0.839139 0.668666 0.477668
0.862577 0.682033 0.488289
0.124788 0.476967 0.488106
0.214328 0.527214 0.477363
0.366491 0.589593 0.480293
0.554162 0.632685 0.478798
0.689754 0.668727 0.488655
0.769863 0.690028 0.508659
0.823819 0.708553 0.531090
0.852964 0.720943 0.549493
0.869841 0.732723 0.566033
0.122377 0.502068 0.517876
0.208316 0.557610 0.514519
0.359716 0.624720 0.525841
0.553460 0.667353 0.519738
0.695125 0.703395 0.532036
0.779507 0.725429 0.547448
0.836728 0.746792 0.583673
0.862913 0.762631 0.622614
0.871092 0.770687 0.644465
0.034730 0.093202 0.159945
0.043183 0.099245 0.182803
0.155612 0.134401 0.232975
0.268894 0.163149 0.266697
0.362280 0.179965 0.279484
0.424414 0.189853 0.284245
0.470192 0.195499 0.288457
0.506584 0.192172 0.286748
0.543938 0.182376 0.278538
0.045106 0.160769 0.229313
0.079713 0.163638 0.215885
0.161288 0.181369 0.258091
0.297704 0.214206 0.299596
0.404273 0.234653 0.305058
0.476905 0.245914 0.306432
0.535882 0.249180 0.307378
0.579309 0.240909 0.295964
0.618524 0.230503 0.279240
0.061341 0.236728 0.304204
0.118074 0.247623 0.293889
0.206668 0.257420 0.298161
0.340764 0.286381 0.337835
0.463355 0.307805 0.336736
0.553216 0.323003 0.333776
0.615991 0.325780 0.325872
0.662837 0.320623 0.306737
0.697200 0.314153 0.286931
0.079438 0.317601 0.378943
0.149386 0.335027 0.371893
0.270756 0.354040 0.368200
0.396277 0.375219 0.377966
0.520470 0.398108 0.374823
0.613336 0.414527 0.372900
0.678218 0.425696 0.368170
0.727962 0.427802 0.354589
0.759304 0.418982 0.327184
0.088746 0.371130 0.425361
0.172793 0.403204 0.419959
0.303105 0.428656 0.414313
0.428412 0.453162 0.423346
0.538506 0.481910 0.422797
0.636957 0.499001 0.420935
0.720027 0.517601 0.419257
0.773587 0.526604 0.407202
0.805905 0.519677 0.379126
0.100587 0.412634 0.459571
0.184939 0.449744 0.454353
0.324346 0.489021 0.453651
0.452735 0.519280 0.460914
0.562280 0.547692 0.461341
0.653284 0.570703 0.471504
0.736996 0.589166 0.470527
0.803159 0.606867 0.468330
0.837308 0.612787 0.455909
0.105196 0.445411 0.488533
0.184360 0.490486 0.486397
0.331914 0.537072 0.484382
0.465522 0.576379 0.496529
0.595483 0.610529 0.505028
0.692805 0.638849 0.518395
0.756252 0.656092 0.535973
0.821103 0.676509 0.540795
0.855711 0.690303 0.542870
0.109804 0.472114 0.513787
0.183688 0.518242 0.513420
0.315404 0.575097 0.518456
0.476051 0.631495 0.537682
0.606744 0.664393 0.548150
0.723873 0.698665 0.566735
0.795743 0.721981 0.593256
0.837003 0.736599 0.615625
0.865354 0.751064 0.628290
0.112978 0.499886 0.542443
0.174166 0.545373 0.545342
0.312932 0.608911 0.558801
0.474800 0.671260 0.584375
0.622126 0.707210 0.594141
0.741085 0.739132 0.614679
0.813748 0.763577 0.644373
0.857786 0.785122 0.684291
0.869383 0.790707 0.701228
0.035554 0.108248 0.186984
0.037873 0.107607 0.199435
0.107118 0.132082 0.244480
0.235142 0.162814 0.285710
0.325933 0.182345 0.309758
0.394141 0.193881 0.319402
0.445716 0.203006 0.326665
0.490578 0.205234 0.329290
0.535393 0.197299 0.324315
0.042420 0.172549 0.257145
0.068086 0.171878 0.240146
0.120882 0.179049 0.270451
0.243900 0.209751 0.317174
0.355840 0.233188 0.343725
0.431983 0.247440 0.349340
0.493141 0.257786 0.355138
0.550561 0.252201 0.353643
0.602441 0.238895 0.338842
0.055360 0.245212 0.328710
0.099947 0.255344 0.319066
0.158694 0.254215 0.320958
0.266178 0.272221 0.354986
0.398230 0.300755 0.385718
0.494057 0.319036 0.392401
0.566430 0.328954 0.395636
0.629480 0.322087 0.383490
0.673671 0.307561 0.362615
0.069337 0.313054 0.389532
0.126406 0.331182 0.385565
0.220127 0.348455 0.388922
0.321569 0.362310 0.401312
0.449561 0.386877 0.429267
0.550195 0.402747 0.428016
0.631586 0.413184 0.423835
0.694697 0.409186 0.409003
0.733761 0.394934 0.383551
0.080385 0.370275 0.442756
0.151614 0.402686 0.446571
0.272374 0.429297 0.447028
0.398901 0.453529 0.456062
0.503960 0.477394 0.471687
0.602441 0.491127 0.467994
0.684199 0.501640 0.465003
0.741634 0.506340 0.457710
0.778653 0.498146 0.431586
0.089265 0.409339 0.475807
0.158602 0.448218 0.481483
0.293217 0.488258 0.484810
0.423468 0.518151 0.492256
0.525811 0.542016 0.506462
0.618097 0.566094 0.516228
0.709255 0.580743 0.516503
0.781003 0.596094 0.514427
0.821103 0.604669 0.502159
0.095949 0.442054 0.503105
0.166445 0.486305 0.510674
0.300603 0.530999 0.516503
0.431312 0.568414 0.525475
0.543847 0.604181 0.540978
0.638621 0.630121 0.554437
0.730282 0.655726 0.573297
0.810941 0.676936 0.579461
0.847257 0.693446 0.586816
0.104280 0.470130 0.525383
0.166873 0.513664 0.535943
0.277501 0.566278 0.547662
0.434455 0.621088 0.562768
0.562432 0.666438 0.588617
0.668818 0.695674 0.607019
0.771969 0.730831 0.634607
0.836088 0.754116 0.665187
0.863340 0.765957 0.675258
0.109957 0.498573 0.551873
0.162783 0.542443 0.566186
0.264103 0.597375 0.583215
0.423743 0.658991 0.609277
0.573816 0.711360 0.640955
0.699580 0.743008 0.658686
0.796109 0.775357 0.691524
0.857114 0.802365 0.730007
0.870970 0.809873 0.747280
0.036683 0.123110 0.211704
0.037324 0.116823 0.215152
0.074403 0.132326 0.253849
0.186664 0.158938 0.294499
0.293706 0.180850 0.324224
0.366949 0.194461 0.340337
0.423346 0.205600 0.348974
0.475654 0.213260 0.356390
0.526238 0.210971 0.358190
0.041749 0.179629 0.280949
0.060304 0.182101 0.263401
0.082582 0.176394 0.279210
0.188098 0.201694 0.324987
0.308522 0.227939 0.356878
0.395453 0.244724 0.373724
0.458778 0.255589 0.380163
0.521294 0.261112 0.383124
0.586389 0.250034 0.380529
0.050782 0.249271 0.346288
0.081209 0.255497 0.337804
0.136690 0.257450 0.333440
0.209461 0.263127 0.362768
0.332418 0.288914 0.400000
0.441901 0.310582 0.420264
0.514519 0.322210 0.424384
0.585412 0.326268 0.419532
0.650324 0.308019 0.406439
0.064149 0.314031 0.402106
0.108400 0.330114 0.398535
0.180850 0.344457 0.402777
0.263355 0.351446 0.416846
0.369802 0.366491 0.441047
0.491157 0.394263 0.466621
0.576288 0.405432 0.470497
0.652277 0.403632 0.461952
0.704463 0.385046 0.437476
0.075196 0.366064 0.447486
0.134524 0.395270 0.451453
0.234180 0.420356 0.455543
0.335225 0.439002 0.470985
0.430167 0.458106 0.485573
0.542809 0.481331 0.508995
0.633417 0.489601 0.504540
0.706294 0.489937 0.491920
0.748989 0.475227 0.470924
0.081300 0.404120 0.481422
0.145937 0.443854 0.492195
0.273472 0.487922 0.506218
0.398840 0.516747 0.516930
0.501579 0.541100 0.531823
0.593500 0.566400 0.551202
0.682673 0.576379 0.549798
0.751675 0.580133 0.543694
0.795865 0.582849 0.533654
0.088441 0.437507 0.508507
0.152346 0.481331 0.521782
0.277928 0.529107 0.535729
0.402991 0.566857 0.550500
0.518212 0.601648 0.565454
0.613703 0.631952 0.587823
0.711177 0.660883 0.609461
0.792172 0.676966 0.614954
0.836637 0.691646 0.618402
0.100557 0.468910 0.533867
0.156954 0.509422 0.546624
0.264042 0.563378 0.565362
0.393881 0.612238 0.585962
0.525582 0.658686 0.607935
0.640040 0.696437 0.635187
0.740139 0.729519 0.664332
0.820798 0.759884 0.697749
0.858946 0.773220 0.709102
0.106203 0.495521 0.558129
0.156344 0.539696 0.577539
0.252995 0.595361 0.600153
0.384298 0.650477 0.627039
0.533455 0.702022 0.659052
0.675685 0.750576 0.696284
0.780911 0.782406 0.723415
0.852506 0.813260 0.762020
0.872740 0.824186 0.781826
0.037018 0.131624 0.235813
0.037263 0.122194 0.230716
0.056367 0.128511 0.260014
0.142061 0.155856 0.301762
0.258366 0.177707 0.334081
0.337499 0.192477 0.353277
0.402106 0.204257 0.366217
0.455970 0.213596 0.375219
0.513573 0.219120 0.382177
0.039429 0.180819 0.300084
0.050294 0.184207 0.282658
0.066072 0.177951 0.290501
0.127169 0.193545 0.331426
0.255543 0.217807 0.365454
0.351446 0.235874 0.386267
0.427039 0.249729 0.398749
0.489509 0.258762 0.405768
0.558556 0.259098 0.409247
0.046876 0.249821 0.362676
0.070375 0.256199 0.353185
0.111666 0.258000 0.347875
0.151781 0.252537 0.364813
0.260426 0.272221 0.406073
0.382208 0.296117 0.431098
0.472267 0.311772 0.445228
0.543969 0.318547 0.445136
0.619043 0.310185 0.438972
0.057160 0.312047 0.412543
0.090578 0.326238 0.410254
0.157626 0.341924 0.412757
0.211292 0.341711 0.419471
0.292256 0.344213 0.443244
0.414923 0.369421 0.475349
0.524651 0.392493 0.493629
0.603204 0.395605 0.491066
0.674495 0.376806 0.473854
0.068666 0.364385 0.454902
0.117281 0.389868 0.458991
0.198367 0.412634 0.464668
0.277058 0.427802 0.478157
0.355886 0.436347 0.494301
0.453742 0.450568 0.514488
0.577813 0.480415 0.538476
0.661952 0.478828 0.533593
0.718990 0.459815 0.511772
0.074281 0.398627 0.483650
0.129488 0.433967 0.494881
0.238041 0.472358 0.507500
0.339391 0.501701 0.522271
0.427192 0.519371 0.542412
0.511864 0.541558 0.562463
0.631037 0.567529 0.584405
0.715785 0.566644 0.576288
0.764981 0.555779 0.562219
0.081270 0.431708 0.511040
0.142458 0.475257 0.527825
0.264378 0.525017 0.547356
0.384771 0.563684 0.566217
0.494514 0.599329 0.589349
0.590326 0.630884 0.613794
0.693935 0.667201 0.644221
0.777707 0.675288 0.644739
0.821042 0.680598 0.644617
0.094118 0.462928 0.536095
0.145571 0.503380 0.553948
0.243107 0.556664 0.576715
0.372412 0.608209 0.601526
0.489097 0.653071 0.629145
0.609766 0.692897 0.656275
0.721981 0.735592 0.690455
0.822965 0.773404 0.726009
0.859556 0.780636 0.732418
0.099825 0.490272 0.561761
0.148898 0.534356 0.582147
0.239841 0.590570 0.610864
0.371099 0.648157 0.642054
0.503212 0.697139 0.674495
0.650935 0.746487 0.711360
0.773129 0.790402 0.750759
0.849729 0.819669 0.781857
0.873869 0.831937 0.803464
0.037385 0.139590 0.258183
0.037324 0.128695 0.245853
0.039277 0.127596 0.266789
0.097292 0.144106 0.303410
0.206424 0.172854 0.339513
0.298863 0.187655 0.363500
0.371557 0.199619 0.378454
0.438300 0.211429 0.392950
0.500084 0.220310 0.402228
0.039918 0.185946 0.318730
0.045197 0.181918 0.300328
0.047456 0.171054 0.294591
0.087068 0.182101 0.327672
0.178363 0.202701 0.365423
0.289891 0.221317 0.393988
0.382940 0.237949 0.413458
0.461158 0.251347 0.427039
0.536828 0.260838 0.434180
0.046021 0.246006 0.373754
0.055360 0.242924 0.361028
0.077424 0.249424 0.352758
0.090791 0.232731 0.363622
0.143481 0.241642 0.400183
0.278935 0.267063 0.430488
0.399451 0.288365 0.453529
0.499489 0.302861 0.467231
0.582574 0.308263 0.467903
0.054139 0.309026 0.421790
0.073060 0.313634 0.413550
0.105257 0.322362 0.413367
0.136568 0.315923 0.413672
0.164874 0.307561 0.430579
0.283879 0.327947 0.469886
0.432624 0.358373 0.499428
0.551415 0.377356 0.515648
0.634485 0.372107 0.506615
0.064698 0.359564 0.460395
0.097902 0.376806 0.460853
0.144564 0.390539 0.463569
0.191226 0.398047 0.470680
0.221637 0.395270 0.485145
0.321172 0.403143 0.506065
0.467628 0.432776 0.541619
0.601953 0.461830 0.561639
0.681086 0.445228 0.544976
0.071138 0.393713 0.486641
0.113375 0.420203 0.493263
0.182559 0.453315 0.508049
0.258732 0.476173 0.522362
0.319036 0.491951 0.543481
0.369085 0.496529 0.559594
0.513085 0.518822 0.584192
0.657649 0.550774 0.609003
0.729488 0.537926 0.594476
0.080232 0.426612 0.512444
0.126711 0.461707 0.526085
0.210788 0.502831 0.545037
0.309117 0.539086 0.566247
0.398169 0.574060 0.593744
0.490059 0.601923 0.620142
0.597925 0.632288 0.648463
0.743404 0.668208 0.682521
0.794553 0.661128 0.667750
0.087434 0.455756 0.536065
0.133547 0.491737 0.551568
0.224338 0.545373 0.580194
0.340459 0.595789 0.608057
0.456580 0.644190 0.642023
0.566400 0.684657 0.672541
0.695430 0.735470 0.715999
0.811460 0.779629 0.755673
0.858305 0.790005 0.765316
0.091768 0.480140 0.559564
0.134646 0.520714 0.579309
0.212039 0.576684 0.610620
0.333745 0.635737 0.645685
0.470115 0.691585 0.685542
0.616053 0.742123 0.722713
0.749813 0.787289 0.761135
0.844999 0.824094 0.795743
0.873686 0.838102 0.812924
0.037751 0.145144 0.276066
0.037293 0.130007 0.260319
0.038605 0.127443 0.273045
0.041291 0.125338 0.298253
0.129000 0.153445 0.332952
0.231296 0.176303 0.365728
0.320531 0.189242 0.388098
0.397345 0.200900 0.405280
0.480415 0.214450 0.421912
0.040711 0.184787 0.331090
0.039857 0.170993 0.310796
0.040314 0.158389 0.300542
0.044434 0.163607 0.319371
0.093782 0.176303 0.353887
0.187259 0.199161 0.390265
0.306981 0.218479 0.420233
0.405432 0.232975 0.440497
0.506096 0.249577 0.458167
0.043610 0.241032 0.383215
0.043214 0.224186 0.363622
0.049134 0.216983 0.352483
0.050202 0.203159 0.349828
0.066529 0.206363 0.376959
0.143130 0.225589 0.413031
0.269291 0.250187 0.447669
0.417823 0.274052 0.479042
0.539391 0.293004 0.496223
0.048707 0.294286 0.425483
0.051301 0.286717 0.412879
0.057710 0.276646 0.401404
0.063355 0.267094 0.394263
0.068940 0.253117 0.401007
0.110536 0.265751 0.440345
0.247837 0.297398 0.480079
0.434028 0.328954 0.518242
0.579522 0.352148 0.536950
0.056245 0.348302 0.463630
0.068299 0.349767 0.456275
0.085206 0.345800 0.450050
0.093751 0.339940 0.447364
0.089662 0.321355 0.442359
0.116976 0.317449 0.462837
0.214420 0.345006 0.509789
0.454109 0.391058 0.553185
0.619806 0.424964 0.575067
0.063172 0.384955 0.489296
0.080568 0.395392 0.487800
0.113680 0.409064 0.493233
0.133791 0.414466 0.497322
0.144839 0.413916 0.504173
0.162875 0.403937 0.511711
0.219730 0.414343 0.545892
0.478767 0.469490 0.591485
0.672969 0.517388 0.620752
0.070375 0.415137 0.510338
0.099733 0.439734 0.519921
0.154482 0.468177 0.534539
0.196841 0.489052 0.548486
0.237522 0.508995 0.565972
0.279942 0.527916 0.588067
0.337530 0.538384 0.610346
0.533471 0.580377 0.646387
0.750332 0.640284 0.687709
0.076844 0.442390 0.532708
0.109651 0.473518 0.546685
0.172030 0.516167 0.570550
0.247837 0.555200 0.595270
0.339208 0.597681 0.624598
0.433600 0.639063 0.656245
0.564324 0.685969 0.695369
0.723964 0.741665 0.743954
0.848173 0.783902 0.783810
0.082399 0.467750 0.555505
0.112367 0.498054 0.569574
0.174136 0.546624 0.597650
0.250645 0.598016 0.628443
0.353201 0.649317 0.662715
0.494057 0.704433 0.703578
0.682857 0.769650 0.755245
0.829831 0.821683 0.804654
0.872465 0.839414 0.821378
