assets/luts/impulz-kodak-gold-gen-6-200-fc-rec709-b754de51.cube
# (C) 2014 VisionColor & Patchflyer [www.vision-color.com]
# Generator: VC Patchmatch v.2.1.1 [64/53]
# All work and no play makes Jack a dull boy.
# LUT generated from: Kodak Gold Gen.6 200_FC
LUT_3D_SIZE 9
0.033845 0.031281 0.031525
0.129549 0.035309 0.034119
0.266514 0.039643 0.035859
0.359564 0.045136 0.039246
0.440375 0.052735 0.043549
0.521080 0.060243 0.050355
0.597498 0.071382 0.061250
0.684169 0.078126 0.071962
0.783200 0.083375 0.080629
0.046235 0.079957 0.023041
0.123049 0.087373 0.024872
0.241306 0.099214 0.026062
0.366888 0.120546 0.032715
0.471504 0.142153 0.039124
0.550469 0.155947 0.048371
0.620691 0.170504 0.059998
0.696193 0.176699 0.070039
0.789792 0.176333 0.079133
0.075410 0.161868 0.017182
0.154452 0.172213 0.019104
0.268772 0.195377 0.021057
0.382757 0.219760 0.032074
0.491981 0.248325 0.038758
0.575463 0.273869 0.048249
0.644953 0.287358 0.059022
0.714656 0.288548 0.067018
0.802579 0.281468 0.075380
0.122255 0.274327 0.022156
0.207584 0.287999 0.026093
0.320348 0.315618 0.030030
0.426123 0.338598 0.032959
0.521813 0.362432 0.041505
0.602655 0.386236 0.049928
0.669398 0.400977 0.060761
0.733913 0.399420 0.068635
0.805570 0.378729 0.074098
0.171633 0.398932 0.023926
0.260929 0.411719 0.029541
0.366613 0.433997 0.035615
0.472816 0.458808 0.040406
0.559747 0.471473 0.041962
0.632776 0.486793 0.052064
0.694331 0.495583 0.062074
0.754055 0.491798 0.069642
0.816526 0.470588 0.074434
0.222354 0.498878 0.032441
0.308843 0.512139 0.040223
0.400916 0.527306 0.044343
0.498085 0.547143 0.047913
0.588678 0.564599 0.049592
0.662470 0.572686 0.050416
0.719600 0.575250 0.061707
0.772610 0.566308 0.070924
0.829709 0.543420 0.072175
0.256931 0.580011 0.035737
0.340429 0.590784 0.043977
0.427527 0.601862 0.049104
0.517479 0.619165 0.054170
0.605402 0.636500 0.057527
0.680934 0.647669 0.059602
0.746242 0.649165 0.059693
0.797848 0.636957 0.068727
0.844816 0.613275 0.074403
0.276677 0.649683 0.036988
0.363684 0.655756 0.047028
0.446967 0.666255 0.054505
0.532921 0.684627 0.060945
0.617670 0.700801 0.064942
0.696284 0.715633 0.068360
0.762875 0.718441 0.069001
0.816648 0.715877 0.068269
0.863951 0.697780 0.073884
0.277836 0.736690 0.031434
0.363989 0.738186 0.038453
0.457038 0.743526 0.049592
0.542138 0.757717 0.060426
0.623011 0.770962 0.063813
0.695064 0.785153 0.071565
0.768124 0.798337 0.075563
0.829923 0.799283 0.078004
0.874479 0.797940 0.076844
0.032319 0.033875 0.100862
0.088563 0.030152 0.122866
0.195865 0.031067 0.120211
0.305638 0.035859 0.119020
0.404944 0.040070 0.116182
0.496742 0.044984 0.118837
0.575433 0.052735 0.124819
0.651057 0.058930 0.132540
0.750729 0.061860 0.136995
0.039734 0.089570 0.083803
0.108553 0.096223 0.099886
0.215793 0.105104 0.107424
0.325658 0.116640 0.113313
0.416724 0.127504 0.121157
0.502647 0.142184 0.130007
0.574884 0.153567 0.142336
0.659083 0.163760 0.151156
0.769711 0.161929 0.156649
0.072419 0.192538 0.073854
0.148898 0.202335 0.093141
0.253086 0.222385 0.104829
0.359808 0.234562 0.112123
0.460121 0.256748 0.122011
0.538018 0.270146 0.131655
0.606653 0.284459 0.145449
0.676509 0.284337 0.154116
0.778714 0.273625 0.161135
0.117586 0.303075 0.079652
0.204623 0.317632 0.095613
0.300664 0.338567 0.108003
0.410864 0.361486 0.118685
0.497963 0.374151 0.128664
0.574762 0.392523 0.138796
0.637354 0.400092 0.149569
0.697139 0.394415 0.156741
0.782254 0.376471 0.161257
0.169558 0.417517 0.081910
0.262394 0.425238 0.103120
0.350408 0.442115 0.116548
0.450721 0.467506 0.127504
0.542809 0.484352 0.133608
0.609827 0.488655 0.146426
0.669429 0.496132 0.153079
0.720150 0.487221 0.160891
0.785092 0.459419 0.161685
0.211337 0.508415 0.090547
0.304967 0.510674 0.110567
0.389746 0.523705 0.123690
0.478065 0.544091 0.137209
0.567254 0.564233 0.144808
0.643671 0.572106 0.146273
0.694179 0.569787 0.155856
0.743038 0.561517 0.161257
0.795407 0.536736 0.161288
0.241184 0.585260 0.087190
0.330846 0.577142 0.110292
0.416785 0.590143 0.125246
0.501457 0.607630 0.137270
0.578851 0.626703 0.150546
0.654169 0.638056 0.153933
0.720974 0.641016 0.154971
0.767178 0.631983 0.162448
0.821195 0.612909 0.162264
0.252384 0.651057 0.086671
0.332555 0.646845 0.101686
0.428229 0.655879 0.118624
0.511833 0.670192 0.136294
0.586938 0.687953 0.149538
0.658045 0.705715 0.160342
0.727413 0.713527 0.163546
0.796475 0.713191 0.163760
0.848539 0.700801 0.162631
0.238285 0.736477 0.061616
0.318517 0.731594 0.077394
0.416144 0.736782 0.094514
0.506340 0.743923 0.114839
0.582452 0.759182 0.133516
0.653651 0.774929 0.149874
0.728969 0.797330 0.163272
0.805753 0.806210 0.169467
0.870451 0.811093 0.170352
0.031434 0.036469 0.202579
0.071626 0.030854 0.236240
0.161044 0.030243 0.228458
0.268498 0.033509 0.230503
0.375189 0.037690 0.224033
0.467231 0.042573 0.216800
0.547265 0.049409 0.218326
0.625116 0.055299 0.220523
0.716731 0.060731 0.215854
0.036896 0.092164 0.184024
0.092073 0.097932 0.206088
0.177615 0.094545 0.218875
0.282445 0.100618 0.213565
0.378119 0.110201 0.210941
0.466621 0.116915 0.209476
0.544640 0.128084 0.215305
0.628351 0.132937 0.218235
0.741756 0.136873 0.214389
0.058137 0.194095 0.178225
0.123171 0.202548 0.194980
0.214298 0.213016 0.210422
0.315221 0.227817 0.220096
0.402960 0.239963 0.225803
0.485237 0.255222 0.236667
0.563134 0.267430 0.245731
0.650202 0.270146 0.246799
0.776028 0.268833 0.248997
0.098238 0.316289 0.177768
0.176425 0.326513 0.192905
0.268925 0.332341 0.215396
0.366522 0.353796 0.233127
0.451392 0.368688 0.238956
0.528374 0.383764 0.245365
0.600275 0.390906 0.252750
0.678706 0.390417 0.252964
0.780667 0.376196 0.255039
0.143984 0.428504 0.181704
0.229465 0.430793 0.203067
0.320043 0.434150 0.220432
0.408606 0.452491 0.238346
0.495613 0.470253 0.249577
0.566003 0.479622 0.257481
0.631342 0.489448 0.261112
0.700130 0.482918 0.259129
0.785245 0.464485 0.256992
0.187869 0.516930 0.180209
0.272679 0.511437 0.201846
0.364904 0.516564 0.227329
0.443641 0.529686 0.245670
0.527947 0.550744 0.258396
0.602930 0.560632 0.261631
0.658717 0.560143 0.267338
0.723995 0.561364 0.262943
0.787167 0.533837 0.251621
0.217044 0.589563 0.176638
0.301152 0.577508 0.200381
0.389105 0.581170 0.225223
0.469032 0.596063 0.245487
0.546868 0.617487 0.263737
0.621241 0.630426 0.266789
0.689387 0.633692 0.267979
0.747250 0.633661 0.267521
0.812711 0.613092 0.253178
0.238743 0.654353 0.161501
0.314549 0.647395 0.180941
0.398444 0.650141 0.203342
0.481636 0.662318 0.229374
0.557824 0.682643 0.248905
0.628779 0.703182 0.262089
0.702571 0.715267 0.267552
0.777768 0.717220 0.268528
0.843229 0.708736 0.257450
0.237766 0.739437 0.135897
0.307988 0.733089 0.144930
0.382971 0.743587 0.162570
0.473335 0.747951 0.187320
0.552239 0.762783 0.218082
0.624720 0.778561 0.239475
0.703212 0.801633 0.255436
0.795071 0.818723 0.266636
0.870665 0.825986 0.268376
0.031891 0.042634 0.294041
0.060090 0.034028 0.328618
0.134829 0.033814 0.333104
0.228428 0.033509 0.298314
0.337682 0.036805 0.301122
0.434211 0.041810 0.301091
0.515892 0.048554 0.304509
0.597040 0.054322 0.305180
0.695216 0.060426 0.298466
0.039246 0.104860 0.294896
0.083772 0.103670 0.300175
0.145022 0.092744 0.311620
0.245274 0.096345 0.306615
0.342992 0.105348 0.305486
0.431891 0.112673 0.301518
0.512963 0.121981 0.302495
0.598932 0.126986 0.301122
0.718288 0.134463 0.292760
0.059632 0.192386 0.288090
0.113008 0.201480 0.296727
0.196780 0.214969 0.305486
0.280674 0.213840 0.316960
0.368170 0.221439 0.314183
0.450690 0.233860 0.316106
0.532097 0.241428 0.316442
0.621088 0.241581 0.311528
0.755734 0.242466 0.305791
0.082399 0.305669 0.299901
0.147646 0.317174 0.309819
0.236973 0.326543 0.318212
0.335790 0.345983 0.337682
0.413794 0.357397 0.341344
0.485908 0.368017 0.346716
0.563470 0.376532 0.350896
0.656672 0.374487 0.345190
0.795834 0.368658 0.335210
0.116426 0.423896 0.303136
0.196170 0.429603 0.312230
0.284794 0.429847 0.322332
0.381323 0.443030 0.344030
0.461036 0.460517 0.356970
0.529961 0.470283 0.360845
0.601312 0.476173 0.358709
0.681849 0.472114 0.350744
0.798642 0.460456 0.338170
0.154025 0.513054 0.293126
0.232334 0.511223 0.310216
0.328374 0.512718 0.329564
0.418708 0.522087 0.351629
0.493721 0.538384 0.364752
0.568231 0.552361 0.372595
0.635126 0.557061 0.371496
0.709377 0.553948 0.358801
0.803861 0.535973 0.335668
0.186892 0.590723 0.281254
0.266178 0.577752 0.298802
0.357671 0.578149 0.323064
0.442634 0.589960 0.343450
0.516258 0.607904 0.364294
0.591211 0.627039 0.373266
0.665705 0.634302 0.374517
0.734890 0.631434 0.364324
0.822202 0.618128 0.335882
0.213809 0.660151 0.257115
0.284123 0.650752 0.274205
0.371099 0.650935 0.301274
0.453803 0.666438 0.317479
0.528191 0.680659 0.343175
0.604059 0.704463 0.360723
0.685847 0.722622 0.367895
0.772122 0.729885 0.369085
0.852445 0.720272 0.342718
0.225467 0.746120 0.220554
0.287694 0.736538 0.231205
0.366125 0.747219 0.242710
0.437690 0.761837 0.252049
0.516930 0.771237 0.285435
0.605127 0.793362 0.323247
0.690486 0.817563 0.342443
0.794400 0.840330 0.357122
0.882292 0.852049 0.358801
0.030701 0.047700 0.405035
0.053407 0.035706 0.412787
0.111055 0.035889 0.414771
0.196445 0.036866 0.379461
0.290745 0.036988 0.360571
0.393164 0.041993 0.368200
0.483436 0.049287 0.381292
0.569512 0.055146 0.385534
0.673182 0.060700 0.375860
0.038025 0.114839 0.412421
0.077089 0.108492 0.388312
0.125734 0.095918 0.389410
0.213107 0.099519 0.387732
0.306950 0.102541 0.380163
0.399451 0.110475 0.382757
0.482918 0.120363 0.380835
0.573907 0.125490 0.378424
0.694667 0.131319 0.360388
0.057618 0.200900 0.402380
0.108217 0.210666 0.392432
0.176272 0.213016 0.385748
0.247105 0.207614 0.388098
0.337438 0.213931 0.395087
0.419409 0.224796 0.397162
0.502251 0.233280 0.396277
0.591669 0.232120 0.384039
0.735866 0.234775 0.366552
0.079072 0.302037 0.410559
0.139101 0.312139 0.402380
0.219150 0.324926 0.401434
0.306828 0.338628 0.413520
0.385718 0.342443 0.419562
0.457679 0.349889 0.419623
0.534142 0.354376 0.415076
0.630793 0.350103 0.400153
0.782773 0.347173 0.381903
0.102144 0.414496 0.430274
0.170932 0.422156 0.423377
0.254215 0.425666 0.420142
0.347753 0.435706 0.429145
0.434791 0.455451 0.444923
0.502007 0.460395 0.446510
0.574243 0.463691 0.442634
0.669337 0.463508 0.431281
0.816403 0.456672 0.410773
0.128786 0.507408 0.415885
0.199924 0.509056 0.415076
0.294926 0.509911 0.422492
0.386572 0.515618 0.433600
0.470497 0.531670 0.450904
0.543481 0.547204 0.460365
0.612329 0.549493 0.455085
0.702571 0.547692 0.437232
0.825406 0.540520 0.409186
0.152102 0.584283 0.393606
0.222110 0.578973 0.403143
0.320958 0.577996 0.418463
0.411383 0.588830 0.434546
0.496071 0.602197 0.450019
0.568231 0.617731 0.459785
0.649226 0.631586 0.466682
0.732113 0.635035 0.447913
0.837827 0.627405 0.410956
0.181704 0.656519 0.359777
0.243076 0.654627 0.371313
0.335973 0.652796 0.391302
0.423713 0.667353 0.410620
0.508171 0.690517 0.425116
0.583764 0.705501 0.442847
0.672877 0.728359 0.453590
0.771572 0.741360 0.455879
0.863279 0.740108 0.425879
0.195956 0.748562 0.315251
0.252201 0.744137 0.322210
0.333318 0.752651 0.339727
0.408911 0.765652 0.350164
0.488930 0.793881 0.355123
0.582666 0.809445 0.400580
0.685939 0.835691 0.425208
0.804776 0.863035 0.443671
0.898436 0.874266 0.447089
0.031159 0.055665 0.523125
0.047822 0.042084 0.508049
0.094118 0.041352 0.490913
0.165499 0.041077 0.457130
0.257343 0.041627 0.432319
0.358373 0.043153 0.452369
0.451179 0.050141 0.461952
0.542229 0.055604 0.462776
0.646448 0.059266 0.450202
0.037964 0.125856 0.526055
0.071870 0.118105 0.479164
0.107179 0.097871 0.461402
0.183688 0.100526 0.452766
0.276829 0.106966 0.451392
0.368811 0.111299 0.456245
0.452979 0.121523 0.455970
0.545953 0.125154 0.448218
0.667384 0.127779 0.427649
0.057038 0.215854 0.509667
0.097597 0.213840 0.475441
0.162448 0.216403 0.459113
0.216495 0.203250 0.452888
0.307057 0.212619 0.458778
0.388739 0.218906 0.463569
0.469978 0.227268 0.463020
0.562951 0.228061 0.448890
0.705074 0.223301 0.418708
0.076661 0.309056 0.512535
0.131258 0.316655 0.487404
0.204440 0.325200 0.474403
0.282536 0.334356 0.479561
0.350057 0.331456 0.482307
0.429541 0.341650 0.488655
0.505119 0.344549 0.485817
0.600946 0.337072 0.467079
0.754574 0.326604 0.433021
0.098665 0.409552 0.524804
0.160006 0.411475 0.502800
0.239963 0.417639 0.491615
0.322667 0.429145 0.494972
0.404135 0.443275 0.508690
0.475349 0.448707 0.513878
0.545251 0.448127 0.507164
0.640345 0.440040 0.485512
0.796597 0.428046 0.451759
0.115206 0.503105 0.538293
0.179110 0.506279 0.517693
0.267033 0.506828 0.512474
0.355718 0.509483 0.510033
0.441016 0.524437 0.522423
0.520378 0.543053 0.539544
0.592462 0.544244 0.531884
0.691371 0.540124 0.510765
0.832029 0.532128 0.479683
0.132235 0.581384 0.511254
0.196445 0.577813 0.501335
0.286412 0.578424 0.504082
0.379553 0.585077 0.509148
0.466377 0.597467 0.522850
0.547021 0.618341 0.539239
0.631708 0.632502 0.547875
0.723842 0.635798 0.523644
0.842557 0.630457 0.485969
0.150912 0.650050 0.464302
0.200107 0.651759 0.465858
0.289769 0.654810 0.482765
0.386938 0.670771 0.496651
0.474586 0.692287 0.513268
0.563684 0.713191 0.525567
0.658473 0.732113 0.538293
0.767788 0.749630 0.543786
0.868467 0.756588 0.510430
0.161776 0.744808 0.411963
0.210513 0.745724 0.415351
0.290013 0.756497 0.431708
0.374609 0.778653 0.453193
0.458839 0.804440 0.469581
0.559197 0.840208 0.479408
0.676204 0.855497 0.515587
0.808865 0.881285 0.534234
0.908202 0.892943 0.543420
0.028992 0.066102 0.648341
0.043641 0.046021 0.616724
0.080629 0.044770 0.576471
0.140810 0.044984 0.536492
0.227420 0.046540 0.511559
0.328283 0.049104 0.528893
0.427405 0.051667 0.553613
0.518364 0.056886 0.549218
0.618494 0.058808 0.529046
0.034119 0.137362 0.644129
0.064393 0.125978 0.562921
0.094789 0.105287 0.543877
0.159854 0.107942 0.521080
0.240879 0.110964 0.514336
0.335454 0.117800 0.521050
0.426032 0.122896 0.534630
0.517021 0.126101 0.523919
0.629175 0.123629 0.498207
0.052644 0.230015 0.621759
0.091798 0.224491 0.559716
0.148531 0.220829 0.529992
0.193179 0.204440 0.519310
0.272679 0.211978 0.520104
0.356390 0.220066 0.527337
0.439094 0.225376 0.534020
0.528832 0.224369 0.521660
0.665003 0.212680 0.480720
0.071107 0.325872 0.613703
0.119753 0.321080 0.563745
0.188113 0.327337 0.544884
0.254917 0.329046 0.539452
0.312215 0.320439 0.539727
0.395148 0.331579 0.550500
0.473579 0.337896 0.555261
0.565179 0.328923 0.536431
0.711055 0.307713 0.490944
0.090089 0.416602 0.617578
0.149813 0.411902 0.579644
0.224399 0.418647 0.560418
0.295659 0.426978 0.562585
0.366262 0.433082 0.569512
0.430701 0.431556 0.573968
0.513390 0.440070 0.581231
0.604120 0.424872 0.562676
0.754360 0.404547 0.509911
0.103731 0.499458 0.626215
0.166751 0.494820 0.589258
0.246708 0.493874 0.577508
0.328740 0.503655 0.576440
0.402533 0.514000 0.586145
0.478431 0.528344 0.603998
0.558373 0.532219 0.609461
0.654017 0.519951 0.582727
0.796658 0.502220 0.533288
0.112215 0.577752 0.626459
0.173648 0.572381 0.593408
0.260899 0.573816 0.590814
0.345892 0.579126 0.595819
0.433143 0.591852 0.603937
0.513664 0.612970 0.624079
0.610437 0.637415 0.643305
0.713375 0.632044 0.614099
0.846036 0.623652 0.568353
0.123964 0.647120 0.569268
0.172763 0.647486 0.555596
0.251865 0.651942 0.573693
0.340978 0.668208 0.588006
0.434699 0.691646 0.607538
0.526390 0.715480 0.624964
0.638300 0.743587 0.639735
0.753902 0.757595 0.642390
0.878813 0.765255 0.609766
0.124483 0.741848 0.514183
0.166018 0.741848 0.510063
0.236942 0.757443 0.526879
0.318273 0.780209 0.554589
0.413413 0.814481 0.582910
0.527153 0.851774 0.612543
0.660822 0.883177 0.629908
0.805905 0.898833 0.647791
0.923583 0.914672 0.664790
0.028077 0.074769 0.753536
0.036103 0.053010 0.717464
0.068360 0.051057 0.667140
0.121859 0.050782 0.624537
0.196078 0.052399 0.600732
0.291691 0.054597 0.610346
0.391699 0.057465 0.633570
0.493965 0.058167 0.648310
0.590356 0.059297 0.622919
0.033143 0.152163 0.742489
0.057130 0.137362 0.660761
0.079957 0.110079 0.636744
0.134310 0.110414 0.611872
0.204318 0.112612 0.593530
0.294499 0.118990 0.601709
0.387304 0.126528 0.611261
0.486427 0.129427 0.618555
0.591424 0.124025 0.590753
0.045747 0.245914 0.726802
0.076875 0.231693 0.649805
0.121767 0.222477 0.607935
0.160952 0.199985 0.595331
0.229252 0.207401 0.591699
0.307103 0.212161 0.597742
0.396124 0.218997 0.608606
0.490700 0.222751 0.612207
0.611261 0.204990 0.576898
0.061677 0.336797 0.709438
0.099825 0.326452 0.653437
0.154055 0.324041 0.622370
0.208621 0.317296 0.616602
0.255314 0.304295 0.610590
0.336034 0.314214 0.625330
0.425238 0.321904 0.637140
0.521996 0.323766 0.636408
0.649805 0.295109 0.592432
0.079652 0.425666 0.712520
0.127779 0.413642 0.666651
0.184146 0.409674 0.639277
0.245212 0.413520 0.641993
0.305272 0.413275 0.647822
0.368414 0.406744 0.652766
0.462989 0.414771 0.666835
0.559197 0.416846 0.664454
0.687831 0.385657 0.613977
0.093385 0.499001 0.715328
0.145480 0.486122 0.673671
0.210239 0.486854 0.657313
0.280156 0.496956 0.661982
0.345678 0.503868 0.675532
0.412787 0.507073 0.693080
0.498665 0.506615 0.699367
0.603754 0.508659 0.699367
0.732143 0.483619 0.641840
0.096162 0.570092 0.707057
0.154482 0.560906 0.681392
0.221866 0.559991 0.667994
0.299229 0.569848 0.679988
0.376593 0.586847 0.698421
0.457374 0.602594 0.722225
0.552056 0.617761 0.740291
0.673609 0.620691 0.741390
0.807858 0.603815 0.676570
0.096925 0.641657 0.693965
0.145296 0.637537 0.663355
0.219974 0.642481 0.674525
0.301244 0.657160 0.700069
0.387121 0.677302 0.727749
0.476265 0.708614 0.751949
0.597162 0.737942 0.769772
0.757717 0.773861 0.784878
0.902708 0.774746 0.749660
0.093111 0.731228 0.635615
0.128573 0.734890 0.622736
0.187533 0.751247 0.642451
0.257603 0.778836 0.682887
0.341115 0.817716 0.721309
0.459449 0.861082 0.761105
0.619287 0.893645 0.789822
0.793820 0.919982 0.806943
0.935607 0.934386 0.814115
0.024598 0.086122 0.860441
0.032837 0.054932 0.828794
0.050996 0.052491 0.782162
0.090089 0.053834 0.736965
0.154360 0.055268 0.718044
0.233982 0.057862 0.710140
0.334264 0.061341 0.727352
0.435370 0.061738 0.737514
0.551720 0.061341 0.737942
0.022858 0.160678 0.858732
0.041932 0.143648 0.785611
0.057008 0.112886 0.758419
0.097139 0.112428 0.729885
0.154635 0.116854 0.714443
0.228580 0.122286 0.708278
0.321782 0.129183 0.721187
0.426307 0.129946 0.726070
0.544884 0.128328 0.716243
0.031159 0.260746 0.844724
0.054658 0.231693 0.776486
0.085023 0.219028 0.742611
0.108492 0.191714 0.724330
0.161379 0.196017 0.718379
0.228977 0.202640 0.717556
0.319493 0.210086 0.730373
0.427832 0.213504 0.737545
0.553246 0.211948 0.727932
0.040986 0.351293 0.831022
0.067597 0.326024 0.775021
0.101961 0.307469 0.748653
0.132967 0.296513 0.747005
0.166964 0.279179 0.735317
0.241032 0.289281 0.742275
0.329809 0.296330 0.754360
0.445960 0.298741 0.767758
0.580652 0.297765 0.761166
0.053254 0.436011 0.821073
0.087526 0.409613 0.784329
0.129397 0.396368 0.764920
0.162692 0.388708 0.768093
0.193301 0.378210 0.780240
0.248264 0.367224 0.773342
0.345464 0.376440 0.784817
0.471595 0.383215 0.798093
0.618799 0.386145 0.800046
0.061952 0.502922 0.822507
0.102083 0.482338 0.785946
0.151583 0.476051 0.778073
0.197940 0.474891 0.784756
0.237217 0.478035 0.807584
0.292638 0.471015 0.829953
0.372625 0.463081 0.826108
0.514244 0.476692 0.836362
0.670619 0.479530 0.838651
0.071962 0.562402 0.822324
0.118227 0.550561 0.789273
0.171725 0.549706 0.788357
0.224613 0.557488 0.803555
0.284398 0.571099 0.827665
0.360937 0.587640 0.860105
0.461219 0.594965 0.875151
0.582940 0.593591 0.879606
0.754269 0.598108 0.881376
0.070039 0.635065 0.804959
0.116365 0.624750 0.777829
0.174594 0.632166 0.798825
0.239109 0.646967 0.816831
0.313481 0.670954 0.845853
0.403876 0.703273 0.873930
0.537530 0.740566 0.901701
0.713558 0.777340 0.916075
0.886870 0.774289 0.917479
0.061891 0.718532 0.776516
0.098177 0.718837 0.761807
0.151980 0.735317 0.793332
0.209262 0.762295 0.833860
0.277867 0.802365 0.868101
0.386419 0.852354 0.889616
0.558373 0.890837 0.911803
0.769406 0.923644 0.920104
0.953887 0.953887 0.945678
