assets/luts/impulz-kodak-ektar-100-fc-rec709-8eb9f0d8.cube
# (C) 2014 VisionColor & Patchflyer [www.vision-color.com]
# Generator: VC Patchmatch v.2.1.1 [64/53]
# All work and no play makes Jack a dull boy.
# LUT generated from: Kodak Ektar 100_FC
LUT_3D_SIZE 17
0.040436 0.024323 0.029633
0.080232 0.031708 0.035615
0.128054 0.041108 0.041810
0.179263 0.048829 0.048157
0.241581 0.053834 0.051118
0.302403 0.063630 0.056214
0.366033 0.069429 0.058595
0.424598 0.074708 0.060456
0.474891 0.084688 0.064179
0.519188 0.092592 0.068116
0.563287 0.098604 0.070069
0.604639 0.110201 0.073335
0.636744 0.119173 0.077516
0.668360 0.127596 0.081697
0.698451 0.132570 0.084657
0.732387 0.142092 0.088655
0.757473 0.146761 0.093080
0.049897 0.066407 0.043519
0.069245 0.070741 0.039857
0.115785 0.081849 0.045655
0.159579 0.090608 0.048249
0.214939 0.104005 0.050172
0.274540 0.111482 0.053437
0.336278 0.121553 0.055604
0.393164 0.132998 0.058015
0.443641 0.140505 0.061677
0.488777 0.149355 0.066102
0.534997 0.161929 0.069398
0.577539 0.174075 0.073060
0.610864 0.181094 0.077211
0.646265 0.192538 0.082429
0.678431 0.201541 0.086091
0.713039 0.208957 0.090089
0.738643 0.211948 0.094484
0.058045 0.122011 0.060945
0.076112 0.125368 0.056336
0.101442 0.128481 0.049561
0.143130 0.137728 0.052125
0.190951 0.146700 0.050050
0.245304 0.158389 0.053101
0.305608 0.170413 0.054444
0.364508 0.183474 0.055879
0.416999 0.198581 0.061158
0.463661 0.209567 0.066438
0.509911 0.221286 0.069490
0.554070 0.235691 0.073610
0.590600 0.248020 0.079377
0.627100 0.259709 0.084993
0.659571 0.266850 0.088472
0.695003 0.272770 0.092012
0.721889 0.272587 0.096620
0.063935 0.176577 0.074617
0.074342 0.176181 0.067872
0.101259 0.184146 0.060029
0.126589 0.183047 0.054078
0.171756 0.196567 0.051972
0.216556 0.194797 0.053193
0.272038 0.205875 0.054658
0.330297 0.225071 0.056916
0.390814 0.244419 0.062135
0.441627 0.257816 0.067506
0.490272 0.273747 0.071626
0.537011 0.290501 0.075837
0.576379 0.305333 0.082246
0.616419 0.319280 0.088563
0.650202 0.325109 0.092744
0.686763 0.330053 0.096895
0.715999 0.332311 0.103578
0.062928 0.243809 0.081117
0.077058 0.242771 0.074159
0.093385 0.248814 0.067872
0.124575 0.250828 0.060609
0.153017 0.247013 0.053559
0.197116 0.248722 0.058747
0.245487 0.252995 0.058808
0.298680 0.263310 0.057862
0.359533 0.283604 0.063905
0.416678 0.304326 0.070039
0.472328 0.322637 0.074189
0.520256 0.337774 0.077882
0.560174 0.351629 0.084627
0.600946 0.365209 0.091646
0.640772 0.377264 0.096895
0.679011 0.383734 0.101472
0.708339 0.385412 0.108095
0.064393 0.298589 0.089296
0.077668 0.300450 0.084291
0.097292 0.307073 0.079713
0.118257 0.310277 0.075410
0.154818 0.310765 0.068360
0.187869 0.308110 0.063569
0.235508 0.308110 0.063966
0.280827 0.314641 0.065003
0.333928 0.323796 0.066957
0.390341 0.342687 0.073426
0.447486 0.361395 0.077058
0.499031 0.379004 0.081514
0.543206 0.390356 0.087007
0.584863 0.404547 0.094179
0.625269 0.416785 0.099550
0.667628 0.426215 0.105470
0.699428 0.424994 0.110872
0.066163 0.350103 0.098512
0.078584 0.354803 0.095155
0.099214 0.364752 0.092439
0.116854 0.370306 0.089570
0.150515 0.376471 0.086641
0.184237 0.377172 0.082307
0.221714 0.371008 0.073945
0.267308 0.375067 0.074861
0.318975 0.375097 0.075959
0.366949 0.379400 0.077974
0.421363 0.396857 0.081270
0.472480 0.412146 0.087098
0.518822 0.423102 0.090517
0.564446 0.432746 0.095766
0.605676 0.439490 0.100801
0.647883 0.445563 0.106905
0.687587 0.443519 0.111208
0.067323 0.403815 0.109102
0.081300 0.413428 0.107179
0.096162 0.425879 0.105989
0.120027 0.433387 0.104860
0.147005 0.441260 0.104829
0.181582 0.444495 0.100557
0.219120 0.439582 0.092409
0.254215 0.433661 0.084443
0.303288 0.431525 0.090578
0.349462 0.430121 0.096345
0.398566 0.434241 0.088899
0.448280 0.444709 0.091615
0.495308 0.454810 0.095338
0.543664 0.465736 0.103914
0.586328 0.460975 0.103883
0.629206 0.463752 0.108278
0.668849 0.460761 0.111727
0.069978 0.450080 0.123507
0.082155 0.461128 0.122377
0.096529 0.472847 0.121614
0.116182 0.484382 0.123262
0.141054 0.490639 0.123781
0.177188 0.497536 0.129061
0.213931 0.497169 0.124666
0.249973 0.489082 0.114107
0.284062 0.478737 0.103182
0.331395 0.478309 0.110628
0.381628 0.480201 0.104768
0.430579 0.483345 0.107851
0.474556 0.484932 0.103914
0.522850 0.495583 0.112490
0.565942 0.490730 0.112642
0.612116 0.484657 0.110353
0.652216 0.477485 0.113039
0.073518 0.490486 0.140322
0.081910 0.500359 0.139498
0.098177 0.513695 0.140078
0.112581 0.527031 0.141939
0.141817 0.535882 0.146242
0.178653 0.543175 0.152438
0.209110 0.546471 0.154086
0.247440 0.540246 0.143954
0.281254 0.530419 0.132815
0.312963 0.520165 0.122255
0.364111 0.522179 0.124483
0.414160 0.524529 0.129946
0.456336 0.516960 0.119173
0.499550 0.517388 0.117891
0.544610 0.515190 0.119509
0.597681 0.516442 0.124514
0.637629 0.493690 0.115145
0.076631 0.530632 0.158389
0.083680 0.539818 0.157687
0.097414 0.551995 0.158236
0.111299 0.564141 0.159731
0.134035 0.577020 0.169192
0.169680 0.584588 0.176211
0.205081 0.589837 0.181827
0.244816 0.593744 0.185946
0.279576 0.586542 0.176059
0.313481 0.574975 0.161685
0.347295 0.563256 0.146365
0.397681 0.564752 0.151400
0.440284 0.556207 0.140108
0.485359 0.549615 0.138399
0.529961 0.541772 0.131258
0.582666 0.543084 0.136629
0.623682 0.517784 0.124392
0.079438 0.569787 0.176791
0.086610 0.578576 0.176150
0.095399 0.588006 0.175906
0.113466 0.599878 0.181094
0.133333 0.612451 0.190372
0.161563 0.622522 0.199039
0.203433 0.629389 0.208194
0.242985 0.635462 0.216312
0.281743 0.636957 0.216373
0.316655 0.626184 0.201602
0.349798 0.614679 0.186587
0.381811 0.603571 0.172122
0.433234 0.599481 0.173007
0.483558 0.595117 0.178195
0.524010 0.579705 0.160098
0.567987 0.569024 0.148470
0.608270 0.544427 0.135714
0.085115 0.603143 0.197971
0.092103 0.611688 0.197360
0.099214 0.619379 0.197147
0.115785 0.627955 0.201846
0.134707 0.639704 0.211185
0.161837 0.652155 0.227604
0.200931 0.659144 0.239078
0.238529 0.664057 0.247562
0.288823 0.674006 0.260716
0.331151 0.673091 0.259129
0.363592 0.661830 0.244450
0.397253 0.652369 0.228183
0.431586 0.643732 0.211246
0.481788 0.640070 0.217441
0.522240 0.624811 0.199527
0.559319 0.604944 0.172824
0.602106 0.581384 0.157198
0.092287 0.632959 0.221073
0.097963 0.639948 0.220005
0.106477 0.645869 0.220920
0.117220 0.651637 0.224704
0.137331 0.662318 0.234684
0.169863 0.674769 0.255833
0.200290 0.684901 0.274296
0.242649 0.691737 0.284947
0.294347 0.702449 0.298924
0.340490 0.710109 0.307225
0.376471 0.705409 0.297704
0.410803 0.696986 0.280522
0.444709 0.688655 0.263554
0.480903 0.678126 0.247196
0.525811 0.668391 0.239261
0.571130 0.655055 0.231907
0.604761 0.629847 0.191775
0.100984 0.661952 0.244633
0.105074 0.665095 0.243076
0.113924 0.670314 0.244388
0.122683 0.675227 0.247715
0.146212 0.684321 0.264042
0.177737 0.696284 0.285313
0.206271 0.707057 0.305425
0.251316 0.718807 0.329656
0.302098 0.728878 0.344884
0.351080 0.738277 0.359045
0.397955 0.742794 0.356847
0.438239 0.739712 0.345525
0.472267 0.731350 0.328496
0.508202 0.722652 0.311437
0.547570 0.715908 0.293553
0.593500 0.703883 0.287694
0.627436 0.680049 0.249241
0.115145 0.689784 0.276646
0.115663 0.689693 0.271916
0.122469 0.693599 0.271885
0.134035 0.698787 0.278080
0.154391 0.705440 0.298100
0.183474 0.716762 0.318944
0.219181 0.729122 0.342870
0.264347 0.742275 0.373114
0.310246 0.754299 0.398016
0.360082 0.764920 0.413306
0.409949 0.771847 0.414618
0.458381 0.777310 0.412299
0.499184 0.775235 0.401099
0.534112 0.769223 0.383856
0.574548 0.762325 0.365454
0.616938 0.755093 0.346197
0.652705 0.733425 0.312840
0.133577 0.721401 0.312352
0.134066 0.721309 0.307744
0.135012 0.721523 0.303716
0.149386 0.725460 0.312322
0.168765 0.731319 0.330938
0.189242 0.739834 0.352605
0.231785 0.752499 0.381415
0.274998 0.765072 0.411444
0.316899 0.777279 0.440589
0.371618 0.791531 0.469581
0.423590 0.800046 0.476509
0.472541 0.805173 0.474830
0.522576 0.810849 0.474250
0.566796 0.812894 0.467262
0.608118 0.805844 0.448432
0.650874 0.798611 0.428168
0.687160 0.793057 0.404059
0.045319 0.025971 0.050721
0.072206 0.027344 0.051270
0.119112 0.035187 0.057404
0.166598 0.042695 0.062562
0.225467 0.045075 0.070558
0.286778 0.052369 0.072053
0.352911 0.056916 0.073915
0.418097 0.059785 0.079377
0.472389 0.066133 0.078279
0.518334 0.072847 0.081361
0.565301 0.076844 0.083345
0.610895 0.079805 0.086305
0.643366 0.087282 0.085084
0.675837 0.094759 0.087831
0.706844 0.098756 0.090394
0.742702 0.101167 0.093660
0.768734 0.104494 0.094423
0.045899 0.054688 0.063813
0.071504 0.055879 0.061494
0.124086 0.066560 0.067659
0.177890 0.072541 0.068727
0.238804 0.079042 0.072389
0.302647 0.086946 0.074556
0.365209 0.094759 0.077699
0.420874 0.102144 0.080781
0.470954 0.108949 0.080781
0.516381 0.116670 0.083101
0.557977 0.125093 0.087648
0.595148 0.131136 0.089784
0.630701 0.139193 0.090761
0.665400 0.142916 0.091951
0.697230 0.145480 0.092653
0.729458 0.148867 0.095796
0.760311 0.147280 0.097841
0.053620 0.109071 0.083040
0.078614 0.114809 0.080659
0.107240 0.118929 0.072541
0.160861 0.126436 0.073610
0.213169 0.134554 0.073152
0.275822 0.143130 0.073854
0.338048 0.149538 0.076539
0.393500 0.161959 0.080049
0.445319 0.171054 0.081025
0.491463 0.177005 0.083314
0.533898 0.186069 0.088380
0.573510 0.197787 0.091890
0.610651 0.206851 0.093172
0.645838 0.208896 0.094301
0.678309 0.209842 0.095125
0.712489 0.211246 0.098573
0.744442 0.205936 0.100221
0.059113 0.161624 0.096986
0.076997 0.174960 0.095735
0.104280 0.179355 0.087709
0.144289 0.185122 0.080232
0.196201 0.190707 0.080476
0.252445 0.197299 0.078920
0.312505 0.207980 0.078157
0.368811 0.220127 0.081331
0.421424 0.228672 0.081422
0.470100 0.239628 0.085756
0.514702 0.251102 0.092348
0.554925 0.260838 0.095766
0.592126 0.269413 0.096468
0.628199 0.273503 0.098146
0.661952 0.274815 0.100313
0.696590 0.274327 0.103609
0.729213 0.263035 0.103090
0.057832 0.226749 0.111025
0.077699 0.234592 0.106020
0.100893 0.238529 0.100343
0.139101 0.248264 0.093599
0.175662 0.246464 0.085939
0.231479 0.251896 0.087312
0.287114 0.255222 0.082734
0.338231 0.260990 0.083589
0.393286 0.274479 0.084962
0.444343 0.284794 0.088350
0.495521 0.299870 0.095064
0.538537 0.310918 0.099031
0.577600 0.320043 0.099672
0.614038 0.325261 0.101991
0.650690 0.328710 0.104524
0.687190 0.329320 0.108217
0.719326 0.314885 0.107332
0.059419 0.282902 0.118715
0.079164 0.294102 0.115267
0.101564 0.298589 0.111116
0.132021 0.308476 0.107454
0.174624 0.311589 0.101259
0.211582 0.308080 0.093599
0.267613 0.309117 0.093843
0.316869 0.311925 0.094759
0.367163 0.316960 0.088930
0.417792 0.325353 0.091676
0.470832 0.341650 0.098787
0.518486 0.354284 0.103334
0.563684 0.364324 0.103609
0.600488 0.369024 0.106355
0.636652 0.370245 0.107851
0.678035 0.374456 0.112245
0.711269 0.359960 0.110994
0.061463 0.335821 0.126986
0.080659 0.348669 0.125795
0.101534 0.353735 0.122072
0.131777 0.366613 0.123171
0.166903 0.373419 0.120821
0.209232 0.372961 0.114046
0.249851 0.366949 0.105684
0.299199 0.364813 0.106996
0.349035 0.365667 0.103578
0.395819 0.368566 0.098634
0.446815 0.380468 0.103609
0.496132 0.393500 0.107729
0.542260 0.403510 0.108248
0.587060 0.410193 0.112123
0.624018 0.408850 0.112154
0.665675 0.413123 0.116823
0.701778 0.399542 0.114931
0.063081 0.390600 0.140597
0.084779 0.397253 0.138521
0.103304 0.408148 0.138003
0.135103 0.420447 0.140169
0.162173 0.430060 0.141543
0.205814 0.432563 0.139254
0.247227 0.429633 0.132479
0.283360 0.421454 0.121798
0.331579 0.419409 0.121950
0.379400 0.416999 0.118715
0.425605 0.418769 0.112306
0.473152 0.426551 0.112947
0.520195 0.436011 0.118563
0.567132 0.444923 0.122316
0.608087 0.439338 0.116823
0.650996 0.441627 0.119905
0.688106 0.429786 0.118624
0.066316 0.438209 0.155642
0.084474 0.443397 0.153658
0.101167 0.457130 0.154543
0.126162 0.469459 0.156100
0.160891 0.480537 0.161288
0.199344 0.489418 0.168521
0.242252 0.489754 0.164126
0.279545 0.481025 0.151919
0.314580 0.471656 0.139834
0.362860 0.467842 0.136110
0.411597 0.466346 0.135500
0.457130 0.466499 0.132967
0.499702 0.466529 0.128023
0.546929 0.475563 0.132174
0.589014 0.469947 0.124880
0.635035 0.461585 0.123415
0.673457 0.448432 0.121950
0.070497 0.480079 0.171237
0.088716 0.486152 0.170504
0.105348 0.499855 0.171572
0.121706 0.512871 0.172885
0.159915 0.524102 0.180270
0.195682 0.531945 0.187137
0.240696 0.541558 0.197665
0.280369 0.537560 0.189700
0.314488 0.528435 0.177890
0.350378 0.519921 0.164370
0.400244 0.518029 0.165988
0.446113 0.513817 0.162722
0.486061 0.506432 0.150240
0.527764 0.504509 0.141573
0.575586 0.504082 0.140078
0.624414 0.498756 0.141939
0.660334 0.467292 0.124514
0.075502 0.521813 0.191684
0.089784 0.524620 0.189212
0.105135 0.537499 0.190097
0.124544 0.549340 0.192752
0.150088 0.560693 0.198703
0.187045 0.568841 0.206973
0.238041 0.581872 0.223941
0.280461 0.586908 0.229862
0.317205 0.581292 0.219638
0.353063 0.573053 0.205875
0.386938 0.563561 0.191867
0.434485 0.561059 0.190219
0.478645 0.554528 0.182803
0.524285 0.548089 0.177981
0.564782 0.539086 0.157656
0.614191 0.534569 0.159854
0.648371 0.496620 0.137026
0.080812 0.562646 0.214389
0.095155 0.560601 0.208591
0.107424 0.570367 0.209445
0.128023 0.581537 0.212741
0.147677 0.593439 0.218296
0.187167 0.605310 0.232547
0.235966 0.616968 0.249577
0.278813 0.625544 0.262577
0.323583 0.628504 0.264439
0.360357 0.622278 0.253147
0.393988 0.613916 0.239841
0.427710 0.604486 0.223514
0.476997 0.600763 0.223239
0.523095 0.594812 0.218936
0.559564 0.579004 0.189456
0.602991 0.567895 0.176242
0.640955 0.535912 0.158663
0.086519 0.596216 0.234684
0.100557 0.592798 0.230686
0.109407 0.598352 0.231846
0.128634 0.608789 0.234928
0.150301 0.619898 0.241978
0.182376 0.632685 0.262821
0.229587 0.644160 0.279149
0.278874 0.655848 0.295323
0.329961 0.666835 0.308629
0.372076 0.668299 0.307836
0.406836 0.662104 0.296147
0.441413 0.653925 0.279362
0.475227 0.645624 0.262455
0.521324 0.640009 0.258427
0.557763 0.624506 0.229221
0.600519 0.606439 0.208896
0.641047 0.580682 0.187045
0.093690 0.626276 0.256809
0.109590 0.626215 0.256016
0.118410 0.631373 0.257298
0.131014 0.638453 0.259251
0.157443 0.647486 0.267643
0.188510 0.660182 0.287694
0.222843 0.672297 0.306401
0.278996 0.686915 0.327123
0.328405 0.697719 0.340185
0.377081 0.708095 0.353582
0.420142 0.710414 0.353582
0.454383 0.703212 0.338415
0.488472 0.694850 0.321355
0.522759 0.687129 0.304173
0.567895 0.675624 0.290745
0.612696 0.659602 0.275181
0.642298 0.629236 0.217380
0.106691 0.657313 0.282872
0.120790 0.658625 0.284550
0.129366 0.663661 0.285801
0.139864 0.667872 0.289311
0.163577 0.674708 0.297337
0.193484 0.686244 0.316930
0.229862 0.699062 0.340826
0.279881 0.713314 0.367620
0.329351 0.723903 0.382666
0.379126 0.734798 0.396887
0.433295 0.747555 0.411963
0.476722 0.749538 0.410559
0.511040 0.741115 0.393378
0.544945 0.735439 0.376257
0.580316 0.729915 0.358373
0.625391 0.715053 0.344274
0.655421 0.686610 0.288884
0.129122 0.689082 0.320653
0.134096 0.690883 0.316533
0.142000 0.695399 0.317449
0.155612 0.698573 0.324224
0.168948 0.701717 0.331182
0.197238 0.711971 0.349493
0.242466 0.725582 0.378454
0.286778 0.738857 0.406867
0.331579 0.750912 0.431281
0.384619 0.763180 0.447120
0.438483 0.775906 0.463172
0.492287 0.787442 0.476478
0.535515 0.788357 0.468116
0.570184 0.782925 0.450599
0.606317 0.777279 0.432319
0.647608 0.770474 0.412085
0.682948 0.745937 0.375738
0.147189 0.720760 0.355138
0.158083 0.722133 0.357549
0.156832 0.721462 0.353307
0.170199 0.724575 0.359991
0.182925 0.727535 0.366308
0.208194 0.734951 0.388586
0.250950 0.747646 0.417487
0.293400 0.760311 0.445747
0.340795 0.773648 0.474403
0.399542 0.788754 0.504143
0.454170 0.801297 0.521691
0.509331 0.813931 0.538415
0.559197 0.820920 0.540734
0.607202 0.824857 0.536522
0.644587 0.819028 0.517601
0.681025 0.813931 0.496040
0.718898 0.808133 0.470893
0.051637 0.028077 0.086458
0.075990 0.027436 0.083375
0.108431 0.029480 0.082429
0.152468 0.036408 0.090883
0.205112 0.040436 0.094820
0.267521 0.045594 0.102846
0.336400 0.049714 0.104799
0.402380 0.053468 0.106996
0.458534 0.059480 0.105470
0.509575 0.064424 0.106752
0.559350 0.067536 0.105135
0.605066 0.070710 0.107637
0.637781 0.078401 0.105837
0.672663 0.083131 0.106600
0.707240 0.086946 0.101717
0.743069 0.089631 0.104707
0.769223 0.093446 0.104463
0.051698 0.057588 0.100618
0.078157 0.057557 0.101259
0.112947 0.057282 0.098207
0.167636 0.062257 0.098054
0.225040 0.067506 0.101503
0.292332 0.071687 0.105501
0.357458 0.079316 0.103212
0.416907 0.085054 0.103975
0.472908 0.085817 0.107057
0.519677 0.091737 0.106325
0.562036 0.099886 0.103120
0.600397 0.104433 0.104036
0.637324 0.104738 0.105653
0.672511 0.107424 0.105653
0.705440 0.110140 0.100038
0.738369 0.112795 0.100801
0.769467 0.110872 0.102083
0.048829 0.096010 0.113222
0.072663 0.102266 0.116487
0.114473 0.104219 0.111482
0.169619 0.113405 0.115602
0.230655 0.117647 0.112398
0.294377 0.123049 0.112581
0.359014 0.132753 0.115969
0.416846 0.137026 0.113893
0.467201 0.145968 0.119112
0.511589 0.149935 0.116182
0.553948 0.158328 0.119875
0.591119 0.157412 0.113558
0.627131 0.163821 0.116030
0.660426 0.164126 0.113893
0.695949 0.163607 0.110964
0.731044 0.155978 0.105348
0.765927 0.153017 0.107729
0.053651 0.150088 0.131411
0.071138 0.163180 0.129793
0.114870 0.166415 0.129641
0.152956 0.172091 0.122866
0.213687 0.178866 0.120974
0.272282 0.186282 0.117250
0.334539 0.193729 0.116701
0.393042 0.196292 0.114595
0.445197 0.207767 0.121736
0.492378 0.215061 0.120180
0.535210 0.221744 0.123751
0.572931 0.219028 0.117342
0.610224 0.228092 0.121096
0.644251 0.229465 0.119417
0.679957 0.227054 0.116030
0.715511 0.217685 0.110262
0.751095 0.208255 0.110231
0.052461 0.212894 0.141421
0.073945 0.221988 0.141970
0.108980 0.227756 0.141848
0.147951 0.233585 0.135683
0.197696 0.239750 0.131289
0.256077 0.244419 0.128267
0.314946 0.251102 0.125368
0.372229 0.256779 0.120943
0.425635 0.268162 0.126955
0.473854 0.274998 0.124544
0.517815 0.282994 0.128511
0.557610 0.284825 0.124331
0.595758 0.293706 0.128695
0.630152 0.293523 0.126833
0.665217 0.288182 0.121645
0.701137 0.277897 0.116030
0.737697 0.269047 0.117494
0.054749 0.270604 0.152529
0.075837 0.282536 0.151919
0.107546 0.285954 0.152163
0.145174 0.293004 0.149935
0.192935 0.302831 0.146792
0.237278 0.301366 0.139864
0.295872 0.305303 0.139559
0.353002 0.310430 0.133577
0.402319 0.313787 0.131258
0.451209 0.321447 0.130312
0.497078 0.330816 0.134920
0.537499 0.334264 0.131228
0.581537 0.344335 0.134157
0.617304 0.344579 0.131624
0.653132 0.341070 0.128389
0.689509 0.329931 0.121614
0.727169 0.321050 0.122866
0.057649 0.325017 0.162722
0.077333 0.337316 0.160922
0.111452 0.341741 0.163790
0.143099 0.351019 0.165011
0.185122 0.362066 0.164279
0.235264 0.365393 0.160098
0.276646 0.359655 0.151949
0.334356 0.360418 0.148623
0.385229 0.364141 0.150362
0.429786 0.364538 0.139254
0.474556 0.371527 0.141695
0.515923 0.374395 0.136782
0.561242 0.384344 0.141512
0.604334 0.385657 0.137942
0.641352 0.381811 0.134371
0.677516 0.369268 0.126406
0.719722 0.362676 0.126253
0.059205 0.378393 0.172488
0.082094 0.386664 0.172000
0.113741 0.391913 0.175875
0.144503 0.400885 0.177066
0.182620 0.414771 0.182406
0.229435 0.420020 0.180514
0.272404 0.418372 0.173983
0.317174 0.413489 0.167056
0.368933 0.413367 0.168521
0.414099 0.411139 0.158846
0.456947 0.413275 0.153079
0.497597 0.414710 0.148440
0.543328 0.423407 0.150942
0.586511 0.424964 0.147829
0.628962 0.420356 0.140902
0.666285 0.406775 0.131289
0.709926 0.402502 0.132845
0.063142 0.426825 0.187472
0.084138 0.434821 0.189364
0.114870 0.436927 0.189120
0.143954 0.447150 0.191287
0.185061 0.460273 0.198245
0.224399 0.472755 0.205356
0.270024 0.472999 0.200717
0.314946 0.470771 0.195254
0.352605 0.463691 0.185855
0.400641 0.460426 0.181308
0.447181 0.457984 0.180331
0.485237 0.456764 0.167727
0.525841 0.459815 0.159976
0.568780 0.460914 0.158602
0.615076 0.459541 0.154482
0.657526 0.447059 0.139895
0.700557 0.440772 0.139803
0.069673 0.471046 0.206210
0.088746 0.478096 0.205905
0.116609 0.478340 0.206271
0.139223 0.489876 0.209537
0.178408 0.501091 0.215702
0.218631 0.514366 0.224857
0.268193 0.524804 0.237156
0.313207 0.525200 0.234043
0.353399 0.520470 0.225681
0.389288 0.512200 0.211856
0.436133 0.508415 0.210086
0.474922 0.503136 0.197208
0.512535 0.499947 0.182284
0.555474 0.495338 0.174228
0.604334 0.496376 0.173251
0.648005 0.484230 0.156313
0.687465 0.464027 0.144076
0.075929 0.514092 0.227604
0.089906 0.516899 0.223667
0.121187 0.517571 0.225650
0.141726 0.528679 0.228916
0.170413 0.539055 0.233249
0.217533 0.552514 0.244755
0.266606 0.565087 0.260533
0.312596 0.572625 0.268589
0.356451 0.573144 0.265415
0.391546 0.565057 0.251926
0.425422 0.557275 0.238895
0.467445 0.552300 0.230625
0.511589 0.548302 0.226474
0.552117 0.538628 0.210269
0.593652 0.531762 0.191501
0.637629 0.520867 0.175875
0.674861 0.490822 0.153994
0.081910 0.555596 0.250156
0.098604 0.554528 0.245457
0.126101 0.554589 0.247074
0.146090 0.565423 0.250278
0.167941 0.575128 0.254612
0.213443 0.586877 0.266300
0.259709 0.598596 0.282017
0.311437 0.612085 0.300572
0.361669 0.619989 0.310185
0.398291 0.615167 0.299809
0.432319 0.608209 0.287205
0.467353 0.603082 0.275364
0.511528 0.598413 0.270634
0.552026 0.587762 0.253574
0.588617 0.573388 0.223972
0.629816 0.559503 0.198520
0.674800 0.536980 0.185702
0.089693 0.590356 0.271214
0.111269 0.590326 0.272251
0.127932 0.589471 0.271305
0.147433 0.600031 0.274418
0.174258 0.608301 0.281163
0.204410 0.618219 0.290044
0.249424 0.629664 0.305394
0.306706 0.645045 0.326970
0.363470 0.660212 0.348638
0.405188 0.661952 0.348486
0.441901 0.658503 0.338537
0.476478 0.653407 0.326818
0.511040 0.647608 0.313878
0.551904 0.638209 0.298009
0.593500 0.626032 0.277501
0.632166 0.607050 0.239445
0.674830 0.584405 0.218357
0.103090 0.623224 0.297459
0.120882 0.624170 0.297154
0.135256 0.624079 0.296147
0.153994 0.630762 0.300511
0.181064 0.638727 0.307439
0.207126 0.647211 0.315007
0.248814 0.660243 0.336614
0.305699 0.674800 0.359472
0.360967 0.689021 0.381750
0.413794 0.701503 0.399115
0.457832 0.704738 0.399634
0.493294 0.700465 0.389105
0.528161 0.695247 0.377142
0.562188 0.689570 0.359960
0.605341 0.679683 0.343511
0.643977 0.662226 0.306554
0.675685 0.633112 0.248631
0.118013 0.655268 0.324224
0.131777 0.656641 0.324651
0.148836 0.656092 0.327062
0.162448 0.659266 0.333837
0.186679 0.666255 0.340520
0.212345 0.673884 0.347356
0.256321 0.687709 0.374151
0.305241 0.702052 0.399542
0.358862 0.716365 0.421180
0.412909 0.729885 0.439399
0.466072 0.742763 0.453895
0.511162 0.748043 0.456977
0.546807 0.745632 0.447364
0.581811 0.740963 0.431189
0.618067 0.735317 0.412848
0.657130 0.719692 0.378180
0.691981 0.692927 0.327306
0.140719 0.687373 0.361425
0.145327 0.689113 0.355962
0.167483 0.692317 0.361151
0.180758 0.695399 0.367773
0.193454 0.698360 0.374090
0.224338 0.706233 0.383703
0.265934 0.719142 0.408148
0.308690 0.733211 0.435615
0.356191 0.746914 0.462104
0.411810 0.760525 0.482612
0.465309 0.773220 0.498146
0.519951 0.786191 0.514000
0.568261 0.795193 0.522698
0.604303 0.791165 0.507439
0.641749 0.785306 0.488533
0.678981 0.782437 0.471565
0.717281 0.758480 0.429877
0.160067 0.720027 0.395880
0.183444 0.725246 0.401038
0.192538 0.726406 0.405707
0.205509 0.729427 0.412177
0.219760 0.733089 0.419562
0.238132 0.738491 0.429603
0.275486 0.749599 0.452003
0.317327 0.762966 0.480110
0.368383 0.776608 0.507378
0.420508 0.790463 0.534813
0.475227 0.803677 0.554498
0.528222 0.816007 0.570764
0.582330 0.828305 0.586847
0.634302 0.835569 0.590051
0.673121 0.832181 0.573419
0.710781 0.830320 0.556909
0.750851 0.825864 0.533898
0.060334 0.033204 0.128145
0.076112 0.029725 0.119753
0.111818 0.030762 0.116670
0.141848 0.032410 0.115633
0.192447 0.035889 0.125887
0.254124 0.042267 0.130159
0.323461 0.046510 0.133089
0.390112 0.050874 0.138705
0.447883 0.055482 0.138735
0.499977 0.059510 0.139345
0.550683 0.062104 0.135195
0.598871 0.064607 0.134005
0.634211 0.068513 0.131746
0.669795 0.072389 0.131319
