assets/luts/impulz-kodak-ultramax-400-fpe-rec709-84770bce.cube
# (C) 2014 VisionColor & Patchflyer [www.vision-color.com]
# Generator: VC Patchmatch v.2.1.1 [64/53]
# All work and no play makes Jack a dull boy.
# LUT generated from: Kodak Ultramax 400_FPE
LUT_3D_SIZE 17
0.036164 0.042237 0.043580
0.048829 0.043091 0.042573
0.078126 0.048157 0.042664
0.112001 0.053925 0.045228
0.152590 0.056519 0.044800
0.200656 0.064942 0.049165
0.243687 0.066560 0.050355
0.283177 0.066041 0.051637
0.323125 0.071778 0.055085
0.358709 0.075532 0.059083
0.389105 0.073457 0.058289
0.418738 0.077821 0.058839
0.443427 0.077852 0.065187
0.470924 0.083711 0.071260
0.493294 0.080507 0.071077
0.517113 0.085542 0.070680
0.530419 0.074250 0.073518
0.040284 0.052857 0.044465
0.076173 0.064790 0.044373
0.110140 0.071046 0.044556
0.163912 0.082155 0.046357
0.221927 0.096010 0.045502
0.271122 0.097780 0.050294
0.318761 0.105745 0.051331
0.362921 0.115755 0.052216
0.396155 0.113527 0.056428
0.426764 0.114931 0.061158
0.458167 0.123384 0.060487
0.486610 0.129671 0.061006
0.507866 0.125643 0.067262
0.528954 0.128725 0.073762
0.546838 0.124086 0.072938
0.568963 0.127932 0.072480
0.580255 0.114137 0.075227
0.053712 0.076051 0.045716
0.093751 0.091341 0.046265
0.152132 0.109438 0.046754
0.207645 0.123720 0.049134
0.281010 0.136080 0.046571
0.338415 0.151064 0.052094
0.389715 0.158755 0.052918
0.434730 0.164004 0.053468
0.470588 0.174350 0.057801
0.500542 0.181643 0.062257
0.526482 0.181308 0.062318
0.550713 0.183688 0.063539
0.570459 0.189151 0.070344
0.589868 0.193912 0.076967
0.605463 0.185885 0.075929
0.619806 0.174258 0.074739
0.630701 0.166934 0.077333
0.076600 0.110567 0.050446
0.124086 0.132906 0.050172
0.193393 0.157626 0.050050
0.261295 0.174411 0.050385
0.341070 0.197330 0.047852
0.397864 0.205234 0.054505
0.450752 0.217380 0.056428
0.499336 0.233036 0.057038
0.533532 0.238499 0.061769
0.562737 0.243748 0.066560
0.587335 0.248661 0.067353
0.610834 0.252567 0.068269
0.628992 0.255863 0.074647
0.645808 0.257267 0.080690
0.658320 0.250187 0.079896
0.670100 0.239597 0.078950
0.681025 0.228855 0.081514
0.121279 0.165225 0.046326
0.179202 0.189303 0.046693
0.245426 0.218753 0.046815
0.331884 0.243229 0.048035
0.402991 0.259037 0.049165
0.455421 0.271092 0.056428
0.508843 0.283604 0.059602
0.558770 0.296605 0.060304
0.589410 0.302342 0.065827
0.616022 0.308843 0.071107
0.641138 0.312474 0.072236
0.664179 0.315373 0.073304
0.678676 0.316899 0.079255
0.689296 0.316289 0.084352
0.704494 0.310491 0.083497
0.717250 0.300847 0.082887
0.727626 0.289433 0.085420
0.184268 0.225956 0.048920
0.235294 0.248539 0.050294
0.301396 0.276677 0.052247
0.377722 0.303838 0.056458
0.455756 0.325444 0.058564
0.510155 0.336400 0.062226
0.559106 0.344884 0.064912
0.604883 0.353582 0.067475
0.636713 0.362036 0.073243
0.660975 0.367620 0.078462
0.686610 0.370031 0.078706
0.707881 0.371527 0.081025
0.718807 0.372351 0.084932
0.728664 0.370855 0.089235
0.743191 0.364569 0.088197
0.754971 0.354803 0.088258
0.760647 0.340215 0.089845
0.247807 0.284245 0.051301
0.292302 0.305241 0.053559
0.352850 0.330144 0.056275
0.423957 0.357305 0.060853
0.499260 0.380285 0.065858
0.558495 0.394720 0.069459
0.606302 0.404974 0.074342
0.649683 0.410864 0.076692
0.675166 0.414252 0.081819
0.701381 0.419959 0.087037
0.724300 0.420661 0.088563
0.741939 0.420691 0.092653
0.755123 0.421515 0.094484
0.764736 0.421180 0.098360
0.773922 0.411170 0.096773
0.781704 0.398718 0.097383
0.787503 0.381933 0.096101
0.307897 0.337896 0.049714
0.352911 0.358709 0.053254
0.399603 0.380377 0.057038
0.469612 0.404730 0.062928
0.539574 0.427192 0.070039
0.600916 0.445594 0.075929
0.649012 0.456886 0.080995
0.693111 0.466407 0.085634
0.713985 0.463478 0.090394
0.732754 0.461158 0.095003
0.758267 0.466316 0.097536
0.775998 0.467323 0.102693
0.787839 0.465858 0.103120
0.793515 0.459174 0.104952
0.799924 0.451972 0.104341
0.806882 0.440284 0.106142
0.813779 0.423651 0.104128
0.353002 0.379126 0.053132
0.392004 0.398535 0.057069
0.436439 0.418189 0.061463
0.496345 0.438483 0.068971
0.561090 0.458412 0.076387
0.622248 0.476570 0.085878
0.673060 0.490364 0.092470
0.712978 0.497902 0.095918
0.742550 0.501976 0.099306
0.762600 0.500267 0.103395
0.786099 0.503777 0.105257
0.803281 0.504540 0.109834
0.813474 0.501732 0.109560
0.818967 0.494911 0.111391
0.824704 0.487068 0.110780
0.832731 0.478523 0.112825
0.836423 0.461067 0.110323
0.386725 0.411261 0.059602
0.415961 0.428534 0.063355
0.465950 0.448005 0.069520
0.517815 0.466285 0.076356
0.578912 0.485206 0.084657
0.639551 0.503197 0.093996
0.691066 0.517906 0.102327
0.730404 0.525658 0.105318
0.761288 0.530205 0.108278
0.786404 0.533379 0.111818
0.806516 0.532097 0.112886
0.822263 0.530632 0.116823
0.831968 0.529046 0.116365
0.839628 0.526360 0.118624
0.846036 0.518883 0.117556
0.850309 0.507713 0.117739
0.855558 0.494453 0.114626
0.407141 0.436683 0.062654
0.439277 0.453223 0.067109
0.487434 0.471504 0.073487
0.536339 0.488289 0.079622
0.593957 0.505302 0.087984
0.653651 0.522484 0.096468
0.701778 0.535088 0.103975
0.745388 0.545556 0.110048
0.779507 0.551720 0.112947
0.802976 0.554955 0.116548
0.825376 0.558160 0.120089
0.840757 0.556176 0.123873
0.849973 0.553948 0.123232
0.854520 0.550286 0.124727
0.859098 0.545068 0.124483
0.863066 0.533928 0.125277
0.870115 0.520958 0.121370
0.419806 0.457862 0.063783
0.461799 0.474525 0.069459
0.504143 0.491035 0.075135
0.555901 0.507530 0.082460
0.610285 0.523766 0.091218
0.665309 0.539971 0.099947
0.711055 0.551690 0.107942
0.754330 0.562615 0.115541
0.791989 0.571069 0.120302
0.815457 0.574670 0.123842
0.837400 0.577813 0.127321
0.858579 0.580804 0.130678
0.864378 0.576043 0.128481
0.866819 0.570733 0.129030
0.871672 0.566735 0.129427
0.875456 0.559503 0.132570
0.883513 0.547173 0.128450
0.424567 0.473945 0.066194
0.465644 0.490211 0.071748
0.509514 0.506615 0.077790
0.566705 0.523583 0.086519
0.618524 0.538811 0.093782
0.671351 0.554040 0.102174
0.717037 0.565728 0.109316
0.758572 0.575891 0.115633
0.795285 0.584558 0.121157
0.823331 0.590570 0.125887
0.844816 0.593622 0.129274
0.862089 0.595300 0.131411
0.876249 0.596094 0.132784
0.878935 0.590906 0.133242
0.883848 0.586999 0.133669
0.888945 0.583124 0.138216
0.893065 0.572168 0.134981
0.418738 0.485481 0.065400
0.457832 0.500572 0.070619
0.516564 0.519829 0.079042
0.572992 0.536889 0.087343
0.623529 0.551415 0.095186
0.676326 0.566461 0.104921
0.721950 0.578912 0.113283
0.761196 0.588464 0.119722
0.795865 0.596613 0.125185
0.826871 0.603723 0.130373
0.848753 0.607630 0.134005
0.863615 0.608545 0.135409
0.878264 0.609430 0.136782
0.888457 0.609400 0.138125
0.894011 0.606043 0.138186
0.898741 0.601526 0.139712
0.903014 0.596918 0.138857
0.414771 0.497688 0.067262
0.461311 0.513115 0.073548
0.524102 0.533013 0.082643
0.579705 0.550072 0.090852
0.629999 0.564233 0.099428
0.681422 0.578851 0.108583
0.727291 0.591638 0.116762
0.763760 0.600732 0.122988
0.797757 0.608667 0.128084
0.830472 0.616358 0.133059
0.851102 0.621057 0.136965
0.867491 0.623377 0.139193
0.882200 0.624292 0.140566
0.893828 0.624414 0.141848
0.900511 0.623011 0.142702
0.905394 0.618952 0.144350
0.909972 0.614801 0.143496
0.406195 0.508049 0.067750
0.463020 0.524742 0.074769
0.522820 0.543389 0.083192
0.580682 0.561059 0.091859
0.635462 0.576379 0.100984
0.685847 0.590936 0.110262
0.730892 0.603845 0.119203
0.766049 0.612970 0.126131
0.799985 0.621668 0.132479
0.831266 0.629450 0.137575
0.851926 0.634668 0.141634
0.870604 0.639338 0.145754
0.887175 0.641688 0.148348
0.898314 0.640162 0.147402
0.905180 0.638727 0.148287
0.912413 0.637232 0.149203
0.917021 0.633387 0.148287
0.409064 0.522332 0.071107
0.464363 0.538598 0.077943
0.517571 0.554284 0.084596
0.583795 0.573999 0.096834
0.636835 0.588586 0.105592
0.689143 0.604181 0.114656
0.732113 0.616876 0.124239
0.766445 0.625513 0.129702
0.799619 0.633875 0.135012
0.828061 0.641291 0.139437
0.850584 0.646723 0.142214
0.868589 0.650874 0.145113
0.885710 0.654353 0.147494
0.900328 0.655360 0.148898
0.907500 0.653895 0.149752
0.914977 0.652308 0.150698
0.923156 0.650507 0.151583
0.033997 0.041810 0.057130
0.046601 0.044007 0.060975
0.075349 0.047913 0.061158
0.113100 0.053071 0.063081
0.152346 0.054719 0.067170
0.198947 0.060182 0.069032
0.238926 0.060853 0.069154
0.273777 0.060395 0.072419
0.307561 0.062257 0.072572
0.341131 0.065064 0.075257
0.368872 0.062226 0.074861
0.394476 0.061158 0.078035
0.422126 0.066346 0.079896
0.448524 0.071504 0.084077
0.469581 0.067750 0.083192
0.490059 0.063966 0.085237
0.509483 0.064912 0.083375
0.035218 0.059998 0.065095
0.064881 0.071382 0.073762
0.103853 0.078828 0.073426
0.153933 0.085115 0.073365
0.199802 0.090547 0.075471
0.249454 0.097017 0.076143
0.295079 0.102235 0.080385
0.334997 0.106294 0.083314
0.372259 0.108827 0.082216
0.404608 0.114107 0.086336
0.433570 0.120180 0.092561
0.461494 0.123049 0.095766
0.488167 0.128176 0.096895
0.514000 0.133516 0.102419
0.534691 0.128481 0.107149
0.556481 0.128450 0.109834
0.573297 0.118837 0.103487
0.047791 0.085298 0.067994
0.086488 0.103975 0.076356
0.149966 0.123751 0.076936
0.202731 0.133120 0.077058
0.269841 0.145754 0.077516
0.323583 0.154940 0.076936
0.368200 0.155856 0.081086
0.410559 0.166079 0.083833
0.447333 0.175204 0.082368
0.477516 0.178592 0.086488
0.501976 0.180697 0.094057
0.525353 0.186984 0.098817
0.549310 0.193179 0.099977
0.573602 0.196902 0.105409
0.592462 0.190646 0.110231
0.607202 0.182956 0.112703
0.623377 0.175479 0.105715
0.067536 0.123995 0.072206
0.123690 0.152071 0.079347
0.185916 0.172305 0.080018
0.259678 0.194553 0.083436
0.322667 0.205020 0.084840
0.384619 0.213993 0.084077
0.435218 0.225742 0.085115
0.477729 0.235142 0.087434
0.516045 0.239689 0.083680
0.545739 0.247898 0.088899
0.567926 0.254246 0.098024
0.589288 0.258274 0.102663
0.610376 0.260227 0.103456
0.628595 0.261387 0.109682
0.644587 0.258671 0.115541
0.657832 0.248997 0.117891
0.671443 0.231785 0.108492
0.102510 0.177218 0.079683
0.172396 0.206027 0.081331
0.235660 0.229557 0.082979
0.310704 0.255131 0.085451
0.384009 0.273381 0.086854
0.439704 0.281498 0.088533
0.492378 0.291081 0.088563
0.533654 0.299229 0.092531
0.567529 0.305394 0.089693
0.598016 0.312169 0.093721
0.621973 0.318547 0.103273
0.641169 0.321752 0.107912
0.657069 0.320592 0.106386
0.673854 0.321508 0.113191
0.691463 0.319951 0.119326
0.705074 0.310430 0.122042
0.712856 0.288701 0.112428
0.155215 0.233310 0.077882
0.226322 0.263584 0.079713
0.287022 0.285496 0.081910
0.355535 0.311772 0.085451
0.433478 0.334905 0.088594
0.499947 0.350317 0.090089
0.540948 0.352361 0.092134
0.578912 0.358373 0.097383
0.614710 0.366308 0.096376
0.644862 0.372412 0.099550
0.663813 0.373236 0.107576
0.680110 0.374914 0.112123
0.696651 0.375616 0.110750
0.712337 0.375525 0.118196
0.727993 0.372351 0.123354
0.738399 0.359197 0.124636
0.746456 0.338598 0.115724
0.210575 0.287663 0.077150
0.272862 0.314580 0.080262
0.329992 0.335637 0.082551
0.397833 0.360693 0.088228
0.470375 0.383398 0.093263
0.536950 0.401190 0.095338
0.588952 0.412299 0.097322
0.622400 0.414252 0.102205
0.652918 0.417670 0.102419
0.681636 0.422004 0.104677
0.698512 0.422461 0.112520
0.715267 0.422797 0.116304
0.731685 0.423621 0.115694
0.742947 0.421515 0.122621
0.753933 0.415137 0.126192
0.763882 0.401740 0.127993
0.775814 0.386053 0.121157
0.257237 0.336614 0.083680
0.323217 0.362219 0.086519
0.371801 0.382025 0.091066
0.437659 0.404273 0.096742
0.503410 0.425666 0.102846
0.566430 0.442878 0.105867
0.621424 0.456062 0.107393
0.661311 0.463569 0.110811
0.687373 0.461006 0.110567
0.709407 0.461311 0.115358
0.731167 0.466316 0.121004
0.747677 0.467109 0.124697
0.756924 0.462257 0.125124
0.768704 0.458747 0.130007
0.779080 0.454994 0.131624
0.788388 0.442390 0.133791
0.798978 0.425635 0.126040
0.293492 0.374517 0.082307
0.354711 0.395880 0.081727
0.406012 0.415381 0.088289
0.464118 0.435645 0.094209
0.528618 0.456489 0.101381
0.591699 0.475654 0.110689
0.648798 0.490730 0.113252
0.686213 0.497475 0.116121
0.720913 0.503105 0.118502
0.742031 0.502312 0.123079
0.756893 0.500481 0.127108
0.771603 0.499916 0.130373
0.781857 0.497871 0.133150
0.793179 0.494026 0.138308
0.805112 0.489479 0.137514
0.810117 0.479377 0.140719
0.817441 0.459663 0.131350
0.323003 0.404700 0.075929
0.384161 0.426673 0.085145
0.435157 0.445747 0.091829
0.485023 0.464118 0.098634
0.549249 0.484169 0.107454
0.609155 0.501732 0.115297
0.665583 0.517937 0.122560
0.706600 0.527001 0.125124
0.740383 0.532525 0.127474
0.769070 0.535912 0.127565
0.782223 0.531853 0.130739
0.793271 0.528710 0.134615
0.803372 0.527642 0.139101
0.816281 0.527398 0.146273
0.824369 0.519158 0.140871
0.827329 0.507500 0.143099
0.837034 0.491585 0.134615
0.338567 0.428534 0.076478
0.396185 0.447547 0.081239
0.444862 0.465827 0.087617
0.502220 0.484901 0.097108
0.562005 0.503777 0.107332
0.619348 0.520439 0.116213
0.674098 0.536431 0.125826
0.719295 0.548150 0.132815
0.752712 0.554223 0.134920
0.779782 0.557061 0.134524
0.804013 0.559960 0.135805
0.816220 0.557580 0.138643
0.825345 0.555108 0.141543
0.832303 0.551659 0.148989
0.841001 0.546349 0.143374
0.843839 0.534630 0.145449
0.854032 0.521141 0.138155
0.346227 0.448402 0.080995
0.410651 0.467628 0.087800
0.458076 0.484779 0.095003
0.518120 0.503899 0.105623
0.574365 0.521721 0.115358
0.627558 0.537163 0.123873
0.680354 0.552209 0.132113
0.727260 0.564874 0.139315
0.760830 0.571618 0.141817
0.788479 0.575219 0.141482
0.813352 0.577966 0.141726
0.830533 0.579614 0.143832
0.838315 0.576074 0.145480
0.846769 0.573327 0.151827
0.853941 0.568994 0.147860
0.859190 0.561242 0.149203
0.868589 0.548089 0.142306
0.352758 0.464729 0.083009
0.405615 0.479377 0.084565
0.467567 0.499275 0.093507
0.526421 0.517998 0.103792
0.581567 0.535149 0.113283
0.634028 0.550072 0.122225
0.685115 0.564813 0.131197
0.730404 0.577447 0.139345
0.765164 0.585718 0.145235
0.795499 0.591577 0.147921
0.820249 0.594324 0.147280
0.835813 0.595300 0.148318
0.850431 0.596216 0.149691
0.858976 0.593622 0.156100
0.866239 0.589441 0.152132
0.871122 0.584009 0.153079
0.876524 0.572717 0.148898
0.347265 0.475105 0.077455
0.408911 0.493477 0.088624
0.471382 0.513237 0.097688
0.530358 0.531975 0.106935
0.588678 0.549249 0.120027
0.639551 0.563897 0.129702
0.689052 0.578241 0.139010
0.732448 0.590784 0.147433
0.766140 0.598871 0.153140
0.799222 0.606744 0.158022
0.824918 0.611383 0.157321
0.841917 0.612512 0.157382
0.856657 0.613397 0.158755
0.870817 0.613611 0.159365
0.876738 0.608118 0.152712
0.881621 0.602899 0.153109
0.886564 0.598779 0.153445
0.343450 0.485573 0.074708
0.409735 0.505913 0.085664
0.470649 0.525200 0.094514
0.534234 0.544884 0.105135
0.595911 0.563073 0.119173
0.645106 0.576898 0.127077
0.690883 0.590295 0.135409
0.733089 0.602899 0.143862
0.767056 0.611231 0.148257
0.798245 0.618830 0.151705
0.826322 0.626154 0.154116
0.848295 0.630335 0.154940
0.863127 0.631220 0.156344
0.875212 0.629541 0.154788
0.887419 0.627405 0.152743
0.892515 0.622583 0.153140
0.897856 0.619165 0.153475
0.333806 0.493690 0.066773
0.407019 0.516899 0.075563
0.466285 0.535576 0.084138
0.536217 0.556573 0.097780
0.603052 0.576623 0.110750
0.650568 0.589807 0.119326
0.692836 0.602686 0.130220
0.733486 0.615076 0.140841
0.768551 0.624628 0.148165
0.797391 0.632166 0.152255
0.825223 0.639582 0.156008
0.851774 0.646479 0.159518
0.867277 0.647974 0.160586
0.879210 0.645838 0.158572
0.891691 0.643641 0.156466
0.900908 0.641840 0.156497
0.905699 0.637293 0.154452
0.338689 0.508385 0.070161
0.407294 0.529473 0.077028
0.469764 0.547753 0.085908
0.538445 0.568383 0.099275
0.603815 0.588037 0.112001
0.652247 0.601617 0.120333
0.693629 0.613886 0.129610
0.733364 0.625727 0.138705
0.767147 0.635187 0.145266
0.793790 0.642237 0.149386
0.820890 0.649134 0.152010
0.848783 0.656367 0.155428
0.864988 0.659632 0.157839
0.880613 0.661463 0.159945
0.893523 0.659205 0.157748
0.903563 0.657008 0.156954
0.912077 0.655116 0.157870
0.032258 0.043214 0.079438
0.043214 0.044190 0.081788
0.071870 0.048402 0.087892
0.111147 0.053559 0.093050
0.158267 0.055695 0.094453
0.201328 0.061036 0.100313
0.243168 0.061219 0.101930
0.279820 0.060578 0.103151
0.312169 0.062501 0.102724
0.341375 0.065705 0.105867
0.368933 0.063355 0.107240
0.394537 0.062257 0.109743
0.422156 0.067445 0.110689
0.448096 0.072969 0.115267
0.469673 0.068879 0.113771
0.490181 0.065064 0.115114
0.509880 0.065919 0.111513
0.033448 0.062593 0.088472
0.062348 0.074342 0.099092
0.096468 0.077546 0.104433
0.144686 0.082704 0.102754
0.193912 0.087556 0.104189
0.237522 0.089723 0.105074
0.284092 0.094453 0.106081
0.322423 0.096895 0.107942
0.352087 0.094179 0.109377
0.383337 0.098604 0.111330
0.413397 0.105592 0.113893
0.439612 0.107332 0.116060
0.462959 0.105043 0.118929
0.487617 0.108553 0.122744
0.512016 0.110780 0.123812
0.533135 0.109895 0.124300
0.547906 0.095277 0.116884
0.038758 0.094606 0.101259
0.072450 0.114565 0.114992
0.128847 0.127749 0.121675
0.182254 0.139437 0.124849
0.238834 0.145357 0.123201
0.288640 0.149447 0.123720
0.336248 0.159091 0.127810
0.379156 0.164248 0.128389
0.414008 0.170626 0.132265
0.445167 0.174044 0.133272
0.475044 0.184604 0.139956
0.502129 0.189090 0.142733
0.526390 0.193301 0.148287
0.551232 0.194034 0.151247
0.574853 0.195743 0.153994
0.597040 0.189517 0.151461
0.613519 0.179507 0.146731
0.055543 0.134951 0.110079
0.110445 0.162387 0.116121
0.169619 0.179568 0.128298
0.238926 0.200473 0.131716
0.297612 0.211002 0.132448
0.357183 0.222019 0.130831
0.406989 0.230198 0.130617
0.447944 0.233371 0.131106
0.480446 0.239628 0.137728
0.511193 0.247654 0.137240
0.539361 0.256321 0.143832
0.564599 0.258732 0.146487
0.582422 0.259861 0.153628
0.603113 0.261997 0.156954
0.625727 0.262119 0.159213
0.646540 0.254093 0.156527
0.660273 0.233249 0.149111
0.084352 0.189151 0.113741
0.141482 0.212284 0.124971
0.214603 0.236698 0.134585
0.282567 0.257694 0.138705
0.355596 0.279973 0.145449
0.410925 0.288457 0.144717
0.462440 0.295293 0.142245
0.504906 0.303502 0.142306
0.538140 0.309880 0.148318
0.569451 0.316594 0.146242
0.597101 0.323308 0.150301
0.616510 0.325994 0.153780
0.631251 0.325505 0.161532
0.650752 0.326055 0.164675
0.673579 0.325139 0.165011
0.690974 0.314427 0.162081
0.699367 0.290166 0.155673
0.124208 0.241093 0.120455
0.185519 0.266117 0.130434
0.261082 0.291020 0.137270
0.327092 0.311986 0.142489
0.400641 0.336278 0.148409
0.462989 0.351995 0.150729
0.506920 0.354345 0.151949
0.550500 0.362585 0.150179
0.586114 0.370764 0.155703
0.611566 0.372930 0.153903
0.636011 0.376196 0.158206
0.656336 0.380652 0.160739
0.672938 0.383368 0.167758
0.691188 0.381048 0.168887
0.707424 0.375280 0.169406
0.725704 0.365911 0.166293
0.735012 0.342504 0.160525
0.165774 0.289311 0.123995
0.231662 0.316411 0.127993
0.302892 0.339147 0.138247
0.365850 0.359136 0.143984
0.434638 0.382605 0.150362
0.501305 0.401984 0.154391
0.554742 0.413367 0.154910
0.590173 0.414984 0.155978
0.620722 0.416846 0.161379
0.646052 0.421088 0.159976
0.669978 0.424720 0.165347
0.691005 0.428046 0.166018
0.703792 0.426551 0.172427
0.717220 0.423255 0.172457
0.732845 0.417456 0.173281
0.751400 0.408331 0.169924
0.766049 0.388647 0.163577
0.204196 0.333928 0.120912
0.270085 0.358862 0.128634
0.336370 0.379126 0.139437
0.397498 0.398535 0.145022
0.463691 0.421088 0.153353
0.527916 0.440009 0.158083
0.583368 0.453925 0.158938
0.628809 0.462684 0.159518
0.655146 0.461128 0.165896
0.676875 0.462837 0.166781
0.701839 0.467597 0.170443
0.716457 0.467201 0.173526
0.729824 0.464302 0.177005
0.742977 0.460883 0.177371
0.757015 0.456825 0.177371
0.775051 0.448035 0.173770
0.787045 0.426764 0.169406
0.238621 0.371008 0.120150
0.292760 0.390723 0.130373
0.365332 0.412329 0.140749
0.423468 0.431281 0.147341
0.488746 0.452522 0.157321
0.552514 0.473396 0.166842
0.604974 0.486732 0.168795
0.651637 0.497078 0.170077
0.689387 0.503777 0.171603
0.707546 0.500786 0.170199
0.723384 0.499153 0.178286
0.740047 0.500420 0.179171
0.754543 0.500145 0.181765
0.765316 0.496284 0.184298
0.778561 0.490211 0.183749
0.792996 0.482460 0.180209
0.805356 0.461616 0.175387
0.262364 0.399847 0.122621
0.322728 0.421424 0.134005
0.385595 0.437934 0.138338
0.444923 0.457160 0.148226
0.506981 0.476600 0.157290
0.567834 0.496193 0.165774
0.621363 0.511345 0.172457
0.668757 0.522637 0.173831
0.705806 0.529381 0.174289
0.732937 0.532219 0.173861
0.748135 0.529747 0.181857
0.761227 0.528740 0.184787
0.776150 0.529656 0.187350
0.784451 0.525902 0.188510
0.795743 0.518242 0.187930
0.811734 0.510155 0.181674
0.823697 0.495338 0.181369
0.273747 0.422034 0.115724
0.335698 0.442115 0.126040
0.402075 0.459602 0.137514
0.461921 0.478645 0.148104
0.520378 0.496956 0.157626
0.579675 0.515953 0.169711
0.632715 0.531640 0.178775
0.681880 0.545190 0.184756
0.719997 0.553948 0.186099
0.746517 0.556725 0.185702
0.772091 0.559411 0.185306
0.783627 0.556786 0.187289
0.792905 0.553460 0.189273
0.800473 0.549889 0.190921
0.812375 0.545342 0.191745
0.828275 0.537621 0.186160
0.841520 0.526482 0.186252
0.277897 0.440162 0.104036
0.346777 0.461097 0.120851
0.415381 0.479042 0.136477
0.473640 0.497597 0.146792
0.531579 0.515618 0.158480
0.589807 0.533776 0.171817
0.640681 0.548577 0.179599
0.688350 0.562554 0.187442
0.729091 0.573327 0.191196
0.757107 0.577600 0.190951
0.781308 0.579950 0.189975
0.802762 0.581567 0.187594
0.811795 0.577935 0.189578
0.818998 0.573846 0.191226
0.828550 0.570092 0.195346
0.843839 0.564477 0.190311
0.854673 0.552514 0.188571
0.285222 0.456336 0.101350
0.343847 0.473030 0.111666
0.420417 0.494820 0.129976
0.477241 0.512901 0.140047
0.538384 0.531151 0.155093
0.597955 0.549554 0.169558
0.647395 0.563958 0.177127
0.691402 0.576898 0.185122
0.734188 0.589471 0.193545
0.765225 0.595911 0.196323
0.788266 0.598474 0.194644
0.809445 0.600092 0.192294
0.829252 0.601526 0.190768
0.837888 0.598413 0.191623
0.845121 0.593622 0.194614
0.856199 0.589075 0.193423
0.868132 0.579187 0.190921
0.284581 0.468391 0.102998
0.349248 0.487465 0.116060
0.425086 0.509514 0.131655
0.485481 0.528008 0.143954
0.546197 0.546014 0.159213
0.604578 0.563684 0.173678
0.650507 0.577050 0.181460
0.693080 0.589441 0.188449
0.734524 0.601556 0.195193
0.768612 0.610712 0.199649
0.793545 0.615320 0.198398
0.815122 0.617273 0.195987
0.836301 0.618860 0.193729
0.848386 0.617151 0.192172
0.856199 0.613092 0.194400
0.868070 0.609552 0.192966
0.880125 0.605920 0.194034
0.283482 0.479561 0.102296
0.351568 0.500084 0.112398
0.424079 0.520653 0.122377
0.493996 0.541680 0.135988
0.554223 0.559594 0.150546
0.610681 0.576410 0.165011
0.653864 0.589685 0.176547
0.695216 0.602167 0.185428
0.735805 0.614191 0.192844
0.767727 0.623163 0.197757
0.795773 0.630518 0.200870
0.821134 0.635737 0.201236
0.841611 0.636805 0.198642
0.854643 0.635065 0.196536
0.867155 0.632868 0.194400
0.879362 0.629938 0.192996
0.890654 0.626825 0.191623
0.272831 0.486030 0.087434
0.349523 0.510704 0.099977
0.430060 0.535180 0.118532
0.498268 0.555657 0.131807
0.563500 0.575250 0.144533
0.615991 0.590875 0.162478
0.658595 0.603876 0.174228
0.698665 0.616236 0.183505
0.735958 0.627619 0.190799
0.768002 0.636866 0.194766
0.795865 0.644251 0.196689
0.824216 0.651789 0.198428
0.848478 0.656764 0.196689
0.862852 0.655329 0.194400
0.875761 0.653040 0.192233
0.889128 0.649531 0.187106
0.899992 0.646448 0.183536
0.272190 0.495521 0.070924
0.348028 0.520348 0.085817
0.436439 0.548852 0.099184
0.503197 0.568902 0.112184
0.565911 0.587915 0.126375
0.624537 0.606043 0.144472
0.668025 0.619135 0.155276
0.707668 0.631312 0.163302
0.739437 0.641566 0.175113
0.769924 0.651392 0.186252
0.797147 0.658595 0.190097
0.823331 0.665339 0.191897
0.849363 0.671809 0.192172
0.869474 0.675471 0.193759
0.883024 0.672969 0.190555
0.896788 0.669001 0.184329
0.908019 0.666102 0.182254
0.033265 0.045838 0.104891
0.038087 0.044831 0.103944
0.068360 0.049012 0.110201
0.107820 0.052827 0.117433
0.152865 0.054231 0.122469
0.200931 0.059693 0.125368
0.242679 0.060029 0.127474
0.279789 0.059571 0.131655
0.314397 0.061769 0.135409
0.342779 0.065187 0.138186
0.370001 0.063081 0.138430
0.393744 0.062562 0.140780
0.420050 0.068849 0.145083
0.445838 0.074617 0.149203
