assets/luts/impulz-kodak-gold-gen-6-200-fpe-log-d81b5c47.cube
# (C) 2014 VisionColor & Patchflyer [www.vision-color.com]
# Generator: VC Patchmatch v.2.1.1 [64/53]
# All work and no play makes Jack a dull boy.
# LUT generated from: Kodak Gold Gen.6 200_FPE
LUT_3D_SIZE 17
0.033173 0.035981 0.036316
0.036347 0.037964 0.038087
0.054841 0.039673 0.036683
0.088472 0.044068 0.037568
0.135012 0.049378 0.039094
0.179751 0.052338 0.039399
0.215274 0.051331 0.039094
0.240299 0.049531 0.039155
0.259983 0.048157 0.039643
0.279850 0.046815 0.040284
0.305821 0.045655 0.041230
0.339055 0.045014 0.042481
0.373907 0.045136 0.043824
0.408301 0.045716 0.045502
0.439429 0.047028 0.047761
0.468788 0.048707 0.050294
0.498390 0.052308 0.056153
0.034089 0.039887 0.038514
0.037598 0.040375 0.037995
0.055726 0.042451 0.036805
0.092378 0.050538 0.037354
0.142611 0.059419 0.038575
0.190188 0.063874 0.039094
0.231540 0.063935 0.039307
0.267277 0.065034 0.039887
0.303532 0.065217 0.041077
0.330846 0.065064 0.042237
0.357427 0.062623 0.043519
0.389105 0.061189 0.044923
0.422644 0.060761 0.046632
0.451942 0.058381 0.048188
0.481514 0.058747 0.050263
0.506127 0.058076 0.052155
0.536492 0.067781 0.057557
0.035126 0.047211 0.037934
0.039582 0.048188 0.037507
0.062867 0.054627 0.037964
0.096071 0.060914 0.037812
0.144381 0.068330 0.037995
0.201053 0.079469 0.038758
0.257176 0.085023 0.039979
0.304967 0.086000 0.041108
0.344091 0.086519 0.042420
0.382635 0.090761 0.044190
0.414649 0.091188 0.046052
0.445014 0.087526 0.047852
0.473823 0.084291 0.049500
0.502281 0.082551 0.051148
0.527398 0.081697 0.052461
0.552117 0.082979 0.053925
0.579461 0.097383 0.059022
0.038544 0.060883 0.038972
0.052491 0.065827 0.038666
0.075898 0.072175 0.038819
0.109865 0.080598 0.038544
0.158114 0.092805 0.038544
0.208408 0.097108 0.038788
0.264500 0.103395 0.040284
0.328145 0.116518 0.042390
0.386267 0.127687 0.044495
0.430976 0.134859 0.046448
0.463447 0.133333 0.047944
0.498085 0.136507 0.049897
0.529137 0.136507 0.051698
0.557427 0.134371 0.053468
0.581323 0.130983 0.054841
0.604028 0.131106 0.056519
0.631281 0.152255 0.061372
0.043977 0.080568 0.040528
0.068971 0.090303 0.040223
0.093202 0.097688 0.040040
0.139986 0.108614 0.039582
0.180270 0.118898 0.039368
0.235508 0.130312 0.039612
0.293126 0.141726 0.041321
0.358724 0.153903 0.043885
0.417227 0.165316 0.046265
0.476081 0.185397 0.049439
0.517601 0.196414 0.051698
0.548363 0.195590 0.052827
0.578149 0.193179 0.054536
0.608026 0.193515 0.056611
0.635279 0.193820 0.058747
0.659785 0.196323 0.060548
0.683589 0.215763 0.064729
0.054810 0.111604 0.042054
0.089509 0.125673 0.041260
0.127169 0.137118 0.040681
0.175784 0.149264 0.040284
0.225788 0.161196 0.040345
0.280232 0.174960 0.040833
0.335164 0.188724 0.043122
0.396628 0.205661 0.046052
0.465080 0.229313 0.049714
0.524132 0.248997 0.053040
0.567864 0.259709 0.056275
0.603021 0.266148 0.059144
0.631708 0.264652 0.060761
0.659968 0.263401 0.062226
0.685695 0.260533 0.063416
0.710506 0.263890 0.066041
0.731441 0.281010 0.070161
0.074769 0.157870 0.041016
0.119692 0.177615 0.040040
0.172641 0.194491 0.039948
0.222248 0.205875 0.040192
0.287648 0.221805 0.042512
0.343130 0.235050 0.043885
0.391104 0.246464 0.045899
0.445121 0.258595 0.048280
0.501747 0.278218 0.052216
0.565179 0.306035 0.058595
0.614435 0.326299 0.063783
0.649439 0.331731 0.066621
0.678614 0.330236 0.068391
0.709377 0.329839 0.071473
0.735836 0.328222 0.073793
0.757656 0.328588 0.075563
0.774716 0.340887 0.078340
0.105776 0.218051 0.040345
0.153445 0.236728 0.039826
0.220737 0.259709 0.041138
0.280690 0.273884 0.042786
0.345266 0.289326 0.045716
0.407706 0.303914 0.049897
0.456535 0.315541 0.052461
0.503365 0.326497 0.056733
0.559182 0.348577 0.061799
0.610742 0.367864 0.066285
0.657221 0.387366 0.071534
0.696010 0.397742 0.076997
0.728939 0.399573 0.080507
0.759609 0.398871 0.083406
0.785245 0.395270 0.085176
0.799924 0.390600 0.086641
0.807736 0.393225 0.087861
0.150942 0.282002 0.041321
0.204685 0.301015 0.041840
0.269703 0.322499 0.043977
0.335653 0.338949 0.047150
0.402029 0.355673 0.050416
0.470634 0.372763 0.056794
0.520638 0.384268 0.060426
0.569772 0.395743 0.065980
0.608103 0.404318 0.069947
0.654994 0.421668 0.076417
0.694148 0.437537 0.081270
0.732570 0.449134 0.086580
0.766812 0.453162 0.090974
0.795224 0.453864 0.094667
0.818631 0.449561 0.097017
0.834043 0.444587 0.097841
0.839597 0.443214 0.098268
0.204044 0.344274 0.043977
0.257877 0.362768 0.046174
0.322850 0.383825 0.048646
0.388769 0.400000 0.053010
0.449287 0.414008 0.057221
0.517113 0.431159 0.064057
0.570397 0.444282 0.070130
0.620783 0.455268 0.076539
0.660822 0.464607 0.081788
0.697185 0.472694 0.086702
0.733608 0.484962 0.092287
0.767147 0.493294 0.097688
0.797482 0.496712 0.101839
0.827787 0.499825 0.105959
0.847990 0.496834 0.107912
0.859525 0.489052 0.108186
0.863828 0.484718 0.108156
0.269871 0.403449 0.048554
0.323278 0.420233 0.051820
0.379736 0.436957 0.055604
0.439796 0.451881 0.060365
0.495491 0.464332 0.065583
0.550835 0.475196 0.071473
0.605066 0.488014 0.079133
0.655482 0.499306 0.086305
0.696925 0.508019 0.092836
0.734768 0.516350 0.098482
0.768307 0.523400 0.103456
0.801205 0.531975 0.108705
0.825437 0.533593 0.112032
0.848722 0.534295 0.115114
0.865873 0.530236 0.116732
0.879393 0.526574 0.117586
0.883818 0.522271 0.117617
0.339208 0.452827 0.055818
0.385321 0.465034 0.059388
0.436255 0.478401 0.063722
0.486946 0.490608 0.068452
0.534691 0.500725 0.073732
0.586145 0.511650 0.079957
0.635126 0.522454 0.087190
0.686763 0.534081 0.095491
0.728634 0.542596 0.102388
0.764889 0.550561 0.108705
0.797726 0.557580 0.113802
0.826352 0.562768 0.118227
0.849241 0.564294 0.121248
0.872831 0.565545 0.124361
0.882628 0.559930 0.124849
0.891112 0.554528 0.124971
0.896513 0.552575 0.125551
0.388708 0.488014 0.062409
0.431434 0.499123 0.066102
0.480629 0.511223 0.071107
0.531212 0.523522 0.076509
0.574212 0.533074 0.082033
0.622736 0.544335 0.088808
0.670344 0.554986 0.095949
0.717830 0.565301 0.104219
0.760189 0.574243 0.111543
0.792203 0.580499 0.117525
0.822110 0.586664 0.122866
0.851133 0.592401 0.127657
0.868955 0.594476 0.130465
0.888792 0.595270 0.133272
0.896361 0.587671 0.132723
0.902953 0.581659 0.132387
0.906065 0.579767 0.132784
0.413520 0.514061 0.066987
0.458595 0.525475 0.071321
0.517357 0.539422 0.077852
0.567163 0.551446 0.083986
0.608667 0.560937 0.089448
0.656550 0.573266 0.097078
0.702907 0.584009 0.104585
0.750362 0.594720 0.113039
0.788663 0.602716 0.120119
0.822049 0.609491 0.126528
0.849760 0.614527 0.131838
0.876493 0.619654 0.136690
0.888426 0.619593 0.138735
0.903441 0.621759 0.141207
0.909117 0.614862 0.140597
0.913207 0.608118 0.139925
0.915312 0.606958 0.140322
0.420600 0.533410 0.070039
0.484932 0.548943 0.077058
0.546258 0.563470 0.084016
0.596979 0.575463 0.090730
0.642054 0.586877 0.097230
0.690974 0.599970 0.105257
0.735042 0.610986 0.113039
0.781460 0.621973 0.121492
0.816922 0.629572 0.128573
0.847471 0.635737 0.134646
0.871855 0.640131 0.139742
0.892332 0.643427 0.143923
0.905303 0.643610 0.146487
0.915160 0.643732 0.147982
0.920958 0.643030 0.148775
0.923278 0.636133 0.147799
0.924254 0.633906 0.147646
0.403174 0.543633 0.070680
0.489479 0.564355 0.080079
0.564324 0.582208 0.088746
0.615900 0.594293 0.095674
0.665339 0.607294 0.103365
0.715084 0.620600 0.111604
0.758480 0.631647 0.119570
0.798947 0.641382 0.127199
0.834623 0.649042 0.134463
0.864225 0.655238 0.140597
0.889006 0.660273 0.145907
0.904662 0.663783 0.149874
0.917174 0.665766 0.152987
0.924681 0.664790 0.154208
0.929320 0.663935 0.154879
0.930266 0.663508 0.155062
0.931426 0.660578 0.154788
0.366064 0.543603 0.069123
0.475135 0.570397 0.080446
0.562737 0.592004 0.090272
0.618189 0.605737 0.097780
0.672541 0.620508 0.106447
0.723201 0.633875 0.114900
0.763577 0.643641 0.122194
0.803464 0.653529 0.129793
0.839719 0.662013 0.137087
0.871489 0.669398 0.143893
0.896666 0.674861 0.149447
0.910826 0.679164 0.153567
0.922210 0.682338 0.156954
0.930266 0.683558 0.158968
0.934112 0.683223 0.159884
0.935271 0.682765 0.160189
0.935546 0.682734 0.160250
0.033234 0.037385 0.040009
0.035035 0.037537 0.040131
0.051789 0.039124 0.039338
0.078035 0.042451 0.044282
0.117556 0.047242 0.049622
0.160586 0.050660 0.050782
0.198001 0.050782 0.049317
0.227054 0.049744 0.050202
0.257908 0.049256 0.048768
0.282658 0.048127 0.049348
0.310796 0.047028 0.048829
0.343572 0.046265 0.049470
0.376623 0.046174 0.051331
0.408331 0.046326 0.053285
0.439033 0.047547 0.055604
0.468208 0.048951 0.058015
0.498054 0.052644 0.069459
0.033692 0.040436 0.041627
0.038331 0.043671 0.044404
0.061799 0.047089 0.044953
0.100282 0.051728 0.044282
0.149783 0.055909 0.044343
0.197208 0.056184 0.042084
0.233036 0.054414 0.041962
0.258061 0.052705 0.041627
0.281468 0.049042 0.040864
0.306615 0.047517 0.041688
0.337377 0.045777 0.042725
0.371771 0.045747 0.044343
0.405707 0.045930 0.045777
0.437049 0.046906 0.047517
0.466621 0.048463 0.049958
0.496834 0.053651 0.057130
0.530205 0.063020 0.069734
0.034546 0.047913 0.041199
0.041566 0.053864 0.044739
0.071870 0.062257 0.045777
0.109987 0.065949 0.044556
0.162905 0.073091 0.043519
0.222843 0.079438 0.042237
0.271183 0.079500 0.043000
0.303899 0.075441 0.043030
0.336187 0.075624 0.042817
0.367376 0.072908 0.044312
0.400366 0.071931 0.045777
0.429816 0.067140 0.047608
0.459113 0.065003 0.048981
0.487526 0.064118 0.050263
0.512627 0.065949 0.051759
0.541894 0.072511 0.058686
0.572076 0.088563 0.070924
0.036744 0.064118 0.045136
0.048402 0.074983 0.044343
0.079316 0.084382 0.044739
0.131868 0.097139 0.045075
0.183047 0.101778 0.043458
0.238361 0.102480 0.041749
0.312779 0.115328 0.043214
0.361456 0.119265 0.044800
0.400519 0.115816 0.045686
0.433082 0.112398 0.047211
0.464942 0.110475 0.048646
0.494118 0.108644 0.050721
0.518486 0.098726 0.051850
0.541711 0.093202 0.052705
0.565850 0.095003 0.054322
0.593103 0.114443 0.061402
0.625086 0.146059 0.074800
0.041413 0.088014 0.048127
0.061860 0.108614 0.044007
0.104372 0.122957 0.043671
0.159426 0.135378 0.044190
0.227314 0.152651 0.044495
0.286488 0.160983 0.042756
0.353994 0.164248 0.043763
0.405417 0.167666 0.046601
0.455985 0.176913 0.048859
0.496101 0.181064 0.050660
0.529900 0.180941 0.052094
0.553460 0.171115 0.053040
0.580621 0.166018 0.054780
0.606348 0.161898 0.056306
0.629541 0.163516 0.058137
0.654627 0.180362 0.065126
0.678004 0.210575 0.077302
0.051270 0.123262 0.051118
0.080079 0.152590 0.042969
0.140169 0.173556 0.042542
0.198627 0.187778 0.042115
0.276539 0.205722 0.043610
0.345388 0.223575 0.044831
0.411368 0.232914 0.047242
0.460349 0.239261 0.049531
0.514351 0.248081 0.052613
0.553918 0.251530 0.054780
0.591333 0.255558 0.058228
0.618921 0.253391 0.060060
0.640681 0.241886 0.060090
0.665064 0.234470 0.061555
0.687617 0.235477 0.063661
0.708858 0.251194 0.069520
0.729702 0.281346 0.080781
0.073213 0.171145 0.049409
0.105409 0.211551 0.040070
0.181552 0.238346 0.040345
0.261128 0.261753 0.041718
0.350820 0.284337 0.045899
0.421530 0.300526 0.049195
0.487419 0.317006 0.052857
0.525887 0.317281 0.055604
0.571298 0.324666 0.059968
0.617639 0.337560 0.064881
0.656306 0.343084 0.068330
0.682094 0.334829 0.069368
0.705257 0.327337 0.071015
0.724971 0.317723 0.071717
0.744869 0.315496 0.072938
0.762417 0.323003 0.075959
0.773342 0.342687 0.083986
0.105562 0.229068 0.047791
0.146365 0.274235 0.041108
0.224506 0.302602 0.042634
0.309407 0.327749 0.045441
0.393454 0.347433 0.049622
0.470909 0.366110 0.056245
0.537057 0.381613 0.061158
0.589212 0.393973 0.066743
0.630045 0.398428 0.070222
0.665400 0.403876 0.074098
0.705440 0.411933 0.079866
0.736568 0.410117 0.083040
0.761349 0.403006 0.084169
0.779782 0.392355 0.084474
0.792721 0.384588 0.085054
0.801724 0.382574 0.086030
0.807370 0.395056 0.090944
0.151308 0.290532 0.047883
0.202716 0.337636 0.043824
0.274891 0.363058 0.046021
0.356527 0.386465 0.050874
0.437858 0.405997 0.056153
0.511177 0.423514 0.063111
0.582223 0.440574 0.071778
0.635294 0.453056 0.078126
0.682506 0.462608 0.084474
0.716274 0.467231 0.089021
0.751888 0.474861 0.093233
0.784115 0.476173 0.096284
0.806027 0.469062 0.098238
0.821714 0.458198 0.098451
0.834287 0.449805 0.098726
0.841398 0.444404 0.098543
0.837827 0.443519 0.099580
0.200595 0.348333 0.047608
0.268223 0.396490 0.049165
0.335576 0.418524 0.052430
0.407111 0.437873 0.057496
0.475593 0.453376 0.063478
0.546441 0.470680 0.070497
0.615381 0.487098 0.080537
0.669490 0.498756 0.088167
0.719203 0.509270 0.095857
0.758114 0.516960 0.101350
0.790555 0.521019 0.105776
0.818845 0.521752 0.108919
0.839963 0.517143 0.110506
0.854459 0.507652 0.110689
0.862638 0.498665 0.110292
0.867491 0.490242 0.109651
0.865324 0.487953 0.109773
0.260075 0.404089 0.050843
0.333532 0.447608 0.055360
0.390661 0.463752 0.059815
0.455207 0.480964 0.064942
0.517296 0.495430 0.071687
0.576654 0.508476 0.078614
0.643885 0.524376 0.088685
0.698817 0.537163 0.097688
0.752468 0.549676 0.107179
0.791165 0.556420 0.112978
0.826749 0.562493 0.118105
0.851469 0.562371 0.121035
0.863920 0.555047 0.121157
0.874266 0.545373 0.120668
0.883146 0.537255 0.120394
0.889403 0.530694 0.119814
0.886595 0.527031 0.119509
0.317784 0.449561 0.055573
0.391730 0.488960 0.062562
0.445563 0.502495 0.067597
0.500938 0.516289 0.073243
0.558679 0.530083 0.080018
0.613977 0.542870 0.087617
0.671199 0.555779 0.096223
0.726375 0.567956 0.105806
0.777737 0.579248 0.114931
0.816281 0.587579 0.122164
0.849821 0.593042 0.127535
0.876219 0.595819 0.131441
0.887175 0.588403 0.131319
0.891600 0.578546 0.130007
0.896788 0.570581 0.129397
0.900877 0.563470 0.128542
0.903258 0.562066 0.128756
0.357916 0.482399 0.060792
0.426429 0.517662 0.068147
0.479469 0.530663 0.073823
0.538567 0.545129 0.080629
0.595483 0.558862 0.087953
0.649073 0.572229 0.096010
0.704555 0.585504 0.104891
0.754513 0.596521 0.113832
0.801450 0.606378 0.122652
0.836423 0.613031 0.129397
0.866514 0.618555 0.135317
0.892973 0.621759 0.139528
0.903960 0.621149 0.141207
0.907256 0.610437 0.139437
0.910338 0.600366 0.137758
0.911864 0.594018 0.136812
0.912627 0.592859 0.137057
0.370733 0.505150 0.064027
0.423987 0.534356 0.070314
0.487312 0.549462 0.077333
0.562402 0.567529 0.086275
0.620813 0.582025 0.094240
0.673945 0.595728 0.102632
0.729091 0.609400 0.111940
0.778531 0.620569 0.120821
0.820676 0.629755 0.129244
0.854124 0.636286 0.135988
0.880034 0.640681 0.141390
0.902495 0.644038 0.145815
0.914366 0.644129 0.147982
0.919554 0.643732 0.148836
0.920592 0.634821 0.147158
0.922881 0.627741 0.146212
0.922423 0.625025 0.145876
0.354772 0.517418 0.065064
0.400916 0.541070 0.070253
0.477974 0.559472 0.078798
0.570672 0.582116 0.089326
0.632166 0.597742 0.098085
0.685542 0.611841 0.106538
0.741970 0.626398 0.116335
0.791287 0.638483 0.125582
0.834287 0.648615 0.134249
0.867460 0.656153 0.141390
0.893614 0.661494 0.147189
0.910796 0.664546 0.151339
0.923949 0.665034 0.154086
0.927001 0.664881 0.154818
0.930510 0.664179 0.155245
0.930419 0.655909 0.153628
0.931029 0.654322 0.153475
0.325536 0.523522 0.065003
0.375647 0.544182 0.069612
0.478309 0.569574 0.080629
0.569909 0.591943 0.090974
0.638209 0.609949 0.100862
0.695460 0.625422 0.110170
0.752010 0.640253 0.119997
0.796353 0.651789 0.128450
0.840452 0.662715 0.137270
0.874113 0.671138 0.144747
0.901366 0.677607 0.150973
0.916472 0.681697 0.155398
0.927520 0.684016 0.158511
0.933288 0.684688 0.160220
0.935943 0.684321 0.160678
0.936370 0.684169 0.160800
0.936797 0.681117 0.160159
0.290623 0.523400 0.064271
0.357458 0.545007 0.069062
0.466468 0.572869 0.080476
0.560815 0.597040 0.091127
0.633722 0.616754 0.101778
0.693996 0.633417 0.111757
0.750454 0.648463 0.121492
0.792874 0.659846 0.129488
0.832975 0.670344 0.137362
0.869078 0.679835 0.145144
0.895933 0.687312 0.151461
0.915740 0.693538 0.156741
0.928466 0.697658 0.160678
0.937499 0.700404 0.163516
0.938933 0.701198 0.164492
0.939422 0.701442 0.164797
0.939452 0.701564 0.164828
0.030640 0.036439 0.047761
0.032471 0.036683 0.048432
0.042420 0.038514 0.054139
0.066651 0.041108 0.056580
0.100038 0.044984 0.061128
0.141115 0.048707 0.067536
0.179751 0.050660 0.068299
0.218173 0.050538 0.065705
0.250370 0.050141 0.063905
0.285130 0.048951 0.063539
0.315618 0.047822 0.064027
0.348089 0.047059 0.063386
0.379339 0.046784 0.064271
0.409705 0.046937 0.066682
0.438605 0.047761 0.070558
0.467292 0.049042 0.075654
0.496529 0.053010 0.090761
0.031037 0.039368 0.049226
0.036988 0.043122 0.055116
0.050172 0.045563 0.063203
0.086458 0.049775 0.060945
0.128328 0.053132 0.063020
0.175479 0.054994 0.064302
0.215244 0.054994 0.062593
0.249760 0.053834 0.057191
0.278874 0.050233 0.057160
0.311162 0.048768 0.054505
0.342687 0.046998 0.055787
0.375982 0.046937 0.054932
0.407691 0.046845 0.056153
0.437049 0.047456 0.058900
0.466224 0.048737 0.064027
0.496498 0.053925 0.072602
0.529259 0.063630 0.090150
0.031373 0.050263 0.054047
0.037140 0.057374 0.061799
0.056977 0.060273 0.063844
0.099031 0.068055 0.064576
0.148104 0.071931 0.062837
0.200870 0.072419 0.059113
0.243473 0.068544 0.053742
0.277958 0.064546 0.051148
0.307958 0.060578 0.049836
0.338964 0.054322 0.046723
0.371221 0.051698 0.047395
0.403998 0.048615 0.047639
0.437629 0.049714 0.050172
0.465675 0.049561 0.051057
0.493782 0.052094 0.055756
0.526574 0.061036 0.067659
0.572351 0.097841 0.103365
0.033692 0.068299 0.056184
0.044129 0.080323 0.059571
0.067201 0.087526 0.062867
0.123110 0.100740 0.064271
0.172671 0.102846 0.061891
0.234623 0.108858 0.058412
0.298558 0.114656 0.054780
0.346075 0.112062 0.053071
0.378637 0.100862 0.052674
0.412909 0.099611 0.049897
0.440803 0.090181 0.050690
0.471839 0.086213 0.050965
0.497810 0.075563 0.053285
0.521202 0.073030 0.053651
0.549035 0.082307 0.057893
0.580407 0.111696 0.071077
0.625727 0.155123 0.107942
0.038239 0.094148 0.058717
0.054932 0.118044 0.062043
0.087800 0.130159 0.060731
0.148257 0.145388 0.061494
0.224155 0.165133 0.064088
0.286213 0.167300 0.058778
0.346334 0.164462 0.054383
0.415396 0.173922 0.053071
0.456596 0.173922 0.054658
0.491066 0.166995 0.053468
0.518334 0.155581 0.054261
0.543145 0.141329 0.054566
0.566522 0.134310 0.056641
0.587243 0.124605 0.056611
0.611353 0.132509 0.060487
0.638972 0.161440 0.073182
0.676875 0.221683 0.116548
0.046418 0.133272 0.065888
0.072969 0.165347 0.061830
0.122286 0.185885 0.054566
0.196139 0.207980 0.054597
0.272145 0.225711 0.058289
0.355764 0.247776 0.060273
0.413931 0.249271 0.056092
0.481956 0.254765 0.053376
0.526589 0.254063 0.057465
0.563989 0.253239 0.058534
0.591333 0.244526 0.059510
0.616876 0.231327 0.059724
0.635523 0.214801 0.060395
0.657343 0.208682 0.061616
0.679500 0.217594 0.065339
0.699519 0.242649 0.076417
0.731777 0.297673 0.118471
0.066926 0.182010 0.067079
0.099763 0.225071 0.059358
0.161135 0.249577 0.049653
0.250294 0.278584 0.051240
0.333455 0.298878 0.053895
0.414939 0.317800 0.057679
0.491081 0.337881 0.061402
0.547738 0.338796 0.061555
0.594095 0.344350 0.065858
0.635218 0.344411 0.067506
0.662287 0.335470 0.068360
0.687099 0.321645 0.069642
0.706691 0.306752 0.070954
0.723140 0.296407 0.070253
0.742916 0.301549 0.073243
0.753536 0.316930 0.081758
0.767880 0.356023 0.119448
0.102327 0.240177 0.063416
0.146059 0.286259 0.052796
0.207294 0.318929 0.044770
0.304158 0.349966 0.048280
0.397879 0.376272 0.052888
0.484581 0.396811 0.060731
0.555093 0.412100 0.067414
0.622904 0.428443 0.074617
0.660685 0.427771 0.077943
0.697261 0.427207 0.080751
0.728817 0.424949 0.084138
0.756863 0.415854 0.085695
0.777737 0.397787 0.084962
0.785153 0.382315 0.084199
0.792111 0.375708 0.084413
0.798245 0.385077 0.090486
0.805539 0.413092 0.117067
0.147555 0.298131 0.060548
0.201785 0.346258 0.052277
0.266102 0.382147 0.048981
0.354147 0.409277 0.054536
0.443381 0.433753 0.061158
0.524819 0.451789 0.068788
0.597757 0.468498 0.078950
0.663615 0.483009 0.086732
0.713939 0.492622 0.093507
0.749264 0.492866 0.096071
0.775937 0.490013 0.098268
0.803647 0.482918 0.100526
0.823453 0.466423 0.100679
0.831815 0.452628 0.098970
0.836881 0.443824 0.098360
0.834165 0.441535 0.100710
0.830381 0.453193 0.115023
0.196628 0.355077 0.058381
0.259953 0.400397 0.054414
0.324926 0.434485 0.054108
0.400977 0.456611 0.059480
0.479713 0.477211 0.067323
0.557488 0.495094 0.075502
0.628473 0.511437 0.085573
0.697475 0.527886 0.096468
0.749630 0.538628 0.104372
0.794293 0.546380 0.111269
0.819730 0.542962 0.113527
0.844358 0.537560 0.115328
0.861753 0.525902 0.115175
0.867338 0.511406 0.113436
0.869291 0.498756 0.111360
0.865812 0.494148 0.112520
0.857969 0.497444 0.121523
0.245823 0.405554 0.058473
0.303288 0.443275 0.055756
0.375708 0.477058 0.060670
0.443793 0.495277 0.066438
0.516289 0.513298 0.074067
0.583673 0.529046 0.082826
0.652216 0.544671 0.092683
0.719966 0.560540 0.104189
0.774350 0.572625 0.113863
0.820768 0.581689 0.121798
0.852720 0.585077 0.126314
0.872892 0.578912 0.127718
0.882506 0.564782 0.125978
0.888792 0.552758 0.124392
0.890806 0.541802 0.122621
0.889738 0.535637 0.122103
0.880980 0.534447 0.126925
0.289250 0.446510 0.061006
0.342870 0.479469 0.060151
0.412940 0.509728 0.066438
0.481941 0.526482 0.073762
0.549493 0.543236 0.081147
0.616876 0.560143 0.090791
0.677852 0.574334 0.100221
0.745571 0.590204 0.112032
0.796658 0.601343 0.121645
0.845762 0.612696 0.131289
0.873655 0.615167 0.135714
0.898009 0.616205 0.139193
0.904051 0.603571 0.137423
0.905028 0.590509 0.134920
0.905821 0.579522 0.132815
0.905058 0.573144 0.132021
0.900420 0.570367 0.133455
0.305547 0.472663 0.060456
0.357458 0.502464 0.063081
0.426673 0.533776 0.070344
0.507103 0.552941 0.079500
0.581659 0.571069 0.088716
0.650446 0.588952 0.098878
0.713527 0.604700 0.109316
0.775845 0.619532 0.120241
0.822232 0.628962 0.129549
0.864958 0.637629 0.138216
0.891325 0.641840 0.143923
0.911009 0.642817 0.147250
0.921477 0.641505 0.148653
0.921172 0.627527 0.145632
0.918547 0.615930 0.142763
0.917113 0.609613 0.141665
0.912749 0.606348 0.142123
0.301610 0.489937 0.061372
0.345861 0.515526 0.064302
0.406409 0.543847 0.070832
0.509056 0.568292 0.082460
0.597986 0.590265 0.093568
0.666194 0.607904 0.103731
0.729305 0.623621 0.114443
0.789578 0.638514 0.125307
0.834836 0.648707 0.134493
0.874052 0.657130 0.142794
0.899626 0.661463 0.148440
0.918303 0.664851 0.153048
0.929503 0.664271 0.154910
0.931334 0.663935 0.155367
0.929076 0.652613 0.152651
0.928405 0.645380 0.151522
0.923064 0.639796 0.150729
0.283055 0.500938 0.060914
0.318608 0.520470 0.064027
0.376501 0.544701 0.069734
0.490578 0.572503 0.082185
0.594537 0.598779 0.094636
0.666743 0.617884 0.105531
0.730709 0.634546 0.116335
0.789029 0.649714 0.126986
0.835203 0.660700 0.136324
0.875700 0.671351 0.145083
0.901640 0.677028 0.151217
0.919799 0.681178 0.155917
0.931273 0.683101 0.159030
0.934783 0.683711 0.160159
0.935576 0.683589 0.160372
0.934661 0.675837 0.158694
0.933440 0.674678 0.158968
0.255100 0.505974 0.060578
0.299535 0.525109 0.064607
0.370306 0.548699 0.070161
0.487709 0.577844 0.082826
0.584161 0.602869 0.094575
0.660365 0.623438 0.106294
0.723873 0.640223 0.117006
0.777188 0.654597 0.126925
0.824460 0.667567 0.136355
0.865446 0.679438 0.145113
0.897734 0.689204 0.152560
0.917662 0.695186 0.158053
0.931304 0.699916 0.162264
0.937713 0.701350 0.164401
0.938750 0.702205 0.165133
0.938994 0.702205 0.165194
0.937072 0.698604 0.164828
0.230564 0.508293 0.060914
0.292882 0.529961 0.065431
0.376593 0.554833 0.071626
0.481422 0.582116 0.083314
0.576135 0.606989 0.095033
0.652674 0.628351 0.107301
0.714015 0.645167 0.117861
0.764462 0.658900 0.127321
0.805295 0.671199 0.135836
0.846891 0.683833 0.144350
0.880278 0.695583 0.152438
0.906218 0.704219 0.158114
0.924498 0.711360 0.163424
0.934752 0.715694 0.166995
0.937743 0.718715 0.169284
0.938262 0.719020 0.169619
0.938415 0.719051 0.169680
0.029633 0.036408 0.061158
0.032685 0.037110 0.065187
0.039673 0.038575 0.071565
0.055970 0.040528 0.077424
0.084321 0.043854 0.085267
0.125093 0.047364 0.089876
0.162509 0.049531 0.089967
0.203586 0.049470 0.092287
0.244877 0.049287 0.092714
0.282811 0.048127 0.092775
0.317571 0.047181 0.089601
0.351843 0.046571 0.091676
0.382971 0.046479 0.093843
0.411536 0.046601 0.096071
