assets/luts/impulz-kodak-ektar-100-fpe-rec709-df3ce9a2.cube
# (C) 2014 VisionColor & Patchflyer [www.vision-color.com]
# Generator: VC Patchmatch v.2.1.1 [64/53]
# All work and no play makes Jack a dull boy.
# LUT generated from: Kodak Ektar 100_FPE
LUT_3D_SIZE 9
0.037781 0.037263 0.038025
0.095979 0.053193 0.045350
0.188602 0.070100 0.052430
0.286870 0.083436 0.056764
0.367864 0.095735 0.059113
0.431067 0.105501 0.062562
0.488807 0.125856 0.067292
0.531334 0.137545 0.071778
0.566186 0.150668 0.077516
0.046448 0.099580 0.072847
0.100893 0.120516 0.065278
0.211673 0.156039 0.064210
0.335241 0.191775 0.063661
0.441444 0.225925 0.064790
0.518669 0.251957 0.068879
0.583795 0.280400 0.076051
0.631861 0.300145 0.082795
0.664332 0.304845 0.088167
0.044648 0.184512 0.106966
0.082094 0.206180 0.092042
0.185733 0.236789 0.073854
0.313054 0.268406 0.074281
0.440925 0.312016 0.073060
0.547631 0.353277 0.080079
0.618799 0.381567 0.088533
0.677913 0.403632 0.100618
0.713893 0.408667 0.109957
0.044892 0.248112 0.132998
0.075959 0.277836 0.123232
0.161105 0.318212 0.113588
0.291630 0.349615 0.091737
0.419257 0.378271 0.088685
0.531609 0.412177 0.092409
0.616480 0.439002 0.100710
0.683070 0.456275 0.110872
0.731502 0.460548 0.119539
0.045441 0.303349 0.167178
0.060517 0.332433 0.161196
0.124575 0.373724 0.160464
0.250095 0.419898 0.156069
0.378698 0.438972 0.122621
0.499290 0.465217 0.124422
0.603021 0.486824 0.122286
0.674708 0.497627 0.131044
0.724544 0.487434 0.125978
0.048035 0.348272 0.209873
0.059937 0.371679 0.207980
0.092378 0.410163 0.217441
0.208728 0.463416 0.230228
0.336416 0.497200 0.219883
0.451301 0.507897 0.178042
0.562554 0.525719 0.169711
0.661494 0.535790 0.157748
0.718959 0.518303 0.143557
0.051484 0.388830 0.254093
0.058350 0.404120 0.252476
0.087556 0.440558 0.266056
0.178256 0.493874 0.294194
0.318074 0.546777 0.318700
0.439277 0.566400 0.294286
0.536431 0.575830 0.262669
0.642054 0.585565 0.247349
0.716487 0.566400 0.190707
0.058350 0.427497 0.302556
0.066407 0.439734 0.302007
0.096895 0.469764 0.320470
0.164523 0.522972 0.359350
0.306538 0.576806 0.396979
0.450263 0.620020 0.415656
0.552392 0.634455 0.394568
0.642817 0.643153 0.366430
0.731899 0.636347 0.309483
0.075380 0.476661 0.360754
0.076967 0.477058 0.353826
0.109133 0.506584 0.376684
0.187320 0.554192 0.418830
0.307271 0.610712 0.467323
0.451514 0.657710 0.504906
0.582269 0.691432 0.516503
0.674617 0.706081 0.505241
0.753079 0.712367 0.479530
0.039429 0.039673 0.060273
0.077699 0.045899 0.064698
0.157717 0.060151 0.079011
0.258762 0.069062 0.089143
0.340887 0.073274 0.087800
0.401495 0.075074 0.085786
0.451331 0.081392 0.085237
0.489845 0.085786 0.080720
0.520836 0.088808 0.081666
0.037537 0.083894 0.103731
0.104677 0.108309 0.113252
0.220340 0.134737 0.117433
0.333379 0.154635 0.118166
0.420447 0.168399 0.116426
0.479561 0.178378 0.113832
0.525933 0.180575 0.104036
0.555535 0.174380 0.096498
0.575830 0.157717 0.089418
0.037720 0.168490 0.156619
0.089906 0.206149 0.164462
0.230076 0.250065 0.158907
0.367346 0.279332 0.145296
0.470771 0.302922 0.142794
0.548455 0.320745 0.134340
0.599298 0.327825 0.131167
0.640528 0.322332 0.116640
0.660517 0.297704 0.108064
0.039551 0.241062 0.193759
0.083040 0.283940 0.200717
0.190097 0.332494 0.202396
0.345098 0.367376 0.186099
0.464149 0.386297 0.180697
0.553124 0.402411 0.161959
0.618708 0.413428 0.156435
0.671290 0.410437 0.141451
0.708370 0.392615 0.125887
0.042451 0.300389 0.229984
0.074678 0.341497 0.234073
0.179904 0.393072 0.246036
0.313542 0.437476 0.249577
0.440925 0.458198 0.231601
0.544274 0.469642 0.216098
0.620630 0.478218 0.190097
0.681910 0.477485 0.176089
0.729976 0.460334 0.151003
0.047456 0.353796 0.275242
0.079469 0.387152 0.276432
0.138216 0.428199 0.285405
0.289998 0.489235 0.317937
0.415824 0.523949 0.326574
0.518273 0.533318 0.298680
0.605951 0.537957 0.276280
0.686702 0.536980 0.233249
0.733150 0.501854 0.174502
0.053254 0.400183 0.319829
0.077211 0.427131 0.319860
0.131289 0.465980 0.330877
0.244251 0.517968 0.357610
0.409232 0.574121 0.403723
0.514763 0.594232 0.398474
0.599329 0.604456 0.384009
0.687587 0.603693 0.333196
0.749722 0.576440 0.267887
0.066072 0.447242 0.363806
0.089204 0.469917 0.367864
0.135592 0.499641 0.381018
0.233890 0.547082 0.411810
0.382528 0.601862 0.456977
0.520745 0.646601 0.495247
0.614649 0.666712 0.498787
0.689174 0.674769 0.482338
0.764187 0.655238 0.393103
0.092073 0.502892 0.418250
0.131777 0.527520 0.428870
0.162356 0.548486 0.440497
0.242771 0.583459 0.468147
0.370138 0.634974 0.515679
0.511101 0.681910 0.560937
0.624659 0.718379 0.596460
0.717189 0.738186 0.600183
0.786252 0.746609 0.586145
0.045258 0.044160 0.108125
0.081514 0.047120 0.104189
0.137423 0.053285 0.112459
0.243229 0.064057 0.132540
0.331121 0.067842 0.137697
0.395270 0.068788 0.136812
0.442878 0.070344 0.131167
0.480446 0.073152 0.120333
0.510155 0.076020 0.102296
0.040040 0.081514 0.157595
0.108339 0.105898 0.171878
0.197360 0.110811 0.171847
0.309819 0.125887 0.178134
0.397681 0.133944 0.176394
0.450477 0.130098 0.164920
0.492042 0.128237 0.148531
0.520104 0.119265 0.123781
0.541894 0.109041 0.098817
0.038117 0.159091 0.211398
0.079744 0.203464 0.233219
0.243809 0.251621 0.252659
0.377447 0.275517 0.254459
0.470954 0.287449 0.250034
0.532067 0.291051 0.240238
0.576867 0.284916 0.219638
0.597040 0.239231 0.160739
0.599512 0.187778 0.117128
0.038666 0.234684 0.250431
0.076051 0.285679 0.267521
0.228733 0.341527 0.290929
0.384466 0.381628 0.298070
0.490578 0.396918 0.293217
0.564416 0.407538 0.282078
0.621973 0.406989 0.261936
0.657618 0.373114 0.204440
0.676387 0.322332 0.146578
0.041321 0.298680 0.287724
0.075654 0.349126 0.298589
0.218540 0.406958 0.321172
0.367712 0.449042 0.339422
0.491035 0.475105 0.344793
0.569116 0.483192 0.333806
0.636072 0.488746 0.308370
0.689998 0.471748 0.262425
0.721889 0.423102 0.183810
0.047089 0.356970 0.328191
0.086244 0.402014 0.336797
0.211795 0.452033 0.352178
0.361105 0.502373 0.378882
0.480110 0.531548 0.392828
0.568597 0.547448 0.394873
0.638758 0.550439 0.375219
0.700435 0.540581 0.320897
0.750912 0.500786 0.225559
0.056153 0.410529 0.372137
0.100069 0.449897 0.376898
0.212345 0.496254 0.390448
0.334462 0.536767 0.415076
0.479484 0.583520 0.451179
0.567437 0.606683 0.467811
0.642481 0.618830 0.466316
0.712428 0.612879 0.417548
0.770535 0.580621 0.316747
0.073304 0.463233 0.411170
0.136629 0.507561 0.425391
0.214420 0.538628 0.438605
0.314916 0.574456 0.460670
0.429801 0.613123 0.491615
0.564233 0.658991 0.535485
0.652766 0.683986 0.553979
0.726802 0.698146 0.554223
0.793362 0.672694 0.454658
0.129458 0.536156 0.468208
0.190036 0.568750 0.485267
0.263066 0.597375 0.503044
0.324926 0.621027 0.520989
0.425315 0.653925 0.551354
0.550927 0.696651 0.596277
0.660334 0.731868 0.633387
0.746273 0.757534 0.656703
0.814725 0.770687 0.653773
0.047364 0.046418 0.167605
0.095521 0.048829 0.160220
0.169284 0.054627 0.165103
0.240665 0.058473 0.168582
0.333379 0.062898 0.179294
0.397833 0.065400 0.181003
0.446418 0.068299 0.178073
0.483528 0.071229 0.164736
0.512291 0.074525 0.136904
0.040497 0.082826 0.214542
0.105531 0.101991 0.228519
0.201999 0.103578 0.225589
0.307591 0.115480 0.231449
0.392676 0.120790 0.233951
0.444526 0.116701 0.224033
0.482307 0.108919 0.207309
0.510613 0.101717 0.176883
0.533288 0.093538 0.132540
0.040314 0.153048 0.260960
0.079652 0.190982 0.285588
0.247379 0.243046 0.310369
0.364660 0.254948 0.313329
0.456245 0.260929 0.309270
0.515404 0.259434 0.296574
0.554650 0.245396 0.271519
0.575372 0.197269 0.208103
0.574304 0.144991 0.139132
0.040528 0.228367 0.302068
0.072999 0.284062 0.330449
0.219577 0.343725 0.353918
0.405921 0.393317 0.380957
0.499886 0.405737 0.379797
0.566278 0.412268 0.374731
0.617029 0.400732 0.352117
0.649378 0.351843 0.285466
0.652277 0.264927 0.182162
0.042176 0.293889 0.335546
0.074891 0.351507 0.355261
0.218265 0.413123 0.376867
0.401709 0.459663 0.407172
0.509667 0.482307 0.416297
0.579889 0.491615 0.412665
0.644190 0.496010 0.400305
0.696620 0.468757 0.339940
0.719326 0.393866 0.226780
0.047150 0.354131 0.371008
0.086824 0.406867 0.383185
0.229007 0.465705 0.404059
0.401404 0.510948 0.430823
0.507683 0.534783 0.443214
0.589746 0.553674 0.453773
0.654841 0.561608 0.445014
0.719875 0.553399 0.402258
0.763455 0.503929 0.291356
0.056916 0.412482 0.409491
0.113741 0.463142 0.421942
0.241276 0.513512 0.436072
0.390509 0.552911 0.462196
0.508659 0.587274 0.488655
0.595056 0.611017 0.504265
0.664942 0.627955 0.515587
0.733028 0.625727 0.479713
0.790677 0.590936 0.369818
0.078431 0.472816 0.447456
0.163149 0.527855 0.466377
0.285039 0.570062 0.485359
0.391699 0.601892 0.505486
0.493034 0.631037 0.529473
0.592737 0.664240 0.559136
0.679255 0.692134 0.585657
0.751736 0.710170 0.596887
0.815885 0.690059 0.508598
0.148196 0.555047 0.503990
0.257053 0.597345 0.527581
0.352331 0.632868 0.550072
0.418067 0.657496 0.571557
0.507866 0.684535 0.594659
0.585046 0.710445 0.621088
0.686213 0.744259 0.659358
0.773037 0.772061 0.688716
0.838804 0.789548 0.698360
0.046540 0.045350 0.217044
0.095857 0.047272 0.211276
0.181765 0.051820 0.213687
0.273808 0.056550 0.216190
0.340154 0.058900 0.214115
0.404700 0.062440 0.218265
0.452796 0.067018 0.219760
0.490120 0.071687 0.204471
0.517998 0.075288 0.169284
0.040742 0.073823 0.255894
0.096925 0.089570 0.269810
0.195407 0.093690 0.269017
0.315465 0.106538 0.277348
0.396735 0.112276 0.278386
0.445380 0.108095 0.269535
0.487007 0.108125 0.259342
0.515160 0.102144 0.224704
0.539025 0.097230 0.173434
0.040986 0.139437 0.299596
0.075807 0.182254 0.325475
0.226261 0.222049 0.348547
0.353796 0.232181 0.353277
0.451057 0.247013 0.357885
0.508080 0.245121 0.349340
0.547051 0.234195 0.329015
0.570367 0.186740 0.273472
0.571313 0.137881 0.183658
0.041993 0.215030 0.338170
0.073426 0.267918 0.366796
0.213535 0.329046 0.393591
0.396704 0.380011 0.421424
0.495521 0.397955 0.429114
0.558251 0.397894 0.421088
0.607019 0.384436 0.399451
0.638361 0.328893 0.334890
0.636011 0.235050 0.206424
0.043885 0.284825 0.372259
0.074281 0.348424 0.400732
0.208743 0.413275 0.424689
0.391455 0.461097 0.448646
0.520714 0.497444 0.476570
0.585351 0.500633 0.470863
0.644221 0.498451 0.460060
0.697841 0.462989 0.407813
0.712612 0.365057 0.261448
0.047211 0.345586 0.402899
0.080232 0.404181 0.424018
0.221225 0.468574 0.444892
0.395422 0.513512 0.470130
0.516930 0.545312 0.494636
0.597955 0.564141 0.504570
0.662135 0.569238 0.499641
0.729122 0.556207 0.465766
0.769406 0.498970 0.336675
0.053498 0.403082 0.434669
0.099672 0.459052 0.449073
0.249729 0.520623 0.472175
0.410315 0.563348 0.496620
0.520043 0.591852 0.515373
0.599359 0.613123 0.530205
0.676661 0.634119 0.545434
0.752163 0.640253 0.532616
0.808011 0.611048 0.433814
0.071046 0.463233 0.468177
0.153750 0.527672 0.492073
0.304021 0.582544 0.519493
0.426490 0.615381 0.537804
0.523095 0.646540 0.560693
0.605127 0.670893 0.581048
0.690944 0.700160 0.605158
0.771786 0.722408 0.623713
0.831968 0.708064 0.554131
0.133944 0.548699 0.519310
0.262974 0.605280 0.551446
0.404578 0.651820 0.583032
0.479957 0.678279 0.606104
0.551049 0.706111 0.630243
0.625025 0.727962 0.650355
0.704158 0.755306 0.680232
0.792508 0.786313 0.716731
0.855100 0.804166 0.730159
0.045808 0.046021 0.252995
0.087678 0.046906 0.250126
0.180880 0.050385 0.254856
0.280919 0.054383 0.256382
0.359747 0.057374 0.255131
0.412360 0.060456 0.252384
0.460334 0.065705 0.253574
0.497322 0.071992 0.246433
0.524498 0.076905 0.208927
0.041657 0.069184 0.283299
0.078553 0.080934 0.295537
0.172457 0.075624 0.294682
0.299229 0.089876 0.305180
0.393652 0.100954 0.310613
0.448585 0.101900 0.306920
0.488777 0.101656 0.297124
0.521721 0.103792 0.274510
0.546105 0.101167 0.214603
0.042237 0.123537 0.323674
0.066346 0.146304 0.341985
0.192157 0.193484 0.366979
0.317311 0.195087 0.370428
0.436561 0.219944 0.383612
0.504143 0.230625 0.384710
0.544976 0.224887 0.369238
0.577935 0.194583 0.329595
0.581872 0.149264 0.240177
0.043366 0.202365 0.364019
0.070954 0.252659 0.392523
0.192584 0.311177 0.423102
0.379690 0.364828 0.449714
0.478233 0.375387 0.454810
0.555657 0.394522 0.462013
0.603235 0.380819 0.446632
0.636713 0.333043 0.395483
0.636469 0.237552 0.280858
0.045563 0.275822 0.398718
0.074769 0.331334 0.425788
0.201755 0.394598 0.453834
0.379568 0.449928 0.480201
0.507347 0.483650 0.504601
0.583734 0.500389 0.512505
0.640467 0.494636 0.501945
0.693507 0.460365 0.456611
0.702602 0.346716 0.316014
0.048035 0.333654 0.426795
0.077272 0.393561 0.452613
0.210788 0.467140 0.479713
0.384527 0.514946 0.502617
0.509148 0.548028 0.526726
0.603540 0.575952 0.551110
0.667018 0.577417 0.546105
0.729763 0.557397 0.510948
0.768887 0.487404 0.389960
0.052461 0.390600 0.455787
0.091859 0.447761 0.475227
0.229740 0.517113 0.500847
0.400031 0.566369 0.528588
0.515831 0.595697 0.546166
0.607569 0.624689 0.570916
0.685023 0.645228 0.585290
0.758236 0.649714 0.573297
0.821500 0.626642 0.494392
0.065492 0.450324 0.484169
0.121096 0.509056 0.504448
0.271702 0.575860 0.535302
0.438178 0.624262 0.567193
0.533440 0.653284 0.586358
0.620233 0.681758 0.608850
0.697078 0.704585 0.628382
0.778714 0.728664 0.649927
0.846586 0.729213 0.609247
0.112032 0.531853 0.529534
0.239872 0.596094 0.563317
0.394293 0.653254 0.598596
0.508965 0.689387 0.630488
0.582971 0.716884 0.654780
0.652277 0.744961 0.680720
0.720455 0.766476 0.701991
0.805142 0.796414 0.736110
0.867491 0.815610 0.754452
0.045197 0.045350 0.276982
0.078614 0.045991 0.278141
0.172213 0.049683 0.288426
0.287114 0.052888 0.292760
0.369787 0.056672 0.291051
0.424323 0.060182 0.289891
0.466041 0.063996 0.289128
0.503044 0.070497 0.284886
0.531975 0.078157 0.260563
0.042512 0.058137 0.299840
0.068452 0.062776 0.307500
0.140963 0.063142 0.310124
0.272068 0.072938 0.323583
0.382025 0.088716 0.334905
0.444587 0.092073 0.333898
0.489967 0.094820 0.331579
0.524193 0.099794 0.315160
0.554925 0.105776 0.274205
0.042969 0.107240 0.338506
0.059205 0.122408 0.351537
0.164981 0.155428 0.374029
0.270222 0.158907 0.378302
0.409079 0.189303 0.396704
0.489876 0.204929 0.403723
0.542535 0.214420 0.402930
0.581628 0.196658 0.378607
0.593164 0.160586 0.307225
0.044221 0.180148 0.379980
0.060700 0.206546 0.397223
0.172488 0.263325 0.426856
0.323537 0.301106 0.450080
0.434653 0.318532 0.461158
0.534691 0.348699 0.476722
0.600031 0.370062 0.481025
0.641138 0.338476 0.450629
0.648249 0.260410 0.356481
0.046845 0.265354 0.421027
0.072633 0.316136 0.446906
0.191043 0.376440 0.477089
0.349508 0.426474 0.503624
0.483421 0.459190 0.524651
0.562951 0.472343 0.533501
0.639704 0.495903 0.545220
0.692775 0.468727 0.518914
0.702907 0.358618 0.409155
0.049378 0.325811 0.450263
0.076143 0.377661 0.473182
0.206455 0.444831 0.501701
0.359106 0.493263 0.527031
0.493431 0.532708 0.552453
0.590021 0.561212 0.577142
0.666133 0.582483 0.591455
0.726711 0.563653 0.570977
0.756802 0.476387 0.468635
0.051698 0.377691 0.474647
0.080262 0.434058 0.495888
0.215030 0.507927 0.525231
0.377020 0.559960 0.550835
0.503471 0.596582 0.576318
0.598718 0.627070 0.603174
0.693324 0.660060 0.634699
0.762661 0.659480 0.629450
0.824063 0.627375 0.564416
0.059510 0.435462 0.500481
0.102235 0.493599 0.523888
0.235599 0.563622 0.552331
0.408026 0.617914 0.585077
0.526329 0.656519 0.613886
0.619989 0.686122 0.636408
0.705440 0.717983 0.662379
0.788479 0.740871 0.681361
0.861631 0.744076 0.661585
0.092103 0.509148 0.538537
0.186160 0.573938 0.567773
0.347539 0.641535 0.606775
0.480781 0.684627 0.642390
0.584131 0.721340 0.674189
0.663050 0.751278 0.700465
0.735378 0.781369 0.726009
0.811307 0.805142 0.748043
0.880858 0.830198 0.776913
0.045594 0.045716 0.294804
0.064851 0.045411 0.296361
0.148470 0.049012 0.310033
0.274449 0.053162 0.321965
0.369177 0.056641 0.324437
0.428595 0.060304 0.325414
0.473915 0.064149 0.326238
0.509331 0.070283 0.326848
0.538811 0.078859 0.312688
0.044343 0.057893 0.314366
0.062196 0.058503 0.317815
0.110597 0.055879 0.322393
0.223941 0.062806 0.336400
0.349523 0.071534 0.349767
0.429267 0.080415 0.355474
0.487160 0.089204 0.357610
0.528344 0.098238 0.358740
0.563989 0.111940 0.337896
0.044587 0.087831 0.343084
0.055604 0.092836 0.346807
0.122469 0.107393 0.366033
0.218753 0.098878 0.366949
0.341787 0.116396 0.385046
0.443946 0.137636 0.402441
0.524285 0.166598 0.416114
0.582483 0.194766 0.422370
0.607202 0.179812 0.384222
0.044984 0.147372 0.382574
0.055787 0.155428 0.391363
0.109377 0.175875 0.408209
0.249546 0.205905 0.431128
0.346731 0.210254 0.438819
0.477302 0.259220 0.466224
0.574304 0.298741 0.486519
0.643061 0.345586 0.500908
0.663172 0.290227 0.446540
0.048432 0.234836 0.427375
0.065675 0.251392 0.438239
0.129854 0.280140 0.457374
0.264485 0.310140 0.480323
0.394919 0.331868 0.503685
0.492409 0.365881 0.522576
0.614160 0.428107 0.554284
0.691951 0.474037 0.569696
0.715114 0.409125 0.514214
0.051698 0.316106 0.466865
0.075166 0.352117 0.485084
0.162356 0.395819 0.508965
0.303868 0.435828 0.533959
0.436225 0.466987 0.560082
0.539391 0.476631 0.576196
0.642084 0.531273 0.604974
0.724910 0.578058 0.627649
0.764187 0.527001 0.582300
0.054627 0.373022 0.492287
0.080201 0.414435 0.510948
0.181735 0.471534 0.538720
0.334386 0.523919 0.569207
0.466011 0.565576 0.599725
0.574060 0.599970 0.627985
0.677516 0.637934 0.661250
0.759274 0.667231 0.683619
0.814908 0.637232 0.648096
0.057313 0.420630 0.514733
0.087160 0.473762 0.535424
0.192416 0.541863 0.565270
0.356054 0.600000 0.597467
0.489845 0.645441 0.631220
0.592126 0.680690 0.662287
0.691279 0.716701 0.696101
0.795651 0.757351 0.736782
0.881132 0.769192 0.746609
0.075502 0.488167 0.546349
0.145144 0.549157 0.574243
0.266484 0.615137 0.607996
0.422568 0.668910 0.646479
0.557336 0.717006 0.686152
0.653773 0.752590 0.716854
0.739254 0.786984 0.746975
0.825254 0.829435 0.782345
0.902586 0.856565 0.812284
0.044556 0.045960 0.305669
0.065156 0.045289 0.308721
0.122438 0.047822 0.323644
0.242771 0.051667 0.343572
0.345434 0.055451 0.351415
0.424933 0.059724 0.358190
0.474098 0.064240 0.361120
0.511955 0.070954 0.363348
0.545159 0.080934 0.365759
0.043824 0.051545 0.318914
0.056336 0.050599 0.321386
0.093874 0.050416 0.328038
0.174563 0.053986 0.345586
0.296483 0.060578 0.362158
0.404181 0.068238 0.375982
0.481971 0.083436 0.388220
0.529503 0.098512 0.394232
0.573266 0.121340 0.401923
0.044617 0.067720 0.340215
0.051881 0.067048 0.339971
0.094942 0.071046 0.352544
0.151736 0.067964 0.359533
0.256657 0.078553 0.379034
0.378851 0.087953 0.396063
0.481697 0.112123 0.415961
0.566827 0.158724 0.440253
0.629908 0.229282 0.467140
0.045472 0.108003 0.371221
0.051911 0.098726 0.367376
0.092042 0.095949 0.373297
0.163668 0.096376 0.388190
0.239841 0.099367 0.398901
0.374182 0.132174 0.428534
0.502922 0.178836 0.460548
0.611872 0.257481 0.500084
0.685878 0.358160 0.537957
0.046235 0.170687 0.411749
0.054139 0.161135 0.410407
0.096071 0.167849 0.418280
0.168032 0.159976 0.426276
0.265675 0.145632 0.434882
0.368811 0.158572 0.449989
0.523796 0.234348 0.498848
0.657923 0.370336 0.561883
0.729824 0.478096 0.603235
0.049256 0.250370 0.454322
0.059236 0.242863 0.454963
0.112093 0.251041 0.466590
0.193942 0.250706 0.479713
0.301915 0.249516 0.493996
0.421118 0.253544 0.505272
0.554192 0.311864 0.544030
0.696742 0.472847 0.618189
0.767452 0.577722 0.661952
0.053803 0.340276 0.498085
0.073243 0.352300 0.505730
0.146242 0.380133 0.525017
0.242985 0.396185 0.545373
0.366766 0.408606 0.567834
0.491981 0.414008 0.586328
0.613153 0.436988 0.609949
0.724971 0.563500 0.671748
0.806607 0.671016 0.722591
0.059602 0.409308 0.530205
0.082185 0.438666 0.544945
0.166720 0.488746 0.572595
0.285679 0.541863 0.608057
0.419837 0.588922 0.645502
0.544549 0.628107 0.678157
0.664820 0.648310 0.708339
0.784970 0.713375 0.760281
0.863737 0.774502 0.798733
0.067506 0.468605 0.556329
0.104463 0.519310 0.577844
0.195651 0.578271 0.607965
0.312993 0.632197 0.640925
0.442802 0.682979 0.679255
0.574578 0.729976 0.719570
0.704463 0.782650 0.770016
0.814054 0.835904 0.825681
0.922637 0.887480 0.880308
