assets/luts/impulz-kodak-ektar-100-fpe-log-78a7ad91.cube
# (C) 2014 VisionColor & Patchflyer [www.vision-color.com]
# Generator: VC Patchmatch v.2.1.1 [64/53]
# All work and no play makes Jack a dull boy.
# LUT generated from: Kodak Ektar 100_FPE
LUT_3D_SIZE 9
0.033692 0.031983 0.032746
0.060792 0.040284 0.037812
0.124117 0.051911 0.044465
0.215946 0.062470 0.049897
0.312535 0.062806 0.052247
0.393896 0.065095 0.055177
0.472755 0.079713 0.062501
0.523796 0.090913 0.069795
0.548363 0.101381 0.077790
0.040742 0.064332 0.051789
0.063905 0.071077 0.048829
0.139010 0.098634 0.053834
0.247440 0.130434 0.055177
0.371923 0.152621 0.055726
0.474098 0.175479 0.058503
0.572168 0.220829 0.068452
0.644343 0.273045 0.082307
0.660578 0.272709 0.090425
0.044038 0.141878 0.085298
0.063325 0.144656 0.074281
0.123751 0.159792 0.064942
0.223545 0.188205 0.058991
0.374166 0.234531 0.056214
0.522667 0.292515 0.063539
0.640345 0.359777 0.082002
0.727596 0.433509 0.112001
0.745663 0.433875 0.123964
0.041474 0.213809 0.102663
0.061646 0.227848 0.089509
0.102327 0.239963 0.080354
0.205203 0.267369 0.066468
0.337819 0.300587 0.061463
0.521614 0.378241 0.071992
0.660273 0.450843 0.097810
0.763577 0.522301 0.139284
0.792172 0.532982 0.161654
0.042969 0.279240 0.131136
0.052461 0.297734 0.122438
0.076051 0.314244 0.109682
0.156374 0.346471 0.096010
0.314061 0.383581 0.074769
0.478752 0.430426 0.077729
0.625589 0.484565 0.101137
0.737575 0.529961 0.132265
0.784298 0.537682 0.155306
0.046387 0.344274 0.177371
0.048402 0.355596 0.174075
0.054871 0.370092 0.166598
0.095766 0.405371 0.160006
0.226246 0.447883 0.139162
0.389593 0.468116 0.095888
0.555566 0.502373 0.101930
0.684901 0.530449 0.125093
0.760220 0.530449 0.143221
0.054108 0.408362 0.243198
0.055055 0.409888 0.236667
0.058228 0.417578 0.236637
0.076478 0.447089 0.254948
0.162463 0.502068 0.273045
0.332113 0.534630 0.231296
0.510674 0.550774 0.170962
0.669093 0.579553 0.167514
0.777859 0.599207 0.196078
0.067292 0.463050 0.315526
0.068055 0.462745 0.310796
0.078004 0.475624 0.314885
0.128176 0.521843 0.363439
0.242176 0.583368 0.420539
0.396719 0.620172 0.402747
0.558465 0.639796 0.348028
0.706844 0.660670 0.324102
0.810788 0.682307 0.331792
0.092561 0.511040 0.388037
0.096040 0.514305 0.389776
0.116121 0.532036 0.399207
0.214176 0.590875 0.446204
0.407645 0.665187 0.522271
0.573999 0.711299 0.557580
0.675685 0.725765 0.531975
0.765560 0.736446 0.515923
0.834165 0.745144 0.497505
0.034577 0.033448 0.040223
0.052918 0.037781 0.043244
0.105257 0.048463 0.053223
0.186526 0.059419 0.065827
0.291386 0.061982 0.067842
0.379126 0.063050 0.067628
0.453315 0.067597 0.069612
0.503563 0.073426 0.074586
0.529595 0.081636 0.080415
0.036011 0.054658 0.063050
0.061250 0.062287 0.064973
0.153780 0.079072 0.067262
0.268894 0.083070 0.062226
0.370916 0.082185 0.060883
0.456062 0.083619 0.062867
0.519982 0.094423 0.069184
0.546685 0.102113 0.076783
0.559655 0.112337 0.084016
0.037690 0.126497 0.112184
0.054994 0.160861 0.112123
0.159304 0.187350 0.094484
0.312444 0.207675 0.072663
0.459434 0.237858 0.067048
0.572992 0.266667 0.070466
0.658015 0.309514 0.085237
0.685237 0.320958 0.096620
0.658473 0.261021 0.096803
0.036591 0.203281 0.151705
0.045899 0.251133 0.139071
0.099702 0.285283 0.124788
0.274510 0.325780 0.096986
0.452720 0.354986 0.077302
0.619348 0.411444 0.087129
0.729671 0.466957 0.116518
0.767514 0.485084 0.140902
0.733883 0.399695 0.121584
0.039643 0.273259 0.186191
0.045899 0.327001 0.179385
0.061585 0.358984 0.173617
0.175875 0.411933 0.167391
0.385016 0.448920 0.119081
0.572946 0.478553 0.100374
0.714229 0.517937 0.124483
0.771817 0.524437 0.146273
0.754940 0.459937 0.130739
0.044678 0.345861 0.238987
0.052277 0.397772 0.242588
0.056123 0.407630 0.236515
0.086122 0.446082 0.248508
0.262715 0.517052 0.257328
0.488045 0.542901 0.183505
0.661921 0.552666 0.143679
0.752529 0.540887 0.150088
0.754025 0.488258 0.136324
0.052094 0.410803 0.305486
0.067048 0.462196 0.317235
0.070649 0.465248 0.311223
0.108309 0.505577 0.349279
0.255146 0.580438 0.404578
0.482506 0.630091 0.377844
0.685786 0.653132 0.321111
0.788205 0.644221 0.267552
0.800870 0.594141 0.230167
0.065400 0.468147 0.377264
0.101869 0.518456 0.394141
0.099519 0.518059 0.391302
0.167666 0.566369 0.427253
0.379965 0.654566 0.510765
0.596139 0.711513 0.542382
0.733089 0.732265 0.521324
0.829923 0.742275 0.494911
0.846159 0.718807 0.439979
0.110048 0.536950 0.451484
0.253208 0.617517 0.511864
0.188022 0.589136 0.483314
0.208713 0.602075 0.492439
0.410666 0.676020 0.561944
0.623789 0.743191 0.632166
0.741756 0.771603 0.648096
0.816129 0.780514 0.634852
0.866880 0.783871 0.602197
0.037171 0.037293 0.068574
0.054902 0.040558 0.068116
0.090120 0.045502 0.072450
0.162997 0.055543 0.089265
0.270817 0.061158 0.100679
0.370092 0.062989 0.105806
0.444495 0.065339 0.100374
0.498390 0.070283 0.098299
0.525383 0.077241 0.096223
0.037415 0.054749 0.100069
0.060273 0.055085 0.106813
0.126802 0.063325 0.109377
0.240879 0.072267 0.111147
0.352148 0.071046 0.105959
0.433387 0.068666 0.090394
0.493996 0.071748 0.083436
0.525628 0.079561 0.084749
0.540032 0.088319 0.089143
0.035981 0.110170 0.144747
0.045960 0.145327 0.181369
0.160769 0.167910 0.172854
0.310506 0.176089 0.154635
0.428138 0.160922 0.118959
0.500908 0.138003 0.090852
0.539178 0.116213 0.078187
0.555230 0.108827 0.082673
0.576318 0.128725 0.095369
0.035859 0.189853 0.194827
0.039918 0.241276 0.217350
0.103548 0.282414 0.211612
0.321004 0.336736 0.206088
0.493248 0.344732 0.147707
0.613062 0.352636 0.118013
0.674495 0.340673 0.101381
0.681453 0.306371 0.102724
0.678462 0.289158 0.116915
0.037964 0.265721 0.236271
0.043397 0.327367 0.264988
0.069184 0.359869 0.246860
0.223056 0.434485 0.263539
0.453483 0.473167 0.238178
0.621042 0.477485 0.154772
0.716304 0.467384 0.126131
0.743984 0.439734 0.126040
0.744869 0.421576 0.145846
0.043061 0.343725 0.296452
0.051972 0.406836 0.329534
0.062074 0.425238 0.310002
0.121782 0.475502 0.328099
0.367407 0.568109 0.380438
0.579889 0.596887 0.339574
0.714260 0.568536 0.204044
0.761135 0.511986 0.154360
0.772702 0.499672 0.169589
0.052308 0.418250 0.363287
0.069093 0.475776 0.397955
0.107149 0.515526 0.402258
0.112917 0.521904 0.402258
0.299290 0.612604 0.476753
0.581430 0.687922 0.517998
0.739742 0.706600 0.483040
0.807248 0.656458 0.338659
0.812192 0.605158 0.268589
0.074006 0.486122 0.430426
0.149966 0.563409 0.480720
0.243320 0.618128 0.512444
0.163516 0.578058 0.477028
0.346395 0.653376 0.544579
0.615274 0.738277 0.627497
0.765225 0.771420 0.640101
0.850217 0.777676 0.603387
0.848814 0.733608 0.510002
0.166110 0.584619 0.516991
0.361639 0.665156 0.582483
0.421759 0.688685 0.605341
0.322896 0.652827 0.568475
0.444480 0.692500 0.610040
0.643412 0.755093 0.677699
0.757992 0.788907 0.709194
0.825254 0.801907 0.709377
0.875334 0.807950 0.687221
0.040192 0.040040 0.116823
0.067567 0.043824 0.112917
0.101991 0.047181 0.113588
0.148104 0.051606 0.117556
0.261326 0.057801 0.135714
0.369055 0.061891 0.147311
0.445411 0.064088 0.148287
0.499672 0.068757 0.139315
0.525780 0.075807 0.120821
0.037415 0.054353 0.153262
0.054475 0.047639 0.166323
0.126284 0.054749 0.163424
0.230198 0.062989 0.166995
0.347875 0.064179 0.162753
0.433417 0.065003 0.150454
0.494118 0.068849 0.132387
0.524315 0.076509 0.114748
0.539635 0.085573 0.104616
0.037385 0.107057 0.200778
0.042847 0.106752 0.230930
0.140902 0.127535 0.231662
0.289174 0.143191 0.233127
0.404486 0.122560 0.206607
0.472114 0.095949 0.166598
0.512261 0.082063 0.118441
0.537194 0.085878 0.096742
0.566674 0.114839 0.112245
0.037476 0.180301 0.245762
0.041505 0.233188 0.303593
0.098329 0.282170 0.316594
0.333547 0.331106 0.325078
0.491997 0.329381 0.300023
0.574243 0.281483 0.231739
0.589563 0.194293 0.139010
0.583947 0.144350 0.103853
0.642725 0.222370 0.139376
0.038575 0.256992 0.286961
0.042939 0.321080 0.338811
0.074250 0.373846 0.346593
0.265187 0.437400 0.351415
0.509468 0.486839 0.370108
0.635096 0.476738 0.297658
0.707057 0.431968 0.208179
0.718959 0.376089 0.154208
0.747311 0.416464 0.206470
0.042664 0.337957 0.344091
0.054322 0.414466 0.399878
0.084260 0.461952 0.406317
0.188556 0.501457 0.397711
0.456641 0.585290 0.452186
0.640070 0.618006 0.461738
0.743587 0.581262 0.325811
0.777920 0.519127 0.206790
0.800748 0.541680 0.265202
0.054078 0.423957 0.411261
0.084962 0.504356 0.465095
0.193851 0.579187 0.503655
0.204395 0.576898 0.481575
0.379721 0.638605 0.531487
0.637842 0.711147 0.597406
0.772824 0.737148 0.598077
0.823697 0.675105 0.418372
0.835477 0.650202 0.382635
0.092531 0.511131 0.478187
0.222324 0.607355 0.548608
0.431891 0.690761 0.612451
0.386358 0.672511 0.589441
0.411337 0.679530 0.595972
0.647868 0.751980 0.673060
0.780484 0.787808 0.704707
0.858427 0.802518 0.697017
0.861234 0.757809 0.586786
0.214115 0.614252 0.561669
0.502129 0.714321 0.648280
0.559228 0.731502 0.667140
0.540032 0.726375 0.662501
0.585580 0.739864 0.675441
0.691157 0.772580 0.712612
0.780179 0.801816 0.746853
0.840574 0.819516 0.765164
0.879179 0.826535 0.759243
0.041718 0.040009 0.176120
0.078981 0.044343 0.176333
0.128389 0.047517 0.174868
0.193668 0.050904 0.172885
0.263874 0.054688 0.171542
0.371466 0.059205 0.184482
0.451118 0.063386 0.190127
0.505119 0.069215 0.180179
0.529809 0.075990 0.145754
0.039124 0.048524 0.208011
0.046815 0.042695 0.227268
0.129946 0.048463 0.228824
0.246891 0.053285 0.224582
0.358831 0.057801 0.219455
0.443946 0.062898 0.207706
0.503685 0.068696 0.189914
0.529046 0.076265 0.149966
0.541711 0.084688 0.128145
0.038727 0.087007 0.246159
0.040772 0.073823 0.270146
0.090669 0.077882 0.273533
0.264927 0.093874 0.282506
0.408209 0.102876 0.281804
0.476448 0.084535 0.239185
0.518883 0.079377 0.176761
0.540703 0.085176 0.130373
0.570703 0.114290 0.151614
0.039551 0.166751 0.294438
0.041779 0.182528 0.337255
0.069215 0.206363 0.353826
0.278294 0.259190 0.375158
0.477867 0.294804 0.387152
0.548760 0.235859 0.328878
0.573816 0.165331 0.232471
0.578119 0.130648 0.156176
0.643549 0.218097 0.210681
0.041291 0.247410 0.335210
0.045502 0.303899 0.397314
0.072358 0.365789 0.423713
0.261799 0.443473 0.446754
0.516640 0.493584 0.472908
0.624720 0.477409 0.442741
0.684932 0.406638 0.347341
0.692638 0.320729 0.227253
0.751492 0.424033 0.306905
0.044282 0.327245 0.383337
0.052369 0.401709 0.442786
0.076753 0.455695 0.462287
0.250248 0.534691 0.485298
0.478294 0.578790 0.497780
0.657160 0.615900 0.524010
0.755428 0.598932 0.458564
0.793942 0.550286 0.351781
0.826688 0.597467 0.428840
0.052857 0.417853 0.441505
0.084779 0.506920 0.504723
0.240772 0.600275 0.558953
0.363043 0.641566 0.573541
0.468711 0.656703 0.569116
0.663127 0.709407 0.615045
0.787411 0.739254 0.637934
0.837278 0.698543 0.516899
0.854673 0.697658 0.517357
0.093263 0.514916 0.507500
0.242374 0.621332 0.586725
0.509972 0.716731 0.660548
0.553552 0.727047 0.668757
0.555230 0.724422 0.657801
0.677089 0.760433 0.694545
0.794095 0.793667 0.730129
0.863340 0.812589 0.742458
0.872770 0.784695 0.666590
0.223606 0.621668 0.586816
0.512627 0.718593 0.666499
0.616053 0.750759 0.700099
0.623102 0.752743 0.704982
0.663783 0.765835 0.712673
0.731868 0.787167 0.733211
0.801938 0.811063 0.762875
0.857450 0.829892 0.785855
0.890166 0.837888 0.785122
0.043397 0.040650 0.232700
0.077913 0.044099 0.237919
0.152193 0.046204 0.236912
0.234623 0.049104 0.232090
0.310796 0.052613 0.224216
0.382422 0.058015 0.219242
0.459632 0.063569 0.231022
0.512718 0.070222 0.228122
0.538506 0.077852 0.199496
0.040681 0.045960 0.253788
0.043488 0.041749 0.267979
0.100221 0.045686 0.278904
0.246723 0.049683 0.285466
0.368536 0.054261 0.278080
0.456764 0.061646 0.272679
0.516503 0.070863 0.261265
0.539239 0.078035 0.220706
0.548486 0.086427 0.175601
0.039948 0.069551 0.282475
0.042359 0.052735 0.293858
0.055055 0.049561 0.294835
0.198352 0.057984 0.313787
0.379141 0.068391 0.319432
0.485176 0.075441 0.316258
0.532311 0.079957 0.264408
0.549218 0.086946 0.196658
0.576867 0.117800 0.212619
0.041077 0.142306 0.327642
0.042939 0.110521 0.341619
0.049653 0.107774 0.347387
0.156695 0.130419 0.362524
0.405173 0.176501 0.393668
0.541497 0.204608 0.399451
0.580133 0.159258 0.325200
0.587640 0.136721 0.241733
0.648188 0.224018 0.298070
0.043091 0.235752 0.374853
0.045960 0.252674 0.417914
0.057252 0.285115 0.442908
0.167285 0.337377 0.465202
0.443976 0.408484 0.498375
0.620569 0.466148 0.523308
0.680293 0.401144 0.457664
0.687922 0.317586 0.352667
0.747036 0.424918 0.423621
0.046052 0.310307 0.413245
0.050599 0.372320 0.478187
0.064546 0.425116 0.504814
0.200183 0.513329 0.534295
0.468986 0.582849 0.564965
0.649653 0.619287 0.593072
0.735531 0.603143 0.568627
0.787198 0.560006 0.492546
0.825345 0.613672 0.547097
0.051575 0.401495 0.465461
0.069154 0.481239 0.530022
0.133883 0.545769 0.563439
0.280903 0.618494 0.593225
0.508492 0.674159 0.624872
0.648341 0.695949 0.626886
0.772183 0.723201 0.650172
0.840787 0.716152 0.613169
0.868711 0.726650 0.640406
0.077455 0.495979 0.523095
0.148959 0.581903 0.587396
0.341665 0.666072 0.640040
0.492485 0.711879 0.675715
0.609369 0.742611 0.697810
0.682002 0.759609 0.700191
0.790066 0.789670 0.728176
0.861692 0.809567 0.748135
0.881437 0.793149 0.712703
0.161410 0.594141 0.589776
0.373281 0.677607 0.646662
0.532662 0.724269 0.688289
0.618921 0.752316 0.716640
0.688197 0.775326 0.735683
0.747768 0.794339 0.744595
0.802426 0.814176 0.760922
0.856687 0.833951 0.784848
0.898924 0.846799 0.794858
0.043061 0.041169 0.271519
0.064851 0.043183 0.278080
0.155489 0.046571 0.290715
0.276707 0.049134 0.295445
0.352270 0.052003 0.286351
0.411261 0.056641 0.281773
0.469612 0.063600 0.277806
0.521294 0.072358 0.284520
0.546624 0.078889 0.271641
0.042329 0.045777 0.286992
0.042939 0.042023 0.291386
0.081849 0.044373 0.306889
0.242512 0.048951 0.332586
0.382910 0.053956 0.337652
0.467597 0.060426 0.337560
0.528649 0.072175 0.339605
0.549340 0.080018 0.313756
0.557488 0.089265 0.263096
0.041657 0.054810 0.302831
0.042847 0.048005 0.309850
0.046113 0.044709 0.305730
0.146059 0.049409 0.333257
0.343069 0.056855 0.355413
0.475227 0.065980 0.362249
0.545129 0.083436 0.366400
0.563928 0.093690 0.319341
0.589258 0.132509 0.297154
0.042329 0.093568 0.336645
0.043153 0.069551 0.338567
0.045502 0.058656 0.331304
0.086397 0.061952 0.339635
0.286793 0.077699 0.375555
0.489021 0.117205 0.407080
0.594385 0.173541 0.427893
0.610346 0.164157 0.367224
0.662043 0.250477 0.396307
0.044221 0.203601 0.399603
0.045197 0.179706 0.413489
0.047120 0.137072 0.393668
0.078737 0.148272 0.402090
0.288731 0.203616 0.445487
0.548394 0.309224 0.507958
0.682521 0.415824 0.547692
0.698848 0.352743 0.476265
0.750484 0.456779 0.522881
0.048188 0.307897 0.450690
0.051759 0.350286 0.500877
0.055848 0.339818 0.503197
0.117082 0.384253 0.523735
0.359182 0.463569 0.567498
0.593179 0.534340 0.605768
0.732754 0.611353 0.645533
0.781186 0.575936 0.604379
0.819364 0.627863 0.632136
0.050813 0.376989 0.487495
0.059602 0.443580 0.545342
0.081910 0.496742 0.573419
0.160632 0.560235 0.597040
0.411917 0.644007 0.639826
0.628382 0.693629 0.674250
0.764706 0.727413 0.704768
0.829435 0.717464 0.690486
0.876188 0.746792 0.720974
0.071077 0.478004 0.542687
0.118776 0.557763 0.598108
0.194064 0.610468 0.625666
0.332784 0.662318 0.655512
0.547402 0.727687 0.701198
0.687404 0.765377 0.726894
0.774411 0.786954 0.735012
0.856596 0.807706 0.757107
0.894469 0.808652 0.763851
0.125643 0.569207 0.596063
0.226566 0.624964 0.628443
0.373953 0.678889 0.663203
0.550515 0.732845 0.707912
0.670237 0.771481 0.740810
0.754269 0.800992 0.761563
0.811795 0.826993 0.778012
0.863066 0.844419 0.792325
0.906645 0.859495 0.810941
0.042786 0.041688 0.291173
0.057862 0.042756 0.298192
0.138430 0.046326 0.318059
0.279210 0.049226 0.336645
0.375463 0.052674 0.339117
0.432868 0.057374 0.336828
0.489601 0.063813 0.338964
0.529320 0.073060 0.340978
0.552483 0.080140 0.335729
0.042634 0.045594 0.303929
0.043183 0.042390 0.303777
0.082734 0.045136 0.320653
0.206607 0.048829 0.345983
0.356252 0.053559 0.363958
0.455482 0.060578 0.372534
0.523919 0.071656 0.380346
0.558007 0.083955 0.385107
0.570886 0.099275 0.357214
0.042390 0.051820 0.317815
0.042908 0.047974 0.318029
0.045380 0.045014 0.315129
0.147738 0.050172 0.348058
0.319814 0.057069 0.376989
0.465980 0.067567 0.395636
0.537957 0.083070 0.404089
0.578729 0.109926 0.415991
0.619043 0.177493 0.406897
0.043366 0.067689 0.339788
0.043305 0.058320 0.337469
0.045777 0.053986 0.334081
0.064942 0.053010 0.339818
0.239918 0.062806 0.381994
0.451926 0.084291 0.415564
0.574701 0.145418 0.451057
0.655055 0.267201 0.503105
0.688563 0.327092 0.499031
0.044526 0.150561 0.398016
0.044953 0.112428 0.386053
0.045991 0.078248 0.361822
0.072694 0.074098 0.365606
0.187884 0.085267 0.394110
0.451743 0.160678 0.462409
0.638758 0.311299 0.539178
0.729305 0.468238 0.603174
0.757382 0.511238 0.605890
0.049317 0.291630 0.475013
0.049714 0.268849 0.478645
0.049317 0.201099 0.446143
0.082979 0.189425 0.446510
0.261463 0.236347 0.488746
0.490227 0.297322 0.533013
0.698909 0.504829 0.633936
0.776974 0.609308 0.678553
0.817655 0.663813 0.696590
0.053010 0.379980 0.515648
0.056153 0.402991 0.543542
0.063172 0.406683 0.552178
0.113466 0.441657 0.572381
0.330159 0.528801 0.624842
0.583597 0.593484 0.669612
0.729458 0.649195 0.706203
0.821164 0.725368 0.748501
0.866056 0.757382 0.765286
0.061006 0.446632 0.547997
0.087800 0.517021 0.592279
0.137728 0.575586 0.619776
0.200656 0.610285 0.636378
0.377676 0.675380 0.676814
0.625742 0.749233 0.737301
0.759945 0.788388 0.773556
0.852811 0.813931 0.798581
0.904173 0.829648 0.816800
0.116884 0.558709 0.605127
0.188174 0.607752 0.628748
0.275181 0.645350 0.648890
0.433646 0.702235 0.688289
0.623728 0.761715 0.739315
0.746212 0.803494 0.774838
0.811032 0.834043 0.800320
0.873716 0.861936 0.827390
0.912718 0.870970 0.839658
0.043305 0.042573 0.304906
0.060883 0.043610 0.313146
0.128176 0.046357 0.330816
0.244968 0.049348 0.351507
0.359442 0.053315 0.366522
0.434546 0.058442 0.372198
0.495186 0.065156 0.377722
0.538567 0.074647 0.384924
0.559716 0.084016 0.388006
0.042664 0.045960 0.313237
0.045441 0.044800 0.315190
0.105715 0.048432 0.337804
0.215946 0.051728 0.360327
0.353445 0.057588 0.381567
0.460090 0.065858 0.396033
0.515740 0.074464 0.400885
0.557885 0.091737 0.410254
0.582788 0.115816 0.421149
0.042786 0.051484 0.326452
0.045441 0.050629 0.328252
0.057740 0.051026 0.334417
0.164004 0.055818 0.366705
0.312001 0.064485 0.393164
0.465461 0.079072 0.417273
0.548608 0.113344 0.438331
0.601129 0.165011 0.461463
0.648554 0.244968 0.495583
0.043824 0.062348 0.344152
0.045624 0.058473 0.341131
0.059571 0.058869 0.347631
0.122972 0.064393 0.371344
0.283528 0.080049 0.406714
0.468177 0.126558 0.450965
0.602319 0.216556 0.501549
0.674372 0.325811 0.548730
0.726741 0.456519 0.605341
0.044465 0.103334 0.382513
0.046510 0.076814 0.362799
0.063478 0.078096 0.366766
0.150622 0.088899 0.394598
0.326345 0.118654 0.436835
0.521385 0.213626 0.503319
0.668849 0.376349 0.582574
0.735164 0.498619 0.635431
0.765896 0.572412 0.665248
0.047913 0.227085 0.456397
0.048005 0.163821 0.425361
0.067872 0.149660 0.422095
0.191455 0.204196 0.470100
0.400137 0.239002 0.510674
0.571969 0.306874 0.556817
0.704036 0.497368 0.644709
0.777829 0.627710 0.706722
0.804868 0.663386 0.718563
0.053498 0.352117 0.521477
0.055634 0.322515 0.513634
0.080507 0.330114 0.522484
0.213275 0.413062 0.573236
0.460258 0.486763 0.627588
0.639994 0.531167 0.663172
0.748684 0.629770 0.717647
0.817868 0.731380 0.771847
0.853056 0.752682 0.783780
0.057282 0.422736 0.552728
0.068696 0.450202 0.571069
0.108003 0.491920 0.594263
0.243122 0.575738 0.640711
0.487449 0.661158 0.701137
0.667292 0.715419 0.750423
0.774289 0.777218 0.797055
0.857206 0.816770 0.831693
0.897154 0.830198 0.842863
0.088808 0.523674 0.596887
0.142824 0.578271 0.621515
0.208743 0.617975 0.640375
0.301839 0.656794 0.666010
0.529976 0.735348 0.728176
0.716793 0.801236 0.790249
0.800412 0.836881 0.827451
0.868894 0.864652 0.856565
0.922637 0.887480 0.880308
