assets/luts/impulz-kodak-ultramax-400-fpe-log-0cf8f1a9.cube
# (C) 2014 VisionColor & Patchflyer [www.vision-color.com]
# Generator: VC Patchmatch v.2.1.1 [64/53]
# All work and no play makes Jack a dull boy.
# LUT generated from: Kodak Ultramax 400_FPE
LUT_3D_SIZE 5
0.032502 0.036225 0.035950
0.084504 0.042390 0.036408
0.236179 0.048310 0.040162
0.394263 0.045228 0.045411
0.504784 0.051575 0.057282
0.058534 0.091859 0.040314
0.232425 0.145998 0.040040
0.470726 0.189670 0.048890
0.601251 0.176455 0.056153
0.680934 0.172183 0.064332
0.318288 0.332860 0.045563
0.466697 0.399329 0.057557
0.674998 0.444465 0.080934
0.804074 0.447944 0.094484
0.827543 0.397406 0.090486
0.474525 0.492470 0.067445
0.602472 0.541375 0.085756
0.795102 0.585626 0.118624
0.890776 0.592432 0.132692
0.901732 0.562463 0.128542
0.362860 0.535851 0.067597
0.616815 0.604028 0.097932
0.824216 0.652461 0.133059
0.908965 0.663386 0.150729
0.930541 0.661463 0.154635
0.029877 0.036347 0.093446
0.088685 0.043641 0.102510
0.259983 0.046723 0.120333
0.402594 0.045838 0.133974
0.507042 0.052857 0.138888
0.037324 0.127901 0.139956
0.198306 0.190921 0.174197
0.417777 0.167300 0.139803
0.541802 0.104707 0.108064
0.676753 0.218814 0.189578
0.133333 0.326665 0.153719
0.386023 0.436377 0.123384
0.711986 0.516472 0.168338
0.811978 0.449088 0.123934
0.829648 0.459236 0.214511
0.154330 0.434546 0.098268
0.404730 0.532677 0.070222
0.784787 0.635645 0.134859
0.914183 0.647181 0.153597
0.904082 0.623407 0.216556
0.131960 0.472053 0.059663
0.462531 0.600793 0.109071
0.755856 0.693385 0.195712
0.881071 0.712764 0.208347
0.930938 0.706569 0.186130
0.033387 0.035676 0.195987
0.061463 0.039094 0.181857
0.228763 0.042298 0.202792
0.385107 0.045167 0.224796
0.482124 0.052644 0.209049
0.039612 0.136751 0.268406
0.058106 0.109865 0.257084
0.349645 0.153323 0.305760
0.504814 0.101564 0.249027
0.649165 0.241611 0.292088
0.050080 0.315435 0.364874
0.120912 0.411383 0.436011
0.533013 0.489418 0.454261
0.689387 0.446097 0.373861
0.792233 0.479316 0.396017
0.055787 0.427283 0.364904
0.088167 0.492256 0.328573
0.591882 0.642664 0.403647
0.834195 0.691890 0.471458
0.898863 0.690517 0.515892
0.050416 0.447120 0.266590
0.248875 0.613001 0.367453
0.676783 0.751949 0.500343
0.851621 0.797635 0.547982
0.931426 0.804318 0.519051
0.037446 0.038544 0.266728
0.043732 0.038514 0.251102
0.172030 0.041444 0.302770
0.340459 0.041779 0.292058
0.470558 0.050599 0.295995
0.044099 0.148898 0.391241
0.040528 0.057496 0.299321
0.148821 0.081880 0.351781
0.457771 0.087068 0.408972
0.606470 0.226719 0.407630
0.049928 0.311742 0.482002
0.049714 0.295216 0.503471
0.235294 0.372427 0.503441
0.612482 0.441032 0.550927
0.749691 0.499245 0.538262
0.052461 0.395605 0.526574
0.056794 0.425422 0.592889
0.317205 0.629633 0.657954
0.738521 0.688533 0.671168
0.871885 0.700221 0.672999
0.050874 0.426276 0.494270
0.082460 0.555200 0.589532
0.536950 0.772366 0.698329
0.819486 0.830655 0.739345
0.918761 0.847959 0.760311
0.037720 0.038666 0.273838
0.037934 0.039277 0.270481
0.089021 0.043427 0.321141
0.268620 0.045441 0.369848
0.447517 0.048768 0.402777
0.048371 0.182528 0.469337
0.044129 0.121523 0.385168
0.107973 0.181857 0.446723
0.379339 0.216800 0.502434
0.565515 0.215122 0.524620
0.049439 0.273960 0.516533
0.054078 0.308583 0.530816
0.232807 0.405203 0.587579
0.577478 0.476661 0.653223
0.724453 0.488518 0.666255
0.054688 0.365423 0.579034
0.065766 0.450202 0.628840
0.429923 0.637507 0.719051
0.721614 0.677546 0.762417
0.854887 0.695949 0.783230
0.056214 0.417792 0.604730
0.065064 0.491676 0.648310
0.375433 0.739391 0.759487
0.770962 0.832059 0.830411
0.916259 0.880339 0.872343
