assets/luts/impulz-kodak-ultramax-400-fc-log-47e83cd8.cube
# (C) 2014 VisionColor & Patchflyer [www.vision-color.com]
# Generator: VC Patchmatch v.2.1.1 [64/53]
# All work and no play makes Jack a dull boy.
# LUT generated from: Kodak Ultramax 400_FC
LUT_3D_SIZE 5
0.021515 0.025727 0.021515
0.127260 0.022858 0.025727
0.366323 0.023560 0.033265
0.689357 0.025177 0.041444
0.915251 0.041718 0.074861
0.057160 0.109499 0.012543
0.201511 0.132662 0.013886
0.475395 0.165530 0.020447
0.757656 0.166934 0.030457
0.950103 0.178286 0.066773
0.217655 0.345663 0.010712
0.318273 0.398764 0.016022
0.544839 0.424338 0.018585
0.796292 0.428428 0.021210
0.929107 0.376440 0.045197
0.307958 0.592035 0.012085
0.408667 0.647730 0.016052
0.619318 0.656550 0.017914
0.819669 0.657893 0.019867
0.896910 0.600122 0.028046
0.236851 0.837247 0.011353
0.411902 0.851164 0.017243
0.633570 0.839323 0.024872
0.795316 0.815244 0.026001
0.874327 0.806912 0.025086
0.025116 0.025238 0.187289
0.126802 0.021881 0.155001
0.371298 0.022644 0.167422
0.642969 0.024140 0.189273
0.847776 0.046265 0.190921
0.047242 0.154604 0.136324
0.183505 0.172061 0.157534
0.470115 0.144717 0.141939
0.794858 0.106355 0.132448
0.909636 0.207675 0.206271
0.141268 0.393362 0.121553
0.287846 0.471641 0.102663
0.619821 0.510781 0.140017
0.860197 0.434348 0.109346
0.910399 0.440833 0.202304
0.153292 0.627771 0.077546
0.261387 0.760189 0.024628
0.616999 0.761959 0.076661
0.856565 0.739132 0.081025
0.908782 0.670436 0.179995
0.127321 0.867674 0.028840
0.324010 0.885832 0.079927
0.606683 0.871763 0.154421
0.771206 0.858000 0.150301
0.876310 0.841794 0.123384
0.026703 0.026825 0.587076
0.093355 0.023774 0.400229
0.311467 0.021759 0.324590
0.571069 0.023774 0.338079
0.757198 0.042390 0.287602
0.043915 0.164675 0.393332
0.081788 0.116732 0.436164
0.364324 0.122133 0.378210
0.666941 0.095216 0.305257
0.804532 0.213962 0.310521
0.085603 0.388800 0.382071
0.168826 0.466148 0.463218
0.477745 0.456230 0.439658
0.718074 0.409323 0.356161
0.882597 0.455009 0.383810
0.094484 0.654963 0.327871
0.138552 0.791165 0.277302
0.502281 0.727871 0.338704
0.809140 0.732937 0.397818
0.927031 0.721584 0.459373
0.074037 0.895567 0.200214
0.271397 0.898802 0.315480
0.604929 0.899138 0.436851
0.822110 0.905150 0.471580
0.928466 0.902617 0.434806
0.025910 0.033722 0.910185
0.062470 0.026062 0.773465
0.249348 0.023682 0.692180
0.481392 0.023316 0.520623
0.712856 0.036683 0.472267
0.025635 0.196017 0.805097
0.025177 0.076143 0.823438
0.193469 0.083253 0.735973
0.561639 0.087739 0.673609
0.708492 0.193332 0.494881
0.052583 0.425849 0.697719
0.044068 0.411399 0.824735
0.263996 0.359670 0.680659
0.607263 0.379873 0.656550
0.814817 0.455619 0.590265
0.042542 0.636408 0.680812
0.035828 0.768643 0.856474
0.361074 0.744503 0.802441
0.735958 0.711910 0.728481
0.925811 0.726894 0.719020
0.019409 0.887633 0.579675
0.158633 0.909667 0.719173
0.547677 0.928344 0.779919
0.831754 0.929381 0.774411
0.941772 0.927092 0.774624
0.025879 0.033631 0.934691
0.035035 0.036561 0.897795
0.144381 0.035370 0.864836
0.365240 0.036011 0.825162
0.639277 0.038819 0.803800
0.012116 0.256748 0.960479
0.035279 0.159762 0.873655
0.159945 0.185367 0.873014
0.394720 0.190280 0.828855
0.637446 0.189914 0.803494
0.010773 0.405936 0.925719
0.079194 0.398978 0.891234
0.283467 0.417655 0.877836
0.585046 0.442771 0.887541
0.786831 0.440726 0.864683
0.010590 0.633143 0.938994
0.116365 0.653986 0.926665
0.462303 0.709224 0.914000
0.754330 0.704585 0.925719
0.918700 0.704677 0.920287
0.009461 0.831479 0.925383
0.079042 0.905882 0.913207
0.437827 0.924926 0.920287
0.790829 0.930510 0.932738
0.953887 0.953887 0.945678
