assets/luts/impulz-fuji-pro-400-fc-log-6485de85.cube
# (C) 2014 VisionColor & Patchflyer [www.vision-color.com]
# Generator: VC Patchmatch v.2.1.1 [64/53]
# All work and no play makes Jack a dull boy.
# LUT generated from: Fuji Pro 400_FC
LUT_3D_SIZE 5
0.025147 0.025147 0.025147
0.197482 0.028199 0.031403
0.518639 0.053498 0.058228
0.611353 0.102541 0.082429
0.706477 0.151949 0.118410
0.064942 0.191409 0.037018
0.213291 0.208774 0.064912
0.471855 0.295094 0.125948
0.651484 0.360906 0.166537
0.753506 0.346288 0.172885
0.206271 0.502907 0.134401
0.414511 0.551431 0.178470
0.556161 0.603464 0.215152
0.758968 0.654963 0.260594
0.827970 0.624887 0.255161
0.386206 0.760861 0.211429
0.596429 0.799619 0.256107
0.723079 0.817624 0.285161
0.837339 0.833432 0.307530
0.883696 0.839658 0.316472
0.478584 0.895872 0.251713
0.738766 0.895445 0.307469
0.840787 0.899535 0.328893
0.881529 0.907256 0.336858
0.897795 0.922423 0.337560
0.026459 0.026429 0.098054
0.123445 0.025483 0.108003
0.374151 0.047913 0.125460
0.597101 0.080690 0.142519
0.680659 0.099763 0.170443
0.041657 0.136507 0.145235
0.175906 0.147066 0.155367
0.534615 0.160494 0.145602
0.714229 0.161929 0.140902
0.821469 0.230381 0.219974
0.133394 0.479454 0.176699
0.323339 0.602670 0.201663
0.639078 0.636362 0.258213
0.817075 0.590860 0.253574
0.883360 0.596994 0.312963
0.194003 0.778439 0.255833
0.449287 0.864866 0.251560
0.758724 0.872953 0.317723
0.884672 0.892576 0.354955
0.908476 0.866850 0.414160
0.299504 0.896819 0.334417
0.517998 0.910704 0.328466
0.760342 0.912596 0.372503
0.882689 0.934325 0.439490
0.914366 0.938079 0.457588
0.027649 0.027771 0.251133
0.093324 0.026795 0.197604
0.297612 0.047272 0.200259
0.494789 0.075532 0.230228
0.614343 0.094636 0.233738
0.047944 0.104952 0.334020
0.083772 0.074067 0.344396
0.371130 0.098756 0.307836
0.619410 0.108400 0.267948
0.788571 0.179599 0.324804
0.115816 0.349630 0.400137
0.197391 0.500343 0.500648
0.483391 0.479301 0.488853
0.794186 0.407156 0.432181
0.912139 0.529854 0.516579
0.214023 0.742153 0.487617
0.280278 0.867185 0.536843
0.549981 0.856809 0.499229
0.856199 0.874327 0.592355
0.925597 0.861692 0.683864
0.270146 0.893462 0.569497
0.306950 0.901671 0.590188
0.609125 0.924193 0.598825
0.872068 0.940856 0.681819
0.928771 0.948791 0.744060
0.029816 0.029847 0.433234
0.055390 0.027283 0.324773
0.187488 0.040009 0.278050
0.384039 0.065766 0.282689
0.580957 0.095705 0.300877
0.051301 0.095064 0.504234
0.039216 0.050782 0.517052
0.129137 0.055573 0.485725
0.496071 0.093233 0.384680
0.715328 0.151064 0.411078
0.127687 0.340505 0.587030
0.133120 0.345785 0.658961
0.199573 0.265248 0.676936
0.667689 0.330831 0.674250
0.881071 0.488090 0.690730
0.226688 0.706935 0.694575
0.274571 0.803220 0.807706
0.399558 0.817502 0.821683
0.776303 0.853697 0.834562
0.932769 0.876463 0.867674
0.332921 0.890715 0.819516
0.331304 0.901213 0.836820
0.532723 0.925170 0.844968
0.846799 0.941955 0.872679
0.943816 0.954284 0.901213
0.031159 0.033936 0.548272
0.033417 0.033997 0.530358
0.067720 0.035035 0.485328
0.240482 0.052918 0.393622
0.522850 0.088777 0.365820
0.058656 0.115633 0.613916
0.055940 0.101015 0.648096
0.103731 0.089662 0.737545
0.334752 0.111269 0.608454
0.621088 0.154513 0.558129
0.130526 0.331350 0.682521
0.124727 0.304128 0.712459
0.187869 0.299886 0.819028
0.490730 0.396139 0.851713
0.824887 0.450950 0.843473
0.219333 0.627710 0.764645
0.229984 0.643275 0.795834
0.399237 0.752163 0.877684
0.685771 0.798520 0.901427
0.917205 0.846220 0.915221
0.287419 0.835142 0.848814
0.321141 0.883818 0.872190
0.515297 0.924956 0.904784
0.809201 0.942840 0.925200
0.966064 0.966064 0.957580
