assets/luts/impulz-fuji-superior-200-fc-log-4cf71de8.cube
# (C) 2014 VisionColor & Patchflyer [www.vision-color.com]
# Generator: VC Patchmatch v.2.1.1 [64/53]
# All work and no play makes Jack a dull boy.
# LUT generated from: Fuji Superior 200_FC
LUT_3D_SIZE 5
0.025147 0.025147 0.025147
0.174777 0.025422 0.025391
0.475563 0.026825 0.026642
0.687282 0.028290 0.027771
0.842252 0.060914 0.058747
0.049561 0.135500 0.015167
0.204135 0.150179 0.025299
0.507973 0.194430 0.038117
0.735531 0.234104 0.049317
0.875975 0.296910 0.086854
0.234333 0.422049 0.041566
0.441062 0.462760 0.079896
0.644480 0.503029 0.101442
0.817807 0.547311 0.106935
0.902220 0.602274 0.127504
0.534325 0.721553 0.101625
0.667536 0.752712 0.153903
0.822202 0.772305 0.176059
0.891325 0.802701 0.183413
0.917876 0.821530 0.169924
0.674495 0.876341 0.108675
0.827970 0.911131 0.185946
0.905364 0.911345 0.224704
0.921782 0.913756 0.237339
0.927550 0.919310 0.215244
0.027588 0.027741 0.194400
0.136507 0.024353 0.163455
0.417990 0.026337 0.163973
0.670466 0.030274 0.180179
0.820127 0.053590 0.206729
0.042786 0.171054 0.147005
0.180453 0.183261 0.161746
0.572061 0.149142 0.130312
0.808499 0.125032 0.111452
0.898039 0.260471 0.231357
0.200076 0.448600 0.204746
0.403830 0.572793 0.139467
0.729961 0.608103 0.196597
0.889586 0.580819 0.164279
0.912810 0.560265 0.256626
0.403235 0.729091 0.302159
0.618372 0.847715 0.130953
0.861204 0.876585 0.217563
0.920897 0.882231 0.251286
0.929900 0.822232 0.295384
0.484504 0.894194 0.281956
0.595514 0.912413 0.110323
0.863951 0.928801 0.265293
0.918547 0.932403 0.331426
0.934417 0.934417 0.347967
0.028351 0.028382 0.380255
0.090242 0.030640 0.479118
0.350622 0.025055 0.334203
0.605982 0.029877 0.349126
0.738186 0.042237 0.349920
0.041413 0.171145 0.352941
0.062013 0.103090 0.493675
0.401312 0.099763 0.401892
0.698131 0.084840 0.357122
0.824338 0.195926 0.378210
0.123049 0.410681 0.394278
0.196597 0.505257 0.499168
0.503548 0.481926 0.465904
0.786313 0.448386 0.422293
0.890532 0.508339 0.471275
0.242863 0.696803 0.508141
0.354147 0.853635 0.513680
0.636378 0.848875 0.418997
0.897032 0.849363 0.519692
0.936614 0.812497 0.564904
0.370886 0.912322 0.573739
0.475257 0.940703 0.497612
0.697505 0.941466 0.515328
0.878630 0.944335 0.600351
0.945830 0.945495 0.642527
0.029480 0.029480 0.618036
0.059571 0.028595 0.683833
0.228138 0.026062 0.556313
0.483497 0.025788 0.480232
0.666712 0.035554 0.493080
0.050568 0.181796 0.609430
0.025696 0.063539 0.804837
0.191058 0.051637 0.679545
0.565301 0.064485 0.602136
0.708400 0.155367 0.517357
0.103609 0.404181 0.594629
0.073213 0.419211 0.745815
0.187060 0.308766 0.656886
0.562188 0.322835 0.620050
0.791470 0.422110 0.593500
0.189029 0.681422 0.707179
0.160678 0.791196 0.821714
0.327749 0.769589 0.780392
0.760037 0.777340 0.770443
0.923003 0.797543 0.768612
0.232212 0.899138 0.803250
0.269902 0.923003 0.828489
0.492882 0.940764 0.832975
0.792905 0.947326 0.836576
0.951019 0.950896 0.860502
0.029664 0.032776 0.830442
0.043946 0.029999 0.784451
0.174899 0.029084 0.705287
0.381048 0.029786 0.629816
0.618158 0.033082 0.627436
0.043000 0.198489 0.844785
0.026154 0.127504 0.867002
0.131075 0.109346 0.805631
0.348180 0.122744 0.722805
0.620325 0.137545 0.711910
0.059510 0.445182 0.798825
0.042054 0.392416 0.830472
0.158724 0.354940 0.795071
0.418524 0.368582 0.776455
0.681025 0.382803 0.769436
0.120363 0.704189 0.860716
0.101442 0.690272 0.878019
0.270008 0.683040 0.870024
0.616251 0.720211 0.875547
0.865141 0.729885 0.876616
0.129580 0.855070 0.881865
0.109743 0.847959 0.879728
0.278706 0.908293 0.914275
0.657984 0.943664 0.935699
0.959869 0.959869 0.951537
