assets/luts/impulz-kodak-ultramax-400-fpe-rec709-84770bce.cube
# (C) 2014 VisionColor & Patchflyer [www.vision-color.com]
# Generator: VC Patchmatch v.2.1.1 [64/53]
# All work and no play makes Jack a dull boy.
# LUT generated from: Kodak Ultramax 400_FPE
LUT_3D_SIZE 9
0.036164 0.042237 0.043580
0.078126 0.048157 0.042664
0.152590 0.056519 0.044800
0.243687 0.066560 0.050355
0.323125 0.071778 0.055085
0.389105 0.073457 0.058289
0.443427 0.077852 0.065187
0.493294 0.080507 0.071077
0.530419 0.074250 0.073518
0.053712 0.076051 0.045716
0.152132 0.109438 0.046754
0.281010 0.136080 0.046571
0.389715 0.158755 0.052918
0.470588 0.174350 0.057801
0.526482 0.181308 0.062318
0.570459 0.189151 0.070344
0.605463 0.185885 0.075929
0.630701 0.166934 0.077333
0.121279 0.165225 0.046326
0.245426 0.218753 0.046815
0.402991 0.259037 0.049165
0.508843 0.283604 0.059602
0.589410 0.302342 0.065827
0.641138 0.312474 0.072236
0.678676 0.316899 0.079255
0.704494 0.310491 0.083497
0.727626 0.289433 0.085420
0.247807 0.284245 0.051301
0.352850 0.330144 0.056275
0.499260 0.380285 0.065858
0.606302 0.404974 0.074342
0.675166 0.414252 0.081819
0.724300 0.420661 0.088563
0.755123 0.421515 0.094484
0.773922 0.411170 0.096773
0.787503 0.381933 0.096101
0.353002 0.379126 0.053132
0.436439 0.418189 0.061463
0.561090 0.458412 0.076387
0.673060 0.490364 0.092470
0.742550 0.501976 0.099306
0.786099 0.503777 0.105257
0.813474 0.501732 0.109560
0.824704 0.487068 0.110780
0.836423 0.461067 0.110323
0.407141 0.436683 0.062654
0.487434 0.471504 0.073487
0.593957 0.505302 0.087984
0.701778 0.535088 0.103975
0.779507 0.551720 0.112947
0.825376 0.558160 0.120089
0.849973 0.553948 0.123232
0.859098 0.545068 0.124483
0.870115 0.520958 0.121370
0.424567 0.473945 0.066194
0.509514 0.506615 0.077790
0.618524 0.538811 0.093782
0.717037 0.565728 0.109316
0.795285 0.584558 0.121157
0.844816 0.593622 0.129274
0.876249 0.596094 0.132784
0.883848 0.586999 0.133669
0.893065 0.572168 0.134981
0.414771 0.497688 0.067262
0.524102 0.533013 0.082643
0.629999 0.564233 0.099428
0.727291 0.591638 0.116762
0.797757 0.608667 0.128084
0.851102 0.621057 0.136965
0.882200 0.624292 0.140566
0.900511 0.623011 0.142702
0.909972 0.614801 0.143496
0.409064 0.522332 0.071107
0.517571 0.554284 0.084596
0.636835 0.588586 0.105592
0.732113 0.616876 0.124239
0.799619 0.633875 0.135012
0.850584 0.646723 0.142214
0.885710 0.654353 0.147494
0.907500 0.653895 0.149752
0.923156 0.650507 0.151583
0.032258 0.043214 0.079438
0.071870 0.048402 0.087892
0.158267 0.055695 0.094453
0.243168 0.061219 0.101930
0.312169 0.062501 0.102724
0.368933 0.063355 0.107240
0.422156 0.067445 0.110689
0.469673 0.068879 0.113771
0.509880 0.065919 0.111513
0.038758 0.094606 0.101259
0.128847 0.127749 0.121675
0.238834 0.145357 0.123201
0.336248 0.159091 0.127810
0.414008 0.170626 0.132265
0.475044 0.184604 0.139956
0.526390 0.193301 0.148287
0.574853 0.195743 0.153994
0.613519 0.179507 0.146731
0.084352 0.189151 0.113741
0.214603 0.236698 0.134585
0.355596 0.279973 0.145449
0.462440 0.295293 0.142245
0.538140 0.309880 0.148318
0.597101 0.323308 0.150301
0.631251 0.325505 0.161532
0.673579 0.325139 0.165011
0.699367 0.290166 0.155673
0.165774 0.289311 0.123995
0.302892 0.339147 0.138247
0.434638 0.382605 0.150362
0.554742 0.413367 0.154910
0.620722 0.416846 0.161379
0.669978 0.424720 0.165347
0.703792 0.426551 0.172427
0.732845 0.417456 0.173281
0.766049 0.388647 0.163577
0.238621 0.371008 0.120150
0.365332 0.412329 0.140749
0.488746 0.452522 0.157321
0.604974 0.486732 0.168795
0.689387 0.503777 0.171603
0.723384 0.499153 0.178286
0.754543 0.500145 0.181765
0.778561 0.490211 0.183749
0.805356 0.461616 0.175387
0.273747 0.422034 0.115724
0.402075 0.459602 0.137514
0.520378 0.496956 0.157626
0.632715 0.531640 0.178775
0.719997 0.553948 0.186099
0.772091 0.559411 0.185306
0.792905 0.553460 0.189273
0.812375 0.545342 0.191745
0.841520 0.526482 0.186252
0.285222 0.456336 0.101350
0.420417 0.494820 0.129976
0.538384 0.531151 0.155093
0.647395 0.563958 0.177127
0.734188 0.589471 0.193545
0.788266 0.598474 0.194644
0.829252 0.601526 0.190768
0.845121 0.593622 0.194614
0.868132 0.579187 0.190921
0.283482 0.479561 0.102296
0.424079 0.520653 0.122377
0.554223 0.559594 0.150546
0.653864 0.589685 0.176547
0.735805 0.614191 0.192844
0.795773 0.630518 0.200870
0.841611 0.636805 0.198642
0.867155 0.632868 0.194400
0.890654 0.626825 0.191623
0.272190 0.495521 0.070924
0.436439 0.548852 0.099184
0.565911 0.587915 0.126375
0.668025 0.619135 0.155276
0.739437 0.641566 0.175113
0.797147 0.658595 0.190097
0.849363 0.671809 0.192172
0.883024 0.672969 0.190555
0.908019 0.666102 0.182254
0.030854 0.042267 0.130251
0.052247 0.044739 0.128756
0.147494 0.052918 0.145998
0.236728 0.058747 0.156680
0.311223 0.060700 0.163241
0.368231 0.062104 0.169223
0.418524 0.068055 0.174472
0.463935 0.070924 0.172732
0.507042 0.069856 0.162509
0.036316 0.100038 0.166629
0.092561 0.126101 0.178439
0.206760 0.139315 0.194797
0.304692 0.149020 0.195254
0.381598 0.159365 0.198215
0.445136 0.167025 0.202274
0.495369 0.174472 0.204562
0.544488 0.172885 0.201022
0.589532 0.160037 0.186831
0.050172 0.196170 0.208286
0.144472 0.239567 0.228153
0.290410 0.275151 0.244968
0.396460 0.293645 0.251713
0.476661 0.310552 0.257237
0.537194 0.321599 0.260960
0.587854 0.328923 0.264134
0.635828 0.319799 0.252384
0.678676 0.290379 0.225193
0.082673 0.286778 0.226505
0.212497 0.334813 0.244388
0.367315 0.375219 0.267918
0.486641 0.408209 0.282231
0.557610 0.418341 0.286168
0.616327 0.429023 0.286809
0.657496 0.428992 0.285771
0.701015 0.419318 0.270604
0.742489 0.387945 0.240909
0.124819 0.361486 0.231601
0.268528 0.406348 0.250889
0.418952 0.445624 0.280278
0.527886 0.475776 0.298161
0.616754 0.496864 0.304692
0.664240 0.499641 0.307927
0.705959 0.503441 0.305943
0.744198 0.492592 0.291722
0.786465 0.464820 0.257939
0.156497 0.412757 0.226505
0.298619 0.454139 0.248997
0.449287 0.490730 0.278721
0.556573 0.523278 0.304875
0.643091 0.545800 0.316930
0.706538 0.557824 0.318090
0.736843 0.553765 0.321721
0.778470 0.550561 0.306493
0.819150 0.530938 0.276707
0.174716 0.447761 0.209415
0.322454 0.491676 0.242344
0.469276 0.527581 0.279362
0.571069 0.556512 0.305394
0.663355 0.584710 0.326299
0.724239 0.598413 0.328252
0.771878 0.603571 0.325902
0.805081 0.599298 0.317968
0.848722 0.589075 0.292363
0.179171 0.468544 0.183688
0.332006 0.518395 0.216495
0.491737 0.562615 0.249760
0.588434 0.591424 0.288151
0.671992 0.617395 0.309483
0.739040 0.637781 0.319371
0.792264 0.648310 0.320287
0.836057 0.649470 0.314366
0.875578 0.646815 0.300023
0.181796 0.487617 0.156924
0.346380 0.546258 0.179477
0.513756 0.597772 0.209659
0.616876 0.629480 0.245029
0.686458 0.652064 0.279973
0.747311 0.671962 0.295781
0.807767 0.689296 0.298375
0.861295 0.698756 0.292180
0.896147 0.690700 0.274693
0.034058 0.048096 0.180941
0.044709 0.044373 0.165774
0.125643 0.052705 0.186526
0.217075 0.056489 0.196780
0.297978 0.059449 0.209445
0.359594 0.060792 0.216953
0.408728 0.067323 0.220218
0.453010 0.070985 0.216373
0.496315 0.073182 0.202640
0.040040 0.113680 0.222538
0.076173 0.125277 0.221408
0.159365 0.130068 0.227665
0.280644 0.147982 0.252140
0.360876 0.159609 0.257420
0.427222 0.168734 0.261540
0.479011 0.175723 0.262181
0.527611 0.174777 0.253208
0.574639 0.165957 0.230228
0.049897 0.199649 0.268589
0.112947 0.233402 0.281773
0.241398 0.267185 0.297765
0.360510 0.285222 0.314153
0.440284 0.297490 0.314153
0.502678 0.305943 0.313268
0.555077 0.310704 0.309361
0.604486 0.301183 0.290410
0.651484 0.272740 0.257115
0.059144 0.287968 0.315251
0.142794 0.328435 0.328405
0.294530 0.366583 0.342626
0.440742 0.404639 0.367712
0.512749 0.415595 0.367681
0.567895 0.421912 0.366155
0.617731 0.423774 0.360662
0.667323 0.409369 0.336461
0.716823 0.369360 0.286381
0.073854 0.357519 0.329961
0.186587 0.400458 0.341222
0.343572 0.437781 0.357244
0.478645 0.470710 0.386145
0.564141 0.490425 0.398230
0.618585 0.496193 0.395117
0.668238 0.499763 0.389532
0.716609 0.488472 0.363989
0.767300 0.453468 0.311803
0.091554 0.406653 0.326757
0.210422 0.447791 0.340612
0.372198 0.487892 0.370398
0.500664 0.517815 0.398108
0.582757 0.537011 0.410559
0.655360 0.552728 0.419165
0.703273 0.556786 0.415045
0.754177 0.553826 0.396094
0.807126 0.530144 0.347784
0.102541 0.442206 0.313146
0.236637 0.487129 0.336522
0.398383 0.524956 0.364294
0.521752 0.555352 0.395392
0.603510 0.579004 0.416480
0.678035 0.598474 0.427314
0.732815 0.606287 0.429725
0.782376 0.607660 0.417304
0.840970 0.598932 0.378363
0.106386 0.465003 0.291783
0.251133 0.516625 0.317784
0.416938 0.561639 0.352758
0.548760 0.598505 0.382300
0.621302 0.619440 0.408942
0.696223 0.644251 0.424811
0.759091 0.659724 0.427985
0.813901 0.663752 0.426795
0.871061 0.665705 0.399329
0.102358 0.480262 0.248112
0.268528 0.546410 0.278111
0.437232 0.598657 0.304570
0.581323 0.646296 0.330602
0.650446 0.667384 0.369970
0.714656 0.687526 0.397650
0.780331 0.707607 0.403815
0.843900 0.722713 0.400336
0.896757 0.721614 0.385351
0.035370 0.051514 0.224399
0.041718 0.042756 0.201450
0.101442 0.050324 0.217746
0.198245 0.056184 0.237675
0.277897 0.058167 0.239689
0.343999 0.059449 0.250340
0.398199 0.067140 0.257694
0.443580 0.071351 0.250706
0.487343 0.073335 0.232914
0.040223 0.122225 0.273777
0.063203 0.126284 0.256382
0.129366 0.126772 0.256077
0.243626 0.146975 0.282109
0.339757 0.158846 0.298436
0.408148 0.169680 0.305791
0.463050 0.178653 0.304906
0.511925 0.176364 0.292149
0.560327 0.170077 0.267185
0.046571 0.207614 0.323796
0.097047 0.238895 0.327031
0.203494 0.263218 0.333532
0.307958 0.274357 0.344427
0.411841 0.294499 0.362127
0.474403 0.302464 0.360937
0.530694 0.307317 0.355810
0.581018 0.300481 0.334966
0.631739 0.275456 0.295567
0.053407 0.282078 0.362615
0.118227 0.322759 0.372229
0.251133 0.358984 0.383490
0.390845 0.395483 0.402014
0.482734 0.411658 0.416571
0.537865 0.413672 0.410254
0.589136 0.412268 0.398077
0.639216 0.396735 0.366552
0.692958 0.358038 0.313359
0.060212 0.353368 0.401038
0.134585 0.394476 0.408881
0.278965 0.431006 0.418097
0.428656 0.462928 0.434974
0.536187 0.492561 0.457649
0.586084 0.493263 0.450446
0.634577 0.492622 0.439918
0.688716 0.476570 0.403876
0.746242 0.436957 0.345129
0.066743 0.402136 0.403479
0.141939 0.441047 0.409583
0.311131 0.483375 0.427497
0.450813 0.510765 0.446906
0.551171 0.536156 0.467506
0.624933 0.552850 0.478157
0.675685 0.554772 0.469062
0.734371 0.549310 0.444099
0.796109 0.524804 0.391150
0.069856 0.436713 0.397650
0.154177 0.479042 0.407721
0.327611 0.520653 0.431647
0.468421 0.553582 0.456550
0.570916 0.577203 0.476692
0.641901 0.595178 0.487343
0.713130 0.611902 0.495277
0.772427 0.616968 0.481910
0.839384 0.609308 0.441566
0.076631 0.458961 0.376013
0.171389 0.510033 0.390753
0.349248 0.560082 0.422217
0.495888 0.597498 0.451057
0.598688 0.628840 0.474678
0.665095 0.649561 0.492866
0.740383 0.673274 0.506676
0.809232 0.683650 0.510430
0.875151 0.688838 0.484901
0.078584 0.475715 0.341558
0.190402 0.543053 0.362554
0.369512 0.597467 0.390997
0.519524 0.645960 0.420478
0.630426 0.686702 0.437934
0.694423 0.704280 0.472847
0.768673 0.729000 0.492348
0.842496 0.751949 0.502037
0.905791 0.758144 0.493050
0.037476 0.057282 0.255100
0.039368 0.045441 0.230289
0.084169 0.051667 0.244785
0.172122 0.056275 0.269688
0.260380 0.058961 0.280705
0.325567 0.059815 0.276310
0.382574 0.067231 0.283513
0.435218 0.071473 0.284855
0.479927 0.072847 0.267674
0.041871 0.132082 0.315435
0.055879 0.131930 0.287053
0.102449 0.125643 0.280522
0.208988 0.145388 0.304143
0.311345 0.162509 0.326665
0.388586 0.168948 0.338262
0.445624 0.178408 0.340154
0.502098 0.180240 0.333959
0.548211 0.170260 0.303471
0.046723 0.215427 0.369726
0.076387 0.236728 0.358160
0.173434 0.261753 0.359472
0.262470 0.264958 0.365606
0.370718 0.288212 0.385595
0.450996 0.301213 0.398383
0.507927 0.306767 0.394080
0.561425 0.301976 0.373571
0.615564 0.278508 0.336217
0.051881 0.283726 0.404120
0.097566 0.319371 0.406928
0.219409 0.361822 0.419409
0.350057 0.389136 0.429358
0.434226 0.399237 0.439002
0.514519 0.414710 0.452461
0.564935 0.412329 0.441413
0.616175 0.397070 0.411566
0.667720 0.359808 0.359197
0.057710 0.345342 0.435157
0.112337 0.383368 0.440589
0.246952 0.425330 0.451606
0.387930 0.456489 0.463264
0.488945 0.480629 0.480507
0.562219 0.493111 0.492226
0.611444 0.489204 0.479042
0.663417 0.470558 0.440772
0.718837 0.428107 0.379461
0.059632 0.392828 0.459083
0.113588 0.433143 0.465797
0.255772 0.481544 0.480446
0.409995 0.508568 0.490272
0.517082 0.533654 0.507866
0.599878 0.555200 0.525567
0.648707 0.553582 0.511772
0.705959 0.540581 0.476478
0.776974 0.508446 0.422980
0.060548 0.425574 0.455848
0.118929 0.469886 0.463844
0.263935 0.519371 0.482033
0.426383 0.552026 0.499489
0.535790 0.575921 0.517784
0.619135 0.599878 0.536675
0.694209 0.618738 0.546868
0.757748 0.622187 0.529290
0.834531 0.615228 0.494514
0.062165 0.449683 0.445991
0.122408 0.498390 0.456886
0.268818 0.558373 0.483253
0.442832 0.598230 0.505730
0.560204 0.632044 0.528649
0.648798 0.660304 0.548211
0.723354 0.681514 0.564416
0.806332 0.700526 0.571344
0.877043 0.706325 0.550866
0.059449 0.465522 0.417731
0.133333 0.532921 0.435492
0.287160 0.596033 0.465064
0.462242 0.649592 0.498451
0.579232 0.690974 0.523278
0.680415 0.729244 0.543084
0.759823 0.750912 0.567834
0.841611 0.776974 0.585595
0.913146 0.791287 0.583429
0.039124 0.063508 0.286168
0.039643 0.046723 0.250950
0.069337 0.051453 0.265476
0.144869 0.058503 0.294408
0.235294 0.063935 0.311620
0.305089 0.066804 0.312413
0.366155 0.068421 0.314122
0.421973 0.073091 0.318334
0.474678 0.073762 0.309422
0.042298 0.137209 0.350134
0.047669 0.136629 0.316381
0.082063 0.127779 0.304143
0.176333 0.149538 0.329290
0.276585 0.164553 0.351232
0.359106 0.174044 0.366033
0.427436 0.178958 0.373693
0.487007 0.181552 0.372869
0.536858 0.173129 0.350134
0.045777 0.219760 0.405341
0.065126 0.235660 0.385565
0.149386 0.261234 0.385931
0.220371 0.261112 0.386389
0.328695 0.283146 0.405737
0.414923 0.298161 0.421881
0.487831 0.305699 0.431098
0.542901 0.303105 0.417456
0.600488 0.282506 0.385016
0.049622 0.285618 0.441169
0.077516 0.312749 0.433448
0.185763 0.350042 0.441260
0.301411 0.377325 0.451118
0.378805 0.382513 0.456580
0.467475 0.400793 0.472969
0.545708 0.414282 0.482338
0.596796 0.401190 0.458625
0.652796 0.367468 0.413642
0.053681 0.343084 0.469856
0.091798 0.375494 0.469734
0.216495 0.419104 0.480751
0.340902 0.450294 0.493416
0.440543 0.467781 0.502770
0.509697 0.475990 0.511559
0.591699 0.492836 0.525353
0.641230 0.475105 0.495552
0.697383 0.437354 0.442206
0.054749 0.382330 0.489448
0.093263 0.420539 0.492226
0.221988 0.467567 0.505974
0.365118 0.500877 0.519371
0.471229 0.522667 0.532311
0.552392 0.541619 0.548333
0.630457 0.556359 0.561761
0.680507 0.540185 0.528435
0.747890 0.506554 0.476844
0.055177 0.412970 0.504997
0.089174 0.457130 0.512200
0.220066 0.512413 0.530175
0.366217 0.551995 0.547875
0.494377 0.575586 0.561425
0.583917 0.598474 0.579492
0.670253 0.622553 0.598962
0.726986 0.619379 0.574090
0.818235 0.602747 0.538048
0.054902 0.433021 0.498299
0.084993 0.485939 0.508385
0.202121 0.549889 0.533379
0.366049 0.599786 0.560632
0.511818 0.634455 0.580987
0.613977 0.663325 0.602197
0.704341 0.693172 0.621912
0.797299 0.713222 0.636225
0.878080 0.717281 0.620752
0.054871 0.448218 0.482185
0.088533 0.518151 0.502678
0.209506 0.591424 0.530694
0.370779 0.652125 0.565545
0.522713 0.697536 0.591913
0.642481 0.738186 0.619684
0.751797 0.777859 0.646754
0.841367 0.802976 0.673457
0.916899 0.821469 0.679622
0.040284 0.069184 0.303899
0.037873 0.050599 0.265110
0.054444 0.056916 0.279149
0.120119 0.064393 0.309819
0.196353 0.068391 0.328313
0.272923 0.071199 0.340856
0.339483 0.072786 0.348363
0.407019 0.072663 0.356512
0.467048 0.074037 0.353887
0.043641 0.144381 0.377386
0.045808 0.136141 0.338201
0.060945 0.124025 0.324285
0.133272 0.143343 0.344793
0.226658 0.159518 0.370672
0.312718 0.170169 0.390936
0.392157 0.179538 0.405432
0.469093 0.183108 0.414801
0.527611 0.174228 0.402106
0.046479 0.219394 0.431128
0.055390 0.224308 0.407721
0.094118 0.245792 0.404211
0.162570 0.242802 0.402350
0.261692 0.267216 0.421912
0.350683 0.281712 0.441260
0.439094 0.293614 0.456611
0.521874 0.301579 0.465553
0.583947 0.284092 0.443305
0.049531 0.282597 0.466987
0.063630 0.297551 0.455451
0.119997 0.329961 0.462013
0.221851 0.352361 0.470436
0.294026 0.354772 0.472389
0.390234 0.373877 0.489357
0.487343 0.390173 0.505913
0.575128 0.402014 0.514305
0.637171 0.372778 0.480812
0.053071 0.336706 0.497047
0.076631 0.359350 0.492042
0.141543 0.392981 0.500206
0.259571 0.425177 0.515373
0.355764 0.442695 0.529229
0.429084 0.448127 0.534661
0.532128 0.467842 0.550866
0.626093 0.484993 0.560204
0.686641 0.451453 0.519951
0.055055 0.376165 0.518242
0.080262 0.402197 0.516686
0.155154 0.444739 0.529473
0.291875 0.484504 0.548974
0.396399 0.506554 0.566369
0.481239 0.520745 0.580255
0.574792 0.532403 0.591211
0.673274 0.550530 0.605066
0.734127 0.521965 0.561669
0.054719 0.401404 0.532738
0.076600 0.440467 0.537987
0.157137 0.488869 0.554864
0.298863 0.534813 0.577325
0.426856 0.565667 0.599359
0.529046 0.589929 0.618708
0.624750 0.609766 0.638117
0.723323 0.625208 0.653712
0.794339 0.603387 0.613977
0.055116 0.419104 0.543053
0.076417 0.463905 0.556420
0.146181 0.530968 0.581750
0.289693 0.587915 0.609766
0.437140 0.632227 0.637201
0.556970 0.659602 0.656611
0.659266 0.686854 0.676478
0.767666 0.718807 0.702724
0.871427 0.721828 0.698390
0.054475 0.432990 0.533532
0.072724 0.495125 0.561547
0.136385 0.570550 0.593805
0.271504 0.638972 0.630030
0.428336 0.700099 0.664088
0.577203 0.744198 0.691371
0.719570 0.784298 0.716945
0.820432 0.821530 0.747707
0.909239 0.837858 0.771634
0.041505 0.076265 0.323003
0.039429 0.048859 0.280919
0.045472 0.051087 0.283879
0.079042 0.058747 0.315221
0.140627 0.062806 0.334936
0.213443 0.068788 0.355596
0.290593 0.072847 0.373114
0.366278 0.072847 0.387274
0.449897 0.072267 0.401679
0.044709 0.141634 0.399573
0.042847 0.124666 0.357458
0.047730 0.107179 0.339300
0.079286 0.128847 0.357763
0.151217 0.145693 0.384497
0.236606 0.159152 0.407843
0.327489 0.169406 0.429389
0.412238 0.170596 0.443275
0.505486 0.170718 0.456214
0.046693 0.209903 0.449317
0.046571 0.203433 0.424201
0.062928 0.209873 0.416907
0.084901 0.204685 0.412451
0.152499 0.228397 0.432044
0.243565 0.246311 0.456062
0.347784 0.261143 0.479072
0.458991 0.273716 0.498695
0.554437 0.278141 0.506554
0.048341 0.262760 0.482826
0.049928 0.266239 0.469520
0.072023 0.284245 0.473945
0.105074 0.297612 0.479072
0.146456 0.299382 0.480781
0.260502 0.323003 0.500053
0.377691 0.342779 0.523888
0.505730 0.358953 0.546929
0.605646 0.367163 0.554589
0.050446 0.312718 0.512718
0.057252 0.329564 0.509361
0.096895 0.354681 0.518029
0.139742 0.374182 0.529656
0.187884 0.382605 0.540368
0.271580 0.385687 0.543999
0.417060 0.411353 0.568963
0.562860 0.437568 0.597131
0.662104 0.448951 0.604242
0.052216 0.347204 0.535332
0.059846 0.374609 0.537926
0.110506 0.415290 0.554253
0.189303 0.450050 0.573816
0.260319 0.470253 0.593652
0.339910 0.472999 0.605707
0.463722 0.481758 0.617456
0.622339 0.512200 0.649531
0.722408 0.525353 0.657343
0.053895 0.376837 0.553552
0.060975 0.412634 0.561090
0.118044 0.458930 0.580560
0.206332 0.507408 0.606775
0.324224 0.544427 0.636164
0.449012 0.572869 0.664240
0.559045 0.583947 0.686336
0.678309 0.594537 0.706752
0.792752 0.609979 0.720363
0.054994 0.398352 0.567834
0.061494 0.439704 0.581415
0.107851 0.499336 0.608148
0.208225 0.557366 0.638453
0.350393 0.613855 0.674525
0.487953 0.655360 0.707790
0.629480 0.686091 0.739040
0.761227 0.712581 0.772824
0.859525 0.720027 0.789578
0.055909 0.416938 0.580041
0.061402 0.464363 0.602960
0.102296 0.530846 0.636347
0.179171 0.605280 0.669825
0.308797 0.673396 0.706233
0.478431 0.730343 0.742428
0.665675 0.786862 0.787533
0.778958 0.820188 0.816434
0.916259 0.880339 0.872343
