assets/luts/impulz-kodak-gold-gen-6-200-fc-log-d1f8fa5e.cube
# (C) 2014 VisionColor & Patchflyer [www.vision-color.com]
# Generator: VC Patchmatch v.2.1.1 [64/53]
# All work and no play makes Jack a dull boy.
# LUT generated from: Kodak Gold Gen.6 200_FC
LUT_3D_SIZE 9
0.023743 0.023743 0.023743
0.073701 0.025879 0.025910
0.197635 0.027253 0.027100
0.321355 0.028443 0.027192
0.405127 0.025879 0.025422
0.495003 0.025696 0.026215
0.643366 0.026154 0.032105
0.796567 0.029328 0.043732
0.887694 0.045899 0.070375
0.031434 0.051667 0.019471
0.071260 0.051637 0.019745
0.170382 0.058167 0.018280
0.297154 0.070466 0.020081
0.418799 0.075837 0.020844
0.531762 0.084810 0.024964
0.668025 0.085664 0.030213
0.802060 0.089967 0.039216
0.881712 0.111055 0.065064
0.043946 0.102449 0.013642
0.089876 0.103975 0.013733
0.164797 0.110567 0.014923
0.274449 0.124269 0.016022
0.414450 0.144076 0.017487
0.547387 0.173648 0.021363
0.675258 0.175265 0.025788
0.806668 0.182986 0.031800
0.888273 0.206455 0.057008
0.074128 0.192264 0.010651
0.135775 0.200900 0.011536
0.213382 0.203403 0.012665
0.308476 0.217838 0.014343
0.425803 0.243549 0.015747
0.557031 0.291142 0.018830
0.684749 0.295171 0.021729
0.820371 0.298619 0.024353
0.899199 0.314733 0.045197
0.120882 0.340047 0.009461
0.188846 0.351644 0.011261
0.271336 0.351553 0.012665
0.371664 0.356161 0.014252
0.473808 0.375204 0.015717
0.579583 0.413153 0.017884
0.703670 0.433005 0.020539
0.831601 0.432547 0.022034
0.900847 0.426398 0.036744
0.184085 0.497353 0.010346
0.246494 0.511620 0.012696
0.330877 0.511894 0.014527
0.426673 0.508415 0.015503
0.523003 0.513420 0.016236
0.624903 0.535790 0.017762
0.731380 0.551141 0.019898
0.835813 0.547753 0.021210
0.895476 0.533043 0.031861
0.248997 0.635523 0.011933
0.310857 0.640589 0.014313
0.385779 0.642390 0.016297
0.473121 0.643275 0.016754
0.574456 0.645838 0.017304
0.667414 0.651820 0.018433
0.762509 0.663111 0.019989
0.846464 0.648157 0.021149
0.890929 0.628565 0.030304
0.269047 0.765988 0.012390
0.355749 0.764279 0.014588
0.436103 0.766232 0.016480
0.528588 0.772427 0.017578
0.633448 0.776822 0.018585
0.721157 0.773709 0.019745
0.807828 0.768673 0.020996
0.857237 0.766049 0.021607
0.883726 0.738491 0.029969
0.238651 0.867185 0.011963
0.366857 0.859983 0.014710
0.458381 0.863127 0.017151
0.552514 0.863798 0.019776
0.653284 0.862669 0.023377
0.747341 0.860471 0.027314
0.825437 0.857114 0.030182
0.868559 0.852140 0.031098
0.875975 0.850431 0.031708
0.026062 0.025910 0.061707
0.053590 0.024628 0.071656
0.143191 0.023285 0.078737
0.254368 0.024414 0.085512
0.365759 0.024720 0.081270
0.486671 0.025391 0.084688
0.620478 0.025849 0.089662
0.750942 0.028809 0.101930
0.842741 0.046235 0.130251
0.028046 0.054932 0.052003
0.069154 0.057465 0.064179
0.184787 0.058961 0.062531
0.325597 0.051789 0.054170
0.448875 0.046265 0.048219
0.590570 0.040772 0.045258
0.756527 0.037018 0.050507
0.876432 0.045686 0.069062
0.888334 0.103822 0.131411
0.043336 0.123690 0.043946
0.088167 0.146304 0.039765
0.196231 0.152895 0.047395
0.334035 0.144350 0.042023
0.488762 0.153475 0.042573
0.620996 0.143496 0.042908
0.767758 0.133577 0.045045
0.874479 0.140749 0.062623
0.891295 0.213291 0.134218
0.075807 0.228489 0.041810
0.131472 0.282216 0.025971
0.241611 0.287739 0.033021
0.388113 0.308095 0.040925
0.522835 0.311116 0.036042
0.650721 0.301625 0.035248
0.789883 0.280140 0.034668
0.886900 0.278080 0.051637
0.894469 0.334173 0.123812
0.127199 0.367330 0.039734
0.184634 0.456840 0.018677
0.302342 0.471092 0.026368
0.436027 0.470695 0.033295
0.578042 0.489067 0.036469
0.684901 0.482231 0.033661
0.820249 0.455711 0.026398
0.894682 0.429068 0.040040
0.891661 0.442634 0.102235
0.182803 0.508171 0.039796
0.241215 0.611017 0.014160
0.340826 0.619440 0.019989
0.463325 0.619104 0.025849
0.602487 0.624231 0.030091
0.738369 0.637415 0.031861
0.837186 0.602930 0.024964
0.891936 0.564355 0.034699
0.897154 0.549493 0.087160
0.209934 0.638361 0.032044
0.272496 0.759793 0.012512
0.384863 0.759182 0.015686
0.508873 0.766140 0.018250
0.644800 0.766567 0.021027
0.770718 0.762356 0.024231
0.860777 0.758328 0.025147
0.886778 0.699153 0.033112
0.901884 0.663874 0.079011
0.196292 0.769619 0.019715
0.244358 0.859525 0.012207
0.392706 0.854063 0.015686
0.517357 0.859220 0.019837
0.648539 0.859098 0.025238
0.766598 0.856107 0.031250
0.858640 0.849119 0.035004
0.877073 0.847684 0.035798
0.893187 0.803250 0.075074
0.172946 0.875212 0.013794
0.244999 0.893034 0.017243
0.381384 0.888365 0.025696
0.508690 0.884520 0.040314
0.616175 0.879362 0.055329
0.728756 0.883635 0.070893
0.831022 0.886076 0.079438
0.882414 0.886778 0.084108
0.886473 0.886564 0.084108
0.025696 0.025727 0.141695
0.050538 0.024994 0.163760
0.108766 0.023285 0.164675
0.206882 0.022644 0.168338
0.332387 0.023529 0.168704
0.468391 0.024475 0.170108
0.600977 0.025147 0.174746
0.715023 0.027741 0.185428
0.802274 0.045686 0.207126
0.024048 0.056245 0.125734
0.050416 0.050568 0.170382
0.136385 0.048402 0.181155
0.267765 0.043641 0.164584
0.413443 0.041016 0.150820
0.564843 0.037446 0.140627
0.704707 0.035492 0.141878
0.818051 0.045960 0.154879
0.855985 0.109010 0.215000
0.037110 0.129000 0.116243
0.072694 0.158206 0.148287
0.151583 0.143923 0.143069
0.280095 0.136568 0.140444
0.427329 0.124331 0.129335
0.581460 0.114107 0.121828
0.741726 0.096864 0.115633
0.866850 0.105165 0.133486
0.893400 0.235325 0.244877
0.067842 0.244938 0.112398
0.120394 0.314229 0.116609
0.206149 0.300679 0.116732
0.349813 0.316579 0.140536
0.491417 0.309133 0.124636
0.623163 0.296437 0.120577
0.759121 0.267384 0.116365
0.873808 0.265370 0.136751
0.895811 0.380407 0.257145
0.118746 0.385183 0.104860
0.177371 0.475975 0.100618
0.275486 0.472648 0.094118
0.414359 0.486564 0.117128
0.566567 0.504005 0.130068
0.683070 0.488945 0.111696
0.788418 0.450095 0.100893
0.876249 0.419913 0.115511
0.883482 0.485695 0.234501
0.170718 0.518364 0.108431
0.205264 0.616114 0.066651
0.293217 0.622705 0.060548
0.449256 0.636591 0.083101
0.596307 0.643671 0.105287
0.739788 0.648981 0.109163
0.826658 0.610010 0.091279
0.887633 0.569696 0.094850
0.886412 0.574548 0.202060
0.193576 0.642969 0.086793
0.188632 0.763729 0.034028
0.267735 0.784421 0.023774
0.434852 0.787808 0.039765
0.608804 0.779507 0.069306
0.752392 0.781338 0.092714
0.862791 0.780728 0.093660
0.892973 0.733364 0.091554
0.901640 0.686030 0.185885
0.175051 0.777615 0.058839
0.169986 0.874327 0.021698
0.245274 0.886839 0.016541
0.425361 0.880308 0.032349
0.591241 0.878691 0.055085
0.739086 0.876585 0.083528
0.856413 0.877714 0.100435
0.890227 0.878538 0.101320
0.903624 0.827115 0.183566
0.161593 0.889006 0.043610
0.200076 0.908354 0.039033
0.291783 0.895659 0.051240
0.438056 0.880919 0.084993
0.563287 0.875669 0.121431
0.690517 0.882078 0.163455
0.814755 0.893950 0.192416
0.891234 0.902159 0.200717
0.903288 0.903380 0.199832
0.026612 0.026795 0.229740
0.048096 0.025513 0.269322
0.096559 0.024109 0.277470
0.175143 0.022705 0.252964
0.299687 0.022766 0.254826
0.442283 0.023804 0.258396
0.568689 0.024964 0.264347
0.682094 0.026612 0.272190
0.777768 0.043427 0.287633
0.024201 0.062898 0.230350
0.037537 0.042878 0.290837
0.094606 0.040131 0.318395
0.218204 0.039857 0.287083
0.380575 0.034577 0.273869
0.535164 0.032990 0.262577
0.669581 0.031830 0.257908
0.774380 0.045136 0.259403
0.837766 0.108125 0.301122
0.035706 0.131228 0.223758
0.050690 0.130159 0.285801
0.107668 0.118257 0.276921
0.231296 0.119966 0.283787
0.380285 0.107912 0.262577
0.535836 0.099214 0.250919
0.687526 0.091188 0.242435
0.831388 0.110536 0.250828
0.883757 0.245670 0.339483
0.055909 0.239353 0.224887
0.089570 0.302403 0.294972
0.161074 0.292912 0.284825
0.281926 0.285847 0.280064
0.410208 0.279026 0.269444
0.555871 0.263661 0.256855
0.706783 0.244709 0.245212
0.856596 0.266926 0.267277
0.903990 0.406165 0.376837
0.091646 0.380972 0.225147
0.133883 0.475486 0.265507
0.222171 0.474815 0.258335
0.349493 0.463615 0.254124
0.499779 0.480919 0.285222
0.628290 0.475822 0.260456
0.736996 0.447623 0.250248
0.851499 0.450904 0.274907
0.893889 0.515496 0.374914
0.136385 0.517754 0.225559
0.181094 0.622827 0.199207
0.256779 0.625483 0.192157
0.384344 0.605951 0.199695
0.547448 0.628717 0.249226
0.691112 0.633997 0.261311
0.784237 0.610162 0.232837
0.862486 0.576715 0.233814
0.887999 0.601129 0.342626
0.185885 0.647547 0.188251
0.194278 0.771389 0.137163
0.227176 0.787655 0.103685
0.351354 0.750637 0.116167
0.547768 0.758602 0.176135
0.702037 0.769558 0.231327
0.836576 0.777829 0.239704
0.888151 0.736507 0.226993
0.903777 0.710170 0.327337
0.201083 0.778470 0.151736
0.185946 0.885008 0.096529
0.206943 0.903349 0.069673
0.312139 0.871305 0.072816
0.508766 0.863157 0.125994
0.680644 0.863920 0.200046
0.836606 0.879026 0.242344
0.902739 0.886870 0.245090
0.918090 0.836759 0.329320
0.193759 0.894102 0.126680
0.214359 0.910674 0.121370
0.270268 0.898924 0.137179
0.378637 0.882231 0.163714
0.519509 0.878538 0.228748
0.666377 0.887785 0.292393
0.805508 0.904784 0.336126
0.896910 0.917479 0.342260
0.919890 0.919219 0.341009
0.026673 0.026764 0.340948
0.041810 0.026581 0.374792
0.080812 0.025818 0.385779
0.146059 0.024567 0.358129
0.248264 0.023163 0.308843
0.389670 0.023682 0.320378
0.521569 0.024750 0.347875
0.647761 0.026612 0.365606
0.756405 0.039521 0.379644
0.023590 0.062837 0.368734
0.030854 0.037232 0.447349
0.068849 0.035767 0.451926
0.155276 0.034180 0.414679
0.306096 0.033753 0.376394
0.481529 0.030060 0.380362
0.631525 0.028534 0.384115
0.747494 0.041596 0.374762
0.811368 0.095369 0.382635
0.033295 0.128939 0.365103
0.037415 0.121096 0.465019
0.071168 0.095918 0.427359
0.162875 0.095399 0.412848
0.323369 0.099001 0.401175
0.494377 0.086152 0.386862
0.658122 0.080476 0.375235
0.803555 0.101839 0.363043
0.862028 0.224918 0.392554
0.052583 0.232975 0.362570
0.067353 0.269383 0.460319
0.114565 0.254704 0.432456
0.206882 0.240665 0.409506
0.358892 0.251743 0.414298
0.504860 0.235492 0.395834
0.658595 0.224765 0.375723
0.833494 0.263401 0.378088
0.888731 0.382300 0.427741
0.076631 0.370047 0.382620
0.105470 0.461631 0.491691
0.171389 0.462089 0.469047
0.284550 0.449577 0.445396
0.430533 0.451102 0.440269
0.549981 0.439536 0.424491
0.689235 0.433555 0.408988
0.846220 0.442786 0.406653
0.880735 0.513848 0.464210
0.106996 0.507286 0.372976
0.136385 0.609751 0.408164
0.191440 0.616861 0.403037
0.315373 0.601678 0.409293
0.476478 0.597314 0.412467
0.632395 0.614969 0.440238
0.745739 0.596521 0.406363
0.851072 0.583947 0.397055
0.877989 0.618097 0.465888
0.150393 0.636713 0.336477
0.169406 0.762814 0.321035
0.207218 0.789883 0.293690
0.302892 0.756680 0.308583
0.473686 0.733913 0.335042
0.652903 0.756039 0.403555
0.803189 0.767514 0.416434
0.878813 0.738338 0.390890
0.898131 0.733577 0.471183
0.178317 0.776486 0.291615
0.183230 0.882292 0.258717
0.209751 0.903807 0.232837
0.285588 0.884337 0.236194
0.432120 0.854887 0.249744
0.638285 0.863340 0.345983
0.811124 0.878599 0.406485
0.906676 0.888121 0.413352
0.926787 0.855070 0.482689
0.183047 0.894438 0.256153
0.210025 0.909422 0.260029
0.256596 0.903410 0.287129
0.356512 0.894713 0.325673
0.511391 0.893553 0.388663
0.665019 0.900389 0.451728
0.812314 0.915984 0.487358
0.903197 0.932403 0.493950
0.935332 0.934752 0.501289
0.027802 0.027802 0.506905
0.035096 0.027893 0.504814
0.069001 0.026581 0.496925
0.119448 0.025299 0.462684
0.205676 0.024445 0.386175
0.329015 0.023896 0.400610
0.477699 0.024659 0.449165
0.610956 0.026551 0.468269
0.719814 0.035279 0.476081
0.022461 0.067964 0.548684
0.027558 0.034516 0.688151
0.045624 0.033356 0.642710
0.104005 0.031159 0.570626
0.226947 0.030121 0.505089
0.425574 0.031678 0.551125
0.584985 0.028351 0.542031
0.701534 0.037049 0.505211
0.768368 0.083436 0.468299
0.030671 0.141299 0.537636
0.024720 0.113069 0.702708
0.042878 0.081544 0.642344
0.112184 0.079500 0.576761
0.243122 0.079316 0.537423
0.440314 0.087037 0.563485
0.609888 0.069764 0.526467
0.748135 0.082582 0.483436
0.809079 0.191775 0.447852
0.049317 0.245518 0.524269
0.042786 0.252003 0.673747
0.070069 0.228199 0.623178
0.135424 0.199084 0.546059
0.270466 0.208545 0.528740
0.441138 0.219135 0.538170
0.601404 0.192432 0.492073
0.777951 0.216419 0.451606
0.847135 0.342306 0.463600
0.071046 0.374151 0.533471
0.070527 0.433799 0.667124
0.116442 0.424674 0.637186
0.209308 0.407309 0.577661
0.333639 0.394369 0.552331
0.493507 0.411704 0.560937
0.635523 0.390890 0.517327
0.799619 0.398825 0.482765
0.848661 0.491447 0.522972
0.095247 0.506981 0.555917
0.089967 0.601617 0.672160
0.133577 0.604486 0.634409
0.245228 0.591913 0.612848
0.406912 0.582574 0.595132
0.565820 0.589960 0.591913
0.684993 0.575067 0.556298
0.803159 0.564691 0.522484
0.867979 0.621088 0.561730
0.116518 0.631098 0.497322
0.106569 0.748928 0.539773
0.120150 0.771359 0.530983
0.205524 0.749874 0.533928
0.393790 0.739590 0.559899
0.587335 0.727871 0.560784
0.746273 0.737179 0.578485
0.848325 0.725612 0.541436
0.889769 0.739162 0.593469
0.128511 0.763088 0.447364
0.111177 0.869535 0.462608
0.135531 0.896239 0.451774
0.208331 0.882933 0.465354
0.375265 0.872404 0.500679
0.586572 0.862028 0.520485
0.778073 0.875364 0.564645
0.897185 0.884123 0.578317
0.916533 0.853361 0.621180
0.125734 0.886015 0.412451
0.147860 0.903929 0.428244
0.196811 0.903105 0.459968
0.302937 0.902647 0.514977
0.485893 0.910369 0.581903
0.651942 0.918090 0.612345
0.791989 0.926482 0.630488
0.897398 0.935180 0.644831
0.938994 0.937316 0.653986
0.028443 0.028443 0.733883
0.030945 0.028412 0.696406
0.053895 0.027375 0.659876
0.095399 0.025971 0.594736
0.170047 0.024903 0.535241
0.290532 0.024567 0.530388
0.442817 0.025391 0.585901
0.580957 0.026734 0.601862
0.683009 0.032959 0.580835
0.021027 0.074769 0.753170
0.028351 0.032258 0.894774
0.032593 0.031403 0.824521
0.070375 0.029694 0.744335
0.166491 0.028199 0.681300
0.334325 0.028351 0.692012
0.538720 0.029694 0.734127
0.652125 0.036439 0.658747
0.708583 0.073640 0.563561
0.021546 0.149996 0.743069
0.018463 0.113008 0.894041
0.026581 0.073762 0.860182
0.061097 0.068025 0.782879
0.160967 0.070283 0.724315
0.342443 0.072755 0.719417
0.544518 0.072572 0.721614
0.671077 0.075441 0.629725
0.737362 0.164736 0.543175
0.034974 0.255985 0.715129
0.020233 0.261555 0.888899
0.029847 0.212604 0.857099
0.073365 0.174014 0.729595
0.178485 0.178668 0.690288
0.342107 0.188464 0.682643
0.526970 0.190448 0.677272
0.686061 0.182986 0.596460
0.771695 0.307942 0.557031
0.053498 0.392065 0.698604
0.036011 0.443687 0.854887
0.050477 0.411154 0.838056
0.114794 0.367025 0.748806
0.224506 0.347585 0.680140
0.391546 0.365530 0.686946
0.558007 0.368521 0.684077
0.715389 0.352255 0.606592
0.782254 0.462821 0.606043
0.070130 0.512352 0.720760
0.050202 0.584985 0.857053
0.071809 0.576349 0.842847
0.156603 0.554101 0.781445
0.302510 0.548638 0.738445
0.461738 0.539544 0.706203
0.624475 0.550195 0.705470
0.743374 0.534691 0.637812
0.835569 0.607874 0.659907
0.080842 0.620905 0.720790
0.047822 0.721126 0.819333
0.056550 0.741939 0.801236
0.136431 0.726589 0.777829
0.306264 0.718746 0.781888
0.519402 0.718898 0.758022
0.703029 0.729702 0.741787
0.818021 0.702785 0.674342
0.901183 0.743557 0.714290
0.084932 0.754330 0.614923
0.056184 0.847471 0.673213
0.061982 0.877012 0.698024
0.120272 0.869963 0.710628
0.270069 0.872496 0.742733
0.521004 0.874907 0.751064
0.715846 0.862425 0.715724
0.872312 0.866484 0.727016
0.927367 0.864836 0.748592
0.077272 0.871122 0.565179
0.084077 0.897215 0.592981
0.123293 0.898314 0.625299
0.222919 0.901671 0.692622
0.421683 0.919371 0.759060
0.623362 0.931792 0.775021
0.772702 0.935912 0.778714
0.890043 0.940642 0.779232
0.941558 0.941314 0.786557
0.028962 0.029938 0.895354
0.029633 0.029603 0.846281
0.040040 0.029023 0.799832
0.071504 0.027832 0.743282
0.141817 0.026520 0.689662
0.248325 0.025788 0.681270
0.386145 0.026429 0.709621
0.539910 0.027863 0.738613
0.646174 0.034089 0.708461
0.020691 0.081392 0.891417
0.027070 0.042512 0.955169
0.027832 0.038972 0.898589
0.045197 0.039094 0.866209
0.117357 0.038483 0.822049
0.248661 0.036744 0.795987
0.405005 0.036683 0.808743
0.590967 0.038758 0.825223
0.657893 0.074586 0.684596
0.016663 0.165469 0.902342
0.018250 0.125856 0.954894
0.022034 0.085298 0.941466
0.039460 0.080537 0.902007
0.112963 0.086793 0.883391
0.248722 0.086000 0.843748
0.409369 0.083711 0.835355
0.590051 0.082643 0.821378
0.661402 0.161013 0.678065
0.018647 0.292912 0.886687
0.013275 0.273548 0.948302
0.017548 0.216312 0.953674
0.039490 0.178103 0.905058
0.110826 0.186557 0.863951
0.250004 0.195315 0.840848
0.418128 0.199313 0.838590
0.592859 0.196628 0.826902
0.689967 0.297337 0.709072
0.029786 0.435370 0.860899
0.015808 0.464652 0.942718
0.022919 0.403922 0.949035
0.057527 0.352590 0.909453
0.124163 0.323262 0.850858
0.270787 0.338491 0.833951
0.445106 0.347524 0.832883
0.625757 0.355337 0.835782
0.727291 0.446342 0.733944
0.044495 0.538994 0.861051
0.028168 0.587091 0.944488
0.037079 0.559838 0.947723
0.091798 0.527047 0.922911
0.199985 0.512276 0.879973
0.342275 0.499992 0.838224
0.527077 0.519539 0.837644
0.681727 0.518685 0.832273
0.792599 0.591669 0.764401
0.047425 0.626459 0.872282
0.028992 0.692653 0.938323
0.044129 0.686183 0.937560
0.113161 0.676570 0.912596
0.245624 0.686885 0.890471
0.442283 0.692164 0.883299
0.614343 0.688533 0.857420
0.784604 0.692653 0.851469
0.888365 0.738277 0.824125
0.044953 0.726650 0.827665
0.018097 0.800015 0.903532
0.022431 0.831754 0.925841
0.076204 0.844358 0.904234
0.198505 0.857694 0.893553
0.444755 0.868193 0.897520
0.675074 0.858885 0.880491
0.858915 0.859251 0.861875
0.936767 0.869444 0.862425
0.042481 0.848966 0.732784
0.046448 0.877073 0.775418
0.080568 0.885832 0.811490
0.156695 0.894896 0.856809
0.356344 0.917510 0.888060
0.590036 0.934386 0.890929
0.751980 0.940215 0.891661
0.875731 0.942382 0.880247
0.945586 0.945251 0.875181
0.027802 0.039033 0.962219
0.027527 0.036225 0.917388
0.030701 0.035798 0.887755
0.052888 0.035828 0.865232
0.114839 0.035004 0.827970
0.212924 0.033509 0.803708
0.323125 0.033204 0.802762
0.450507 0.033814 0.824704
0.597955 0.035340 0.835721
0.020142 0.096864 0.953704
0.022858 0.084016 0.945830
0.028016 0.078004 0.911864
0.055085 0.081910 0.903380
0.122286 0.086336 0.884184
0.223056 0.084199 0.852262
0.339452 0.082582 0.838804
0.461402 0.081239 0.844327
0.594415 0.081788 0.834134
0.015167 0.189548 0.962737
0.017487 0.169802 0.960754
0.030488 0.163546 0.933532
0.062470 0.163394 0.909514
0.133577 0.173861 0.890867
0.238987 0.177462 0.870176
0.357397 0.177890 0.859617
0.475807 0.179294 0.862486
0.599908 0.174899 0.853056
0.012268 0.326390 0.946838
0.016938 0.299870 0.954437
0.035431 0.279088 0.938293
0.072480 0.275517 0.910521
0.143694 0.284153 0.889616
0.257633 0.295628 0.879576
0.383062 0.301488 0.877989
0.505852 0.307683 0.882811
0.633967 0.312352 0.880705
0.012665 0.482338 0.947326
0.021759 0.443244 0.953796
0.051240 0.408286 0.941070
0.109712 0.408316 0.919829
0.204791 0.420706 0.900664
0.325231 0.434287 0.891264
0.455787 0.441184 0.886534
0.562524 0.440574 0.886717
0.691676 0.451560 0.890440
0.023011 0.570306 0.951690
0.032074 0.553277 0.955169
0.073213 0.529717 0.941588
0.156497 0.532952 0.924895
0.280919 0.555871 0.914366
0.417807 0.573358 0.905913
0.546059 0.586816 0.903899
0.654780 0.588342 0.904448
0.760739 0.588495 0.901427
0.028870 0.637140 0.949035
0.043610 0.636378 0.947112
0.093019 0.633906 0.932280
0.190921 0.653407 0.920287
0.341176 0.689662 0.921324
0.502144 0.709255 0.924498
0.655482 0.732540 0.924102
0.780179 0.736629 0.924590
0.870024 0.737972 0.921691
0.022950 0.725307 0.938964
0.037903 0.734127 0.939391
0.083589 0.738186 0.925078
0.178134 0.768704 0.915373
0.342763 0.808225 0.919219
0.535134 0.834409 0.927214
0.709865 0.861845 0.931151
0.852232 0.869139 0.933165
0.933959 0.868009 0.932555
0.014618 0.805264 0.910918
0.020325 0.836576 0.929656
0.058534 0.862608 0.920836
0.133333 0.886015 0.905760
0.313954 0.914275 0.915160
0.544503 0.932738 0.926848
0.734340 0.939544 0.932067
0.868803 0.941649 0.934325
0.953887 0.953887 0.945678
