assets/luts/impulz-kodak-ultramax-400-fc-rec709-3d236fc2.cube
# (C) 2014 VisionColor & Patchflyer [www.vision-color.com]
# Generator: VC Patchmatch v.2.1.1 [64/53]
# All work and no play makes Jack a dull boy.
# LUT generated from: Kodak Ultramax 400_FC
LUT_3D_SIZE 17
0.033265 0.035096 0.035828
0.062409 0.034089 0.037110
0.105104 0.036194 0.037049
0.151919 0.038819 0.039857
0.207218 0.037873 0.039948
0.266819 0.045045 0.045472
0.327428 0.047913 0.049287
0.385138 0.050050 0.053346
0.444953 0.057069 0.057801
0.498482 0.063111 0.063386
0.552270 0.065126 0.065705
0.600763 0.071077 0.069520
0.642237 0.074922 0.076783
0.684932 0.081361 0.083619
0.736507 0.081544 0.087312
0.791531 0.085664 0.090974
0.837461 0.081270 0.095491
0.042237 0.056916 0.033082
0.080507 0.061738 0.032013
0.126070 0.065156 0.031922
0.182803 0.071351 0.035126
0.244877 0.079896 0.034607
0.307256 0.082429 0.040436
0.368566 0.089570 0.044404
0.425422 0.098817 0.048554
0.479713 0.100313 0.052979
0.527092 0.104219 0.059052
0.577356 0.112093 0.062623
0.624323 0.118746 0.066865
0.664729 0.119814 0.074250
0.705409 0.125399 0.082155
0.752804 0.124025 0.086091
0.807279 0.126894 0.089784
0.852628 0.120729 0.094331
0.056306 0.089662 0.026734
0.096040 0.096651 0.026612
0.145480 0.104463 0.027680
0.201053 0.112856 0.031830
0.274296 0.119966 0.031312
0.338323 0.131533 0.037842
0.402167 0.138674 0.041352
0.461341 0.144381 0.044831
0.513817 0.154696 0.049866
0.558984 0.162051 0.056580
0.604242 0.163394 0.060212
0.646571 0.167086 0.064515
0.685847 0.173526 0.073243
0.725948 0.179904 0.081636
0.772488 0.176150 0.085634
0.822690 0.169955 0.088777
0.866087 0.167025 0.093080
0.076570 0.125887 0.027771
0.111330 0.138399 0.028199
0.164981 0.151553 0.029236
0.223026 0.159060 0.030426
0.298436 0.174838 0.030549
0.364263 0.179416 0.036988
0.429603 0.190616 0.040925
0.491310 0.206394 0.044404
0.541009 0.210239 0.049165
0.584497 0.214694 0.055970
0.628473 0.222904 0.059449
0.671687 0.229282 0.062440
0.707576 0.230900 0.071107
0.743404 0.230747 0.079438
0.786252 0.229770 0.083375
0.833219 0.226230 0.086549
0.873625 0.217472 0.091707
0.105928 0.180240 0.021454
0.144533 0.192721 0.023438
0.188907 0.210239 0.025116
0.261845 0.223636 0.027222
0.324407 0.230228 0.029145
0.390326 0.242130 0.037842
0.456397 0.252537 0.041749
0.518914 0.263584 0.043977
0.566094 0.269596 0.050019
0.608728 0.277684 0.056245
0.649989 0.281193 0.058961
0.691951 0.286046 0.061982
0.725307 0.287724 0.070497
0.756374 0.289433 0.078279
0.797604 0.284031 0.081086
0.843076 0.279026 0.084443
0.883360 0.269657 0.089631
0.144900 0.237583 0.024964
0.177279 0.251774 0.026673
0.221988 0.268437 0.030610
0.277440 0.282841 0.032746
0.349432 0.296147 0.036255
0.412818 0.305303 0.038117
0.476722 0.311925 0.042756
0.537133 0.323339 0.044617
0.585229 0.329778 0.050080
0.625910 0.336889 0.057771
0.668971 0.338994 0.059449
0.707912 0.343694 0.061799
0.735958 0.343969 0.069429
0.766903 0.344549 0.077333
0.807706 0.338628 0.080354
0.848142 0.329503 0.084504
0.883940 0.317113 0.089754
0.182956 0.295232 0.028779
0.210910 0.310643 0.030488
0.253239 0.327337 0.034943
0.302678 0.343023 0.036591
0.371374 0.357885 0.039918
0.436957 0.370214 0.042145
0.494911 0.379187 0.042817
0.554345 0.387976 0.044678
0.598016 0.388098 0.052003
0.640833 0.392096 0.057862
0.683467 0.396735 0.059174
0.718868 0.399847 0.064027
0.748379 0.399451 0.069337
0.775051 0.397375 0.076844
0.810971 0.389654 0.079042
0.848081 0.379400 0.083101
0.882811 0.360021 0.086091
0.216953 0.355505 0.028351
0.247868 0.372503 0.031830
0.280919 0.390845 0.036011
0.336522 0.404913 0.038758
0.396674 0.417578 0.041688
0.459724 0.432135 0.043519
0.517540 0.442359 0.044160
0.571069 0.450660 0.044739
0.613916 0.447181 0.051575
0.653407 0.444739 0.058259
0.696590 0.450385 0.059205
0.731441 0.453193 0.064485
0.760403 0.451301 0.069276
0.787686 0.445197 0.074891
0.813596 0.437415 0.077516
0.847776 0.426642 0.081941
0.884398 0.407782 0.084565
0.244175 0.405798 0.031067
0.272129 0.424445 0.035248
0.304417 0.440681 0.039673
0.354620 0.453407 0.043488
0.410254 0.464057 0.046693
0.469459 0.475074 0.049378
0.528038 0.487739 0.050599
0.579431 0.494545 0.051057
0.625177 0.499306 0.051179
0.665644 0.496498 0.057740
0.707271 0.499123 0.059876
0.742061 0.498878 0.065034
0.770047 0.497078 0.068849
0.797116 0.490791 0.074556
0.822599 0.482246 0.077455
0.852445 0.471168 0.078767
0.883940 0.452125 0.082948
0.266148 0.448524 0.036072
0.287358 0.468482 0.040101
0.325902 0.482551 0.045777
0.368719 0.494606 0.049409
0.423835 0.505760 0.052857
0.482216 0.516564 0.056092
0.534966 0.525780 0.056764
0.587549 0.534234 0.057099
0.633021 0.539117 0.057313
0.674891 0.543175 0.057435
0.716762 0.541802 0.059022
0.751492 0.538994 0.063996
0.776974 0.536339 0.069123
0.803677 0.532982 0.074647
0.829587 0.524102 0.077699
0.857267 0.510552 0.078798
0.881346 0.493385 0.081178
0.277653 0.488930 0.037171
0.301854 0.507134 0.041535
0.339483 0.520653 0.047211
0.379614 0.531548 0.050416
0.433051 0.542718 0.053223
0.489754 0.553063 0.056123
0.542443 0.560906 0.056458
0.595117 0.568536 0.056977
0.642451 0.575280 0.057282
0.684718 0.578851 0.057588
0.726131 0.582177 0.057984
0.760647 0.578576 0.063020
0.785916 0.574945 0.068147
0.808408 0.568902 0.074891
0.830533 0.560967 0.077028
0.857847 0.547356 0.078828
0.883452 0.530236 0.078645
0.283177 0.527214 0.036164
0.315679 0.542046 0.041108
0.348547 0.555932 0.046082
0.393683 0.566217 0.050080
0.444068 0.576318 0.053346
0.495888 0.586023 0.056825
0.548577 0.592889 0.058412
0.599268 0.599237 0.059632
0.647303 0.606256 0.060761
0.689754 0.610346 0.061280
0.730343 0.613611 0.061677
0.769497 0.616754 0.062043
0.792264 0.610468 0.066407
0.813260 0.602564 0.072694
0.834714 0.594659 0.074800
0.858335 0.583246 0.078859
0.885588 0.567376 0.078218
0.284886 0.559625 0.036622
0.316716 0.574029 0.041413
0.350896 0.586877 0.046754
0.400336 0.594598 0.052308
0.448280 0.604517 0.054810
0.499733 0.613886 0.059144
0.550988 0.620935 0.061036
0.599786 0.627070 0.061769
0.646632 0.632380 0.063325
0.690700 0.637873 0.064607
0.730404 0.641077 0.065003
0.765286 0.642939 0.064820
0.796841 0.643854 0.064393
0.818021 0.635828 0.070558
0.839506 0.628016 0.072633
0.862364 0.618952 0.076478
0.883940 0.604212 0.077974
0.279210 0.592645 0.035462
0.309453 0.605951 0.039734
0.355840 0.615503 0.047364
0.403113 0.623133 0.053071
0.450507 0.632013 0.056214
0.503716 0.640803 0.062074
0.552911 0.647761 0.065370
0.600427 0.653559 0.066651
0.645563 0.658595 0.068452
0.688624 0.663203 0.069978
0.727779 0.667292 0.070527
0.759884 0.668360 0.070039
0.791592 0.669459 0.069581
0.821012 0.669123 0.069520
0.841886 0.661677 0.070863
0.862669 0.651392 0.072877
0.883513 0.643214 0.074067
0.275212 0.626398 0.036011
0.311559 0.636103 0.040894
0.361303 0.644373 0.049165
0.407111 0.651942 0.055116
0.455543 0.659876 0.059266
0.506767 0.669215 0.064271
0.554345 0.677211 0.067475
0.600122 0.681971 0.069001
0.643915 0.687404 0.070069
0.686580 0.692805 0.071138
0.721614 0.696284 0.071015
0.754086 0.698421 0.070619
0.785885 0.699489 0.070130
0.815152 0.699214 0.069734
0.837949 0.695979 0.068940
0.858640 0.686641 0.070893
0.879484 0.679286 0.071992
0.267216 0.669581 0.032258
0.309545 0.676051 0.037049
0.356359 0.683680 0.044373
0.404273 0.690120 0.051301
0.455055 0.694331 0.056031
0.504662 0.703090 0.061097
0.552056 0.710689 0.065949
0.597040 0.714473 0.068269
0.640467 0.718868 0.070253
0.680293 0.724117 0.071565
0.713252 0.727565 0.071839
0.745632 0.730831 0.071931
0.777676 0.731899 0.071687
0.806424 0.730404 0.070466
0.829862 0.727077 0.069673
0.854429 0.723598 0.068818
0.874723 0.716945 0.069459
0.267430 0.711330 0.031281
0.308629 0.717617 0.035950
0.348455 0.723751 0.040620
0.404364 0.728267 0.050813
0.453590 0.731472 0.055390
0.501793 0.738613 0.059754
0.547082 0.745083 0.066102
0.590967 0.749233 0.067689
0.633417 0.753292 0.069276
0.669703 0.756832 0.070954
0.702602 0.760891 0.070985
0.734401 0.764370 0.070558
0.764370 0.766079 0.069062
0.791714 0.762844 0.066926
0.815915 0.759487 0.066072
0.841184 0.755886 0.065156
0.866514 0.752224 0.063813
0.034363 0.034913 0.077455
0.059693 0.033661 0.077516
0.102663 0.034058 0.077119
0.152834 0.035859 0.074952
0.206821 0.033967 0.077913
0.268315 0.038666 0.080507
0.326757 0.040497 0.082338
0.377752 0.042145 0.085969
0.431617 0.045991 0.087922
0.484718 0.051026 0.091615
0.536522 0.052064 0.093202
0.582330 0.053986 0.097261
0.625208 0.060334 0.101900
0.668269 0.066072 0.106661
0.719661 0.065553 0.108705
0.772915 0.064576 0.110628
0.822385 0.066285 0.112062
0.039094 0.065309 0.065095
0.075990 0.069612 0.072694
0.123598 0.072267 0.072084
0.178408 0.073243 0.072786
0.235355 0.075471 0.075532
0.294530 0.079774 0.078737
0.353307 0.084657 0.083528
0.408240 0.089876 0.088014
0.462013 0.095003 0.091463
0.507134 0.101228 0.096895
0.550805 0.107576 0.102693
0.594232 0.112642 0.107881
0.637232 0.119631 0.113100
0.679072 0.126253 0.120058
0.725521 0.125246 0.125917
0.778225 0.126528 0.130190
0.833127 0.121950 0.129610
0.053529 0.101320 0.059724
0.093446 0.108949 0.065980
0.143954 0.117586 0.067414
0.199771 0.120943 0.068482
0.268437 0.127565 0.071931
0.329412 0.133059 0.074586
0.388556 0.134798 0.079377
0.443153 0.144106 0.084718
0.494453 0.152926 0.088808
0.538628 0.157473 0.094331
0.578027 0.161044 0.100679
0.616693 0.167575 0.107179
0.658015 0.174228 0.112825
0.699336 0.179477 0.119783
0.744961 0.177493 0.125643
0.792233 0.174380 0.129152
0.845823 0.170230 0.128359
0.076112 0.146365 0.054597
0.117464 0.159518 0.060731
0.166506 0.168856 0.062318
0.223667 0.178470 0.067445
0.289494 0.183139 0.072023
0.356573 0.187655 0.075502
0.416266 0.196414 0.079683
0.471687 0.205051 0.084504
0.524437 0.209537 0.086946
0.566522 0.217502 0.093477
0.603845 0.224430 0.101045
0.641749 0.229007 0.107515
0.680903 0.231571 0.112947
0.716945 0.234043 0.119509
0.759396 0.234562 0.125154
0.806241 0.229770 0.128695
0.858244 0.217990 0.127291
0.101717 0.199619 0.056031
0.147829 0.212284 0.060426
0.192294 0.224491 0.064118
0.249393 0.237919 0.069001
0.318303 0.248203 0.072175
0.382269 0.253269 0.077913
0.442634 0.257694 0.080659
0.496803 0.264225 0.085237
0.547784 0.274113 0.088563
0.590661 0.280125 0.094026
0.625757 0.283482 0.100862
0.660487 0.287449 0.106996
0.697566 0.290929 0.110445
0.733120 0.293553 0.117159
0.771817 0.289799 0.123110
0.816861 0.282414 0.126986
0.865904 0.268681 0.125826
0.135012 0.255589 0.055299
0.179690 0.269383 0.060334
0.222324 0.280552 0.064729
0.272587 0.295750 0.070039
0.346441 0.311131 0.074830
0.412573 0.320134 0.078096
0.466957 0.321691 0.082948
0.519432 0.327184 0.087831
0.568841 0.334020 0.090608
0.611444 0.339544 0.096162
0.646632 0.342229 0.101747
0.677272 0.344854 0.107118
0.709041 0.345678 0.109529
0.743984 0.347356 0.116609
0.781094 0.343297 0.122469
0.822446 0.330632 0.125002
0.869139 0.315831 0.124208
0.168582 0.311315 0.056001
0.207462 0.324956 0.061952
0.247623 0.336431 0.066163
0.299168 0.351446 0.072908
0.364446 0.366186 0.077760
0.432380 0.379461 0.081544
0.491157 0.387854 0.083711
0.541436 0.388647 0.089662
0.587976 0.390814 0.093904
0.630701 0.395789 0.097230
0.663294 0.397986 0.103975
0.695491 0.399298 0.108186
0.726253 0.399481 0.110719
0.751827 0.396612 0.116457
0.784726 0.391333 0.122011
0.825681 0.378454 0.124880
0.868223 0.361151 0.124941
0.196658 0.366400 0.060182
0.237583 0.377142 0.066987
0.273625 0.391974 0.071839
0.325444 0.404456 0.078706
0.380407 0.416938 0.082704
0.445563 0.430396 0.086091
0.505913 0.441169 0.088746
0.557366 0.447944 0.089204
0.602930 0.445991 0.093050
0.640528 0.445411 0.099519
0.676234 0.449866 0.104250
0.708492 0.450782 0.108400
0.734585 0.447059 0.112978
0.761807 0.442969 0.117098
0.788815 0.437537 0.121492
0.827298 0.424414 0.124269
0.868986 0.406256 0.124666
0.218448 0.414710 0.061830
0.256931 0.425025 0.066865
0.296880 0.438697 0.072847
0.342535 0.450874 0.079164
0.399145 0.463722 0.083925
0.458747 0.475288 0.087770
0.519738 0.487770 0.091402
0.570245 0.494362 0.091890
0.617456 0.499641 0.092256
0.654658 0.497658 0.098726
0.686732 0.494759 0.104738
0.718410 0.493996 0.108400
0.743893 0.492103 0.113069
0.770687 0.487556 0.117403
0.800351 0.481514 0.119631
0.826261 0.468147 0.122957
0.864561 0.448066 0.123171
0.236149 0.457740 0.061921
0.276341 0.466224 0.070741
0.316320 0.479286 0.076753
0.355688 0.491463 0.082795
0.412940 0.502922 0.088472
0.469612 0.513115 0.091676
0.526085 0.523400 0.095644
0.578790 0.532708 0.096803
0.624811 0.537865 0.097139
0.667689 0.542870 0.097475
0.699306 0.537682 0.103395
0.727932 0.533471 0.108797
0.752468 0.531518 0.113680
0.778988 0.529747 0.117739
0.807157 0.521294 0.119142
0.832273 0.506767 0.122499
0.863951 0.487739 0.119387
0.245182 0.497261 0.061524
0.283085 0.501793 0.069551
0.321233 0.514580 0.075288
0.368078 0.523980 0.083162
0.420356 0.533928 0.089662
0.475013 0.543664 0.093263
0.530144 0.553552 0.098360
0.581720 0.561822 0.100801
0.628321 0.569238 0.101564
0.669886 0.574121 0.101900
0.710109 0.578210 0.102235
0.739315 0.573724 0.107576
0.763333 0.569390 0.112215
0.784939 0.563287 0.117769
0.812802 0.558526 0.118624
0.837980 0.543999 0.122103
0.865568 0.526482 0.118746
0.249302 0.534051 0.060914
0.291722 0.533989 0.072023
0.329503 0.545892 0.078065
0.379248 0.553887 0.086702
0.427588 0.562890 0.093172
0.479774 0.572534 0.097292
0.533074 0.582086 0.101717
0.583459 0.590051 0.104372
0.629480 0.596826 0.105257
0.671473 0.602991 0.105684
0.710811 0.607385 0.105989
0.745602 0.609186 0.105806
0.768612 0.603357 0.110018
0.791287 0.596948 0.115663
0.816495 0.591699 0.118654
0.842344 0.580774 0.121798
0.869413 0.564172 0.118746
0.251865 0.566247 0.060700
0.285618 0.567193 0.068269
0.334630 0.576074 0.076387
0.383185 0.583856 0.084779
0.431037 0.591882 0.091829
0.483711 0.600763 0.097169
0.535210 0.609979 0.101778
0.583642 0.617670 0.105745
0.628534 0.622644 0.107454
0.671382 0.629206 0.108583
0.709316 0.634119 0.108858
0.741756 0.635462 0.108370
0.773404 0.636530 0.107881
0.796109 0.630365 0.113497
0.821347 0.625360 0.116487
0.844053 0.615595 0.118471
0.866850 0.601617 0.118196
0.245548 0.598627 0.056001
0.286473 0.597986 0.068147
0.335973 0.606195 0.076417
0.383429 0.613977 0.084443
0.435187 0.619776 0.093904
0.486183 0.628443 0.099336
0.535882 0.637140 0.104494
0.581292 0.643915 0.109499
0.624781 0.648920 0.111086
0.667475 0.654047 0.112398
0.704128 0.660090 0.112459
0.736446 0.662104 0.112001
0.768307 0.663172 0.111513
0.799954 0.663661 0.110780
0.822477 0.657343 0.112398
0.844633 0.648096 0.113985
0.866270 0.642267 0.114321
0.241917 0.631067 0.051942
0.284428 0.631373 0.064302
0.332677 0.639368 0.072328
0.384222 0.645747 0.081849
0.438087 0.650629 0.092470
0.487282 0.658839 0.097200
0.534173 0.666529 0.102693
0.578698 0.673091 0.108675
0.621424 0.678645 0.110079
0.661250 0.683772 0.110842
0.695979 0.688228 0.111421
0.729793 0.692256 0.111238
0.761898 0.693355 0.110750
0.791959 0.692134 0.109377
0.823087 0.690486 0.107820
0.845243 0.681971 0.109316
0.866911 0.677302 0.109468
0.234897 0.674098 0.044007
0.278508 0.669245 0.056245
0.325322 0.676844 0.063935
0.383551 0.681239 0.075898
0.439368 0.685420 0.087160
0.486702 0.692714 0.091951
0.531548 0.699275 0.099062
0.574792 0.705562 0.106020
0.617121 0.710811 0.109133
0.652857 0.715694 0.109987
0.686946 0.720485 0.110780
0.721126 0.725063 0.111299
0.751827 0.725460 0.110231
0.782315 0.723842 0.108705
0.814084 0.722194 0.107088
0.841917 0.719112 0.105928
0.861601 0.712154 0.103639
0.236057 0.715755 0.042695
0.275883 0.714107 0.051911
0.324315 0.717525 0.059510
0.381537 0.721859 0.071260
0.435920 0.725948 0.082429
0.483040 0.728450 0.088685
0.526970 0.734707 0.095155
0.569238 0.741390 0.101259
0.608484 0.746395 0.104829
0.642451 0.749783 0.106538
0.675990 0.754726 0.106874
0.710506 0.759915 0.107332
0.737697 0.760555 0.104768
0.765499 0.757809 0.102419
0.798398 0.756069 0.100771
0.826596 0.752773 0.099153
0.853056 0.748989 0.097749
0.033906 0.037568 0.127993
0.057069 0.034333 0.127016
0.098146 0.033539 0.123751
0.149081 0.035218 0.123812
0.209506 0.033448 0.122194
0.266087 0.037568 0.126040
0.325200 0.039368 0.127199
0.378271 0.041260 0.128603
0.429755 0.045014 0.129000
0.472511 0.050019 0.131960
0.521111 0.051667 0.135103
0.567254 0.053620 0.138308
0.610559 0.059968 0.141726
0.651057 0.065980 0.146242
0.699123 0.066468 0.146304
0.752834 0.065461 0.147341
0.803189 0.067231 0.147433
0.038605 0.069917 0.113588
0.073396 0.073152 0.123598
0.115694 0.069764 0.121462
0.169680 0.069581 0.119265
0.228031 0.070253 0.116426
0.283116 0.070985 0.117586
0.344274 0.075685 0.119265
0.397681 0.079561 0.121706
0.442878 0.080171 0.124331
0.488502 0.085756 0.127749
0.533501 0.093172 0.131655
0.576501 0.097200 0.135225
0.616602 0.098726 0.138979
0.658839 0.103975 0.143984
0.707637 0.107759 0.147219
0.760861 0.108370 0.149508
0.816037 0.100374 0.146456
0.048859 0.110872 0.100862
0.087709 0.119936 0.109926
0.133608 0.121035 0.114473
0.187106 0.124849 0.117372
0.244022 0.126375 0.117250
0.302953 0.128420 0.119661
0.360418 0.135866 0.125429
0.412482 0.140383 0.128725
0.458778 0.147097 0.133822
0.504631 0.151919 0.137606
0.546044 0.161807 0.144625
0.584497 0.167300 0.150027
0.623438 0.172183 0.156435
0.668116 0.175387 0.161746
0.715633 0.179568 0.166171
0.768643 0.177188 0.167300
0.827848 0.171023 0.166201
0.070832 0.157809 0.097719
0.112062 0.170169 0.102510
0.157382 0.173098 0.111666
0.211093 0.182101 0.116518
0.270390 0.187747 0.118227
0.334478 0.194034 0.120607
0.391577 0.198672 0.124300
0.442756 0.201450 0.127596
0.490394 0.209812 0.134127
0.530510 0.215366 0.137942
0.571221 0.223606 0.144991
0.608942 0.227329 0.150362
0.644923 0.231022 0.156802
0.683314 0.233188 0.161440
0.729732 0.235294 0.165713
0.782376 0.231388 0.166842
0.839780 0.216770 0.165103
0.096681 0.218143 0.090974
0.137057 0.224338 0.101534
0.184604 0.230808 0.109712
0.238254 0.240604 0.115053
0.299229 0.252018 0.122560
0.359930 0.256016 0.125826
0.417639 0.258976 0.128634
0.470253 0.266789 0.131624
0.519402 0.275486 0.137575
0.560327 0.279545 0.140322
0.596857 0.284306 0.146456
0.629755 0.288762 0.151064
0.664607 0.291752 0.157534
0.702510 0.292454 0.162142
0.744900 0.289952 0.165621
0.793973 0.283330 0.166384
0.848844 0.267826 0.164645
0.124941 0.271305 0.094026
0.165133 0.279423 0.103304
0.212497 0.286564 0.109712
0.265141 0.297246 0.116274
0.325811 0.311620 0.123568
0.387457 0.321508 0.127993
0.441749 0.321141 0.133425
0.494331 0.328496 0.135378
0.541711 0.334600 0.139895
0.580987 0.338750 0.142855
0.618128 0.342596 0.148745
0.648646 0.346471 0.152682
0.678126 0.347723 0.157687
0.717128 0.346654 0.160891
0.756222 0.342779 0.164492
0.801144 0.333043 0.165072
0.854917 0.315923 0.163638
0.151827 0.322026 0.096162
0.192447 0.334539 0.102602
0.238132 0.340490 0.112093
0.287877 0.350103 0.118807
0.344060 0.363897 0.126162
0.410101 0.377569 0.131624
0.468544 0.385595 0.134524
0.515465 0.386297 0.138399
0.560418 0.388403 0.142580
0.598596 0.393835 0.144961
0.635004 0.397436 0.151278
0.666926 0.400183 0.153933
0.692988 0.398322 0.158694
0.722499 0.394568 0.160586
0.760189 0.389990 0.164248
0.804898 0.380652 0.164828
0.857877 0.359503 0.162112
0.175387 0.374914 0.093507
0.216373 0.383490 0.103609
0.259800 0.388220 0.113710
0.308110 0.397528 0.120211
0.362402 0.410346 0.127749
0.424414 0.423468 0.133150
0.484810 0.435035 0.136202
0.538384 0.442390 0.139071
0.579980 0.440467 0.144228
0.615076 0.442634 0.148287
0.652369 0.447089 0.152682
0.677424 0.446876 0.156710
0.704341 0.444038 0.159670
0.733516 0.440131 0.161715
0.765042 0.434638 0.164370
0.808042 0.425483 0.164858
0.858793 0.403449 0.163424
0.196109 0.422278 0.094759
0.231174 0.429938 0.104341
0.279149 0.431403 0.114931
0.325719 0.441352 0.121523
0.380499 0.452705 0.129641
0.436561 0.465278 0.136049
0.495308 0.477455 0.139559
0.549554 0.486885 0.142702
0.597436 0.492836 0.144106
0.632380 0.489845 0.148104
0.663386 0.487343 0.155734
0.689387 0.488441 0.158175
0.714900 0.487709 0.160525
0.741146 0.482856 0.164645
0.773587 0.475715 0.166293
0.809110 0.466804 0.166567
0.859495 0.445258 0.165011
0.211032 0.463081 0.098543
0.250767 0.470710 0.107912
0.291539 0.470008 0.114839
0.340429 0.478981 0.122988
0.392584 0.488594 0.130526
0.446052 0.500053 0.136934
0.501518 0.510277 0.141268
0.556054 0.520989 0.144533
0.603326 0.527947 0.146426
0.644984 0.532860 0.146761
0.675654 0.529229 0.154421
0.698970 0.526879 0.158724
0.723812 0.526818 0.160830
0.748226 0.522271 0.164065
0.779690 0.513634 0.166079
0.817594 0.504417 0.164340
0.856748 0.486397 0.164279
0.217227 0.502403 0.094820
0.257633 0.506310 0.104555
0.301976 0.504448 0.115572
0.351507 0.512383 0.124147
0.400305 0.520500 0.131930
0.454444 0.531426 0.140993
0.507897 0.541131 0.146029
0.560082 0.550958 0.150301
0.607569 0.560418 0.152499
0.648249 0.565209 0.152834
0.687526 0.569818 0.153140
0.710048 0.565545 0.157198
0.730617 0.560113 0.160616
0.754360 0.555444 0.163821
0.785550 0.550500 0.165652
0.823148 0.541741 0.164309
0.857145 0.526238 0.163394
0.218387 0.540093 0.087221
0.263554 0.538781 0.102876
0.310430 0.536706 0.115694
0.358648 0.544457 0.124025
0.407538 0.551171 0.133120
0.461128 0.560449 0.143038
0.512322 0.569574 0.147097
0.560876 0.577569 0.151705
0.606622 0.585595 0.155001
0.648493 0.592371 0.155398
0.685847 0.596704 0.155520
0.719448 0.600427 0.155154
0.739925 0.594568 0.158572
0.763455 0.589227 0.161837
0.791470 0.584466 0.165774
0.827939 0.578546 0.164309
0.860166 0.563104 0.163638
0.221622 0.572381 0.084565
0.261418 0.572534 0.095033
0.312657 0.567864 0.111757
0.359716 0.575402 0.119905
0.412970 0.580682 0.130953
0.465583 0.587579 0.141482
0.515343 0.596521 0.145480
0.560693 0.603265 0.150546
0.604852 0.609949 0.155734
0.646662 0.616938 0.157351
0.682063 0.622095 0.157229
0.715267 0.625757 0.156893
0.748257 0.628870 0.156497
0.772702 0.623926 0.159762
0.799283 0.618433 0.163119
0.830472 0.613489 0.164492
0.863310 0.600885 0.163882
0.220340 0.604120 0.082216
0.263523 0.603113 0.094606
0.314214 0.598962 0.110231
0.364782 0.605280 0.119905
0.417853 0.610254 0.131014
0.468788 0.616022 0.141543
0.515190 0.623743 0.146609
0.559167 0.630732 0.151339
0.601984 0.637629 0.155856
0.641535 0.643153 0.158022
0.676692 0.649317 0.157778
0.710201 0.653620 0.157382
0.743648 0.657252 0.157015
0.773800 0.656001 0.155642
0.800687 0.651209 0.158785
0.832670 0.647181 0.160220
0.864805 0.641413 0.160494
0.218845 0.636225 0.078553
0.262058 0.636347 0.090089
0.309606 0.635065 0.102449
0.367803 0.639429 0.114412
0.420020 0.644190 0.125307
0.469520 0.648951 0.135866
0.514794 0.655451 0.143862
0.558221 0.662318 0.149722
0.600092 0.669520 0.154421
0.636408 0.675258 0.156832
0.671351 0.680110 0.157473
0.706386 0.686183 0.157595
0.738735 0.688197 0.157107
0.769436 0.686854 0.155703
0.801297 0.685206 0.154116
0.833310 0.682277 0.155398
0.863645 0.677180 0.154055
0.210483 0.678981 0.066682
0.256138 0.674037 0.080537
0.310185 0.673396 0.096376
0.366949 0.677668 0.108034
0.421271 0.681758 0.119173
0.470008 0.685664 0.132326
0.514214 0.691707 0.140505
0.556695 0.698482 0.146792
0.596551 0.704829 0.151888
0.632227 0.710781 0.154086
0.666590 0.715724 0.154208
0.701534 0.720729 0.154208
0.732784 0.723598 0.152895
0.764309 0.722499 0.151583
0.797238 0.720760 0.149935
0.830625 0.716609 0.147311
0.859739 0.711757 0.144717
0.206607 0.719997 0.054505
0.252232 0.717861 0.069093
0.308019 0.719326 0.082002
0.363622 0.723537 0.093416
0.417151 0.726528 0.105440
0.470466 0.727047 0.119844
0.514549 0.731960 0.127810
0.556176 0.739132 0.133211
0.592157 0.744045 0.140719
0.627283 0.748775 0.147616
0.661097 0.753811 0.148287
0.692988 0.758724 0.147738
0.724422 0.763088 0.146426
0.754391 0.762661 0.144411
0.787320 0.759487 0.142184
0.821378 0.754421 0.139162
0.852659 0.749844 0.136995
0.035859 0.042176 0.182986
0.049928 0.037293 0.177981
0.092470 0.035828 0.172732
0.144198 0.035126 0.165866
0.201572 0.033234 0.169131
0.262058 0.037263 0.166232
0.320378 0.038972 0.167086
0.372625 0.040772 0.171206
0.424140 0.044190 0.173617
0.465705 0.049073 0.175082
0.513207 0.050782 0.176486
0.553033 0.053285 0.179446
0.592493 0.059693 0.182010
0.632990 0.065705 0.185183
