assets/luts/impulz-fuji-pro-400-fc-log-6485de85.cube
# (C) 2014 VisionColor & Patchflyer [www.vision-color.com]
# Generator: VC Patchmatch v.2.1.1 [64/53]
# All work and no play makes Jack a dull boy.
# LUT generated from: Fuji Pro 400_FC
LUT_3D_SIZE 9
0.025147 0.025147 0.025147
0.080964 0.028046 0.029725
0.197482 0.028199 0.031403
0.368307 0.043030 0.044526
0.518639 0.053498 0.058228
0.575372 0.064546 0.066987
0.611353 0.102541 0.082429
0.657008 0.137148 0.098909
0.706477 0.151949 0.118410
0.033814 0.084382 0.022858
0.085573 0.084901 0.028748
0.189273 0.100465 0.038209
0.327489 0.121401 0.057984
0.468147 0.140658 0.079774
0.558404 0.169986 0.100252
0.619196 0.195712 0.114473
0.676936 0.220340 0.127199
0.729274 0.240909 0.143191
0.064942 0.191409 0.037018
0.127474 0.195621 0.047242
0.213291 0.208774 0.064912
0.333776 0.243687 0.092134
0.471855 0.295094 0.125948
0.587488 0.357671 0.159701
0.651484 0.360906 0.166537
0.707973 0.347112 0.167239
0.753506 0.346288 0.172885
0.120912 0.340200 0.080262
0.211978 0.355764 0.099184
0.295048 0.373648 0.117678
0.378927 0.400473 0.136812
0.502907 0.459770 0.172671
0.637324 0.533104 0.213993
0.708675 0.535409 0.223148
0.753017 0.504646 0.217288
0.784726 0.480293 0.213230
0.206271 0.502907 0.134401
0.320760 0.527840 0.157473
0.414511 0.551431 0.178470
0.481010 0.575357 0.194400
0.556161 0.603464 0.215152
0.677882 0.645869 0.246769
0.758968 0.654963 0.260594
0.806943 0.644175 0.260471
0.827970 0.624887 0.255161
0.315740 0.646845 0.183261
0.434028 0.678035 0.208011
0.520806 0.697871 0.225345
0.582757 0.713802 0.238834
0.648615 0.731441 0.256229
0.731701 0.747738 0.274693
0.802518 0.753445 0.287755
0.849851 0.757778 0.294011
0.866178 0.739467 0.288487
0.386206 0.760861 0.211429
0.501823 0.785763 0.235843
0.596429 0.799619 0.256107
0.662409 0.808438 0.271397
0.723079 0.817624 0.285161
0.785122 0.825223 0.297734
0.837339 0.833432 0.307530
0.870512 0.844114 0.316014
0.883696 0.839658 0.316472
0.423896 0.846372 0.228092
0.555535 0.854795 0.258061
0.664302 0.863462 0.281926
0.739590 0.868589 0.298955
0.792508 0.872404 0.309606
0.836179 0.875822 0.316838
0.865690 0.881468 0.325139
0.881285 0.887877 0.326543
0.890806 0.890318 0.329778
0.478584 0.895872 0.251713
0.631434 0.888487 0.285466
0.738766 0.895445 0.307469
0.797574 0.899138 0.320012
0.840787 0.899535 0.328893
0.867735 0.904051 0.332372
0.881529 0.907256 0.336858
0.890593 0.909789 0.343297
0.897795 0.922423 0.337560
0.026795 0.026825 0.057893
0.061128 0.025452 0.066682
0.151369 0.025971 0.069490
0.284581 0.035157 0.076234
0.454185 0.048981 0.086030
0.574487 0.063264 0.094514
0.648157 0.086763 0.100801
0.687221 0.104952 0.116152
0.712703 0.110933 0.141360
0.025208 0.067994 0.059937
0.081971 0.076783 0.070588
0.207675 0.074922 0.069032
0.387594 0.081727 0.073640
0.539544 0.089296 0.082490
0.606744 0.106020 0.089815
0.657984 0.137850 0.102449
0.702235 0.151644 0.118166
0.753902 0.172488 0.153658
0.048676 0.173648 0.064637
0.113436 0.215305 0.074220
0.232792 0.222965 0.091615
0.390555 0.236500 0.108400
0.538338 0.265599 0.131685
0.625696 0.268742 0.140383
0.685481 0.261326 0.141726
0.732784 0.269963 0.152041
0.783352 0.286229 0.178164
0.095644 0.323720 0.089052
0.183444 0.417319 0.115480
0.318990 0.439658 0.142489
0.442802 0.471061 0.167422
0.597086 0.505989 0.199161
0.694331 0.509682 0.212650
0.740017 0.464439 0.205081
0.773007 0.430228 0.198428
0.815671 0.433173 0.211978
0.166018 0.500435 0.127718
0.290837 0.608530 0.171542
0.447654 0.646830 0.203708
0.549752 0.664866 0.224033
0.662730 0.686717 0.249577
0.760159 0.680400 0.263767
0.812039 0.661204 0.264866
0.828397 0.618448 0.252995
0.850828 0.607523 0.257328
0.230808 0.656855 0.171328
0.377142 0.748409 0.210575
0.534051 0.779110 0.241215
0.635615 0.788663 0.263828
0.726131 0.801968 0.283085
0.819364 0.814237 0.300572
0.859159 0.806149 0.305486
0.872862 0.775174 0.299260
0.879911 0.753902 0.304417
0.254246 0.780819 0.202945
0.419562 0.843595 0.226108
0.591485 0.857786 0.265232
0.714382 0.866239 0.292790
0.790280 0.869383 0.308415
0.848600 0.876188 0.320928
0.880461 0.883055 0.327642
0.889403 0.875486 0.327794
0.894499 0.851621 0.335882
0.309087 0.864195 0.229557
0.475135 0.892271 0.249790
0.656977 0.888243 0.291203
0.765774 0.896117 0.314824
0.832181 0.898283 0.327977
0.869718 0.903593 0.335332
0.888212 0.908782 0.343816
0.896574 0.920073 0.339483
0.900236 0.905028 0.356695
0.408331 0.900236 0.270268
0.503502 0.904723 0.277440
0.654231 0.902281 0.306127
0.753079 0.907103 0.328832
0.823392 0.909880 0.345373
0.866331 0.917052 0.357397
0.886839 0.923247 0.364355
0.899565 0.924834 0.368109
0.904570 0.935271 0.365545
0.026459 0.026429 0.098054
0.054444 0.025605 0.108156
0.123445 0.025483 0.108003
0.224765 0.032685 0.113161
0.374151 0.047913 0.125460
0.513329 0.065736 0.138949
0.597101 0.080690 0.142519
0.642481 0.091188 0.150027
0.680659 0.099763 0.170443
0.025788 0.062379 0.130831
0.058167 0.050477 0.142489
0.165896 0.054261 0.140536
0.317021 0.063111 0.129061
0.489570 0.076356 0.133547
0.609400 0.089021 0.131868
0.675441 0.100618 0.134768
0.705196 0.105257 0.150362
0.766354 0.128939 0.191257
0.041657 0.136507 0.145235
0.084718 0.159518 0.171328
0.175906 0.147066 0.155367
0.342092 0.153353 0.147738
0.534615 0.160494 0.145602
0.650233 0.158968 0.145724
0.714229 0.161929 0.140902
0.753323 0.173861 0.153017
0.821469 0.230381 0.219974
0.081117 0.285740 0.149203
0.135897 0.373312 0.166659
0.225010 0.363882 0.162173
0.394583 0.385000 0.188449
0.573007 0.389700 0.196872
0.690913 0.370809 0.198550
0.755673 0.339406 0.184329
0.794644 0.339117 0.190982
0.854978 0.389288 0.260166
0.133394 0.479454 0.176699
0.200107 0.602914 0.205509
0.323339 0.602670 0.201663
0.483513 0.624460 0.231205
0.639078 0.636362 0.258213
0.754635 0.620066 0.262608
0.817075 0.590860 0.253574
0.842374 0.568307 0.249241
0.883360 0.596994 0.312963
0.177768 0.646799 0.229252
0.236545 0.762539 0.230869
0.403662 0.774716 0.235386
0.579553 0.791104 0.268681
0.698207 0.792599 0.293248
0.809354 0.808042 0.315465
0.865080 0.793286 0.315770
0.883299 0.771756 0.313268
0.901335 0.774075 0.370764
0.194003 0.778439 0.255833
0.264195 0.863737 0.247593
0.449287 0.864866 0.251560
0.646174 0.872435 0.291630
0.758724 0.872953 0.317723
0.838041 0.880125 0.339849
0.884672 0.892576 0.354955
0.897398 0.882109 0.355505
0.908476 0.866850 0.414160
0.230350 0.863767 0.283726
0.356268 0.897337 0.287633
0.498482 0.900969 0.275792
0.688350 0.900603 0.313726
0.798154 0.905577 0.339055
0.860594 0.914275 0.359869
0.890562 0.920317 0.372381
0.904112 0.929778 0.374823
0.908782 0.910063 0.446479
0.299504 0.896819 0.334417
0.395666 0.908385 0.336309
0.517998 0.910704 0.328466
0.651576 0.910460 0.344579
0.760342 0.912596 0.372503
0.842374 0.922942 0.407782
0.882689 0.934325 0.439490
0.903655 0.935699 0.451118
0.914366 0.938079 0.457588
0.027192 0.027161 0.158206
0.051698 0.026154 0.153506
0.108186 0.025849 0.147219
0.201755 0.033143 0.150454
0.328466 0.048219 0.164157
0.458915 0.065126 0.180697
0.540887 0.078828 0.186099
0.593835 0.086976 0.188815
0.643030 0.096803 0.203159
0.031617 0.062409 0.209689
0.043305 0.039918 0.223667
0.113313 0.039979 0.195224
0.264836 0.055299 0.194797
0.419959 0.068299 0.194614
0.538201 0.081605 0.192050
0.607233 0.089876 0.186892
0.656550 0.098085 0.192081
0.733028 0.122103 0.231907
0.047730 0.123232 0.236149
0.064729 0.112001 0.274998
0.125429 0.101564 0.244450
0.281376 0.113161 0.238743
0.464271 0.119295 0.224552
0.598016 0.120089 0.217380
0.690333 0.120974 0.206973
0.754818 0.127535 0.211002
0.830900 0.187137 0.276280
0.075319 0.220615 0.252934
0.110994 0.278706 0.321706
0.169192 0.282612 0.306203
0.301106 0.275837 0.287861
0.505257 0.274723 0.285176
0.672786 0.241474 0.264149
0.771389 0.227115 0.239948
0.826780 0.243381 0.237339
0.894682 0.345342 0.334783
0.117708 0.409598 0.283131
0.162448 0.537545 0.346426
0.236789 0.552499 0.330159
0.383291 0.550057 0.321431
0.570199 0.559579 0.346731
0.723598 0.526192 0.332174
0.819303 0.496117 0.308522
0.872892 0.491844 0.304646
0.902495 0.555398 0.407919
0.161654 0.599893 0.335485
0.201144 0.737789 0.356405
0.299413 0.779126 0.347509
0.461189 0.760113 0.334905
0.627619 0.762066 0.369543
0.762280 0.768048 0.398169
0.854337 0.751934 0.382177
0.896391 0.754192 0.384161
0.913817 0.752865 0.481605
0.191959 0.756069 0.357092
0.217807 0.854002 0.361608
0.310674 0.878264 0.346197
0.498238 0.868772 0.328435
0.670008 0.867948 0.363241
0.793103 0.870512 0.407141
0.872496 0.883421 0.441535
0.904906 0.880522 0.452522
0.917967 0.859709 0.535058
0.210391 0.850980 0.378912
0.244144 0.888304 0.389838
0.345861 0.903136 0.375799
0.514000 0.905119 0.340673
0.690059 0.906615 0.366857
0.819791 0.914305 0.420233
0.882261 0.924559 0.466407
0.909392 0.928130 0.488533
0.916564 0.911376 0.573571
0.231876 0.885801 0.421180
0.281926 0.896117 0.440986
0.386053 0.913054 0.444434
0.530816 0.918547 0.431922
0.666468 0.918578 0.439536
0.797909 0.926421 0.491127
0.875975 0.937957 0.549767
0.905180 0.942138 0.581903
0.921080 0.942290 0.597131
0.027649 0.027771 0.251133
0.045289 0.026856 0.226841
0.093324 0.026795 0.197604
0.178408 0.033600 0.186984
0.297612 0.047272 0.200259
0.413306 0.062928 0.221836
0.494789 0.075532 0.230228
0.557183 0.085786 0.230442
0.614343 0.094636 0.233738
0.032013 0.056916 0.301762
0.033692 0.034363 0.333349
0.081270 0.034272 0.266819
0.190768 0.043793 0.237583
0.352300 0.062684 0.249454
0.468772 0.075044 0.250004
0.549157 0.085573 0.240116
0.614343 0.095521 0.235874
0.687739 0.116518 0.265782
0.047944 0.104952 0.334020
0.052125 0.090120 0.384619
0.083772 0.074067 0.344396
0.186313 0.080812 0.310369
0.371130 0.098756 0.307836
0.518471 0.102205 0.287358
0.619410 0.108400 0.267948
0.697261 0.120058 0.263249
0.788571 0.179599 0.324804
0.078126 0.194217 0.359518
0.095338 0.221683 0.438407
0.126101 0.210651 0.416556
0.211826 0.203464 0.396658
0.408286 0.214755 0.392966
0.586160 0.195193 0.359365
0.717311 0.187472 0.329458
0.809659 0.199985 0.321935
0.886534 0.313130 0.406851
0.115816 0.349630 0.400137
0.158053 0.479606 0.503120
0.197391 0.500343 0.500648
0.290410 0.490990 0.490135
0.483391 0.479301 0.488853
0.646159 0.443839 0.467155
0.794186 0.407156 0.432181
0.882139 0.396231 0.399283
0.912139 0.529854 0.516579
0.160494 0.554177 0.446113
0.211276 0.709422 0.525307
0.254734 0.743999 0.524483
0.347265 0.732677 0.511635
0.534356 0.712688 0.515938
0.704326 0.724498 0.547814
0.830808 0.701457 0.522210
0.896605 0.688701 0.513115
0.921477 0.743969 0.626642
0.214023 0.742153 0.487617
0.259037 0.853300 0.550423
0.280278 0.867185 0.536843
0.360296 0.866331 0.512673
0.549981 0.856809 0.499229
0.732067 0.863981 0.543954
0.856199 0.874327 0.592355
0.906523 0.861448 0.593500
0.925597 0.861692 0.683864
0.256107 0.854551 0.526986
0.273442 0.890684 0.570047
0.286748 0.896178 0.559060
0.354986 0.905486 0.523934
0.542290 0.906432 0.481193
0.744793 0.912779 0.521385
0.866117 0.923247 0.601648
0.911650 0.931151 0.647196
0.926329 0.911864 0.711467
0.270146 0.893462 0.569497
0.280705 0.897704 0.588815
0.306950 0.901671 0.590188
0.421302 0.914946 0.594980
0.609125 0.924193 0.598825
0.769268 0.929534 0.623713
0.872068 0.940856 0.681819
0.910094 0.946563 0.725567
0.928771 0.948791 0.744060
0.028168 0.029236 0.357488
0.038666 0.027070 0.310124
0.082948 0.028168 0.254948
0.158633 0.034546 0.229343
0.257588 0.046082 0.234348
0.362310 0.059236 0.245945
0.440650 0.070161 0.263218
0.521447 0.082155 0.265476
0.595209 0.094789 0.268315
0.033082 0.053468 0.395056
0.030884 0.031739 0.425422
0.051881 0.030579 0.352392
0.120119 0.035218 0.301762
0.241901 0.049378 0.288212
0.389197 0.067750 0.287144
0.492500 0.079744 0.282994
0.585382 0.095003 0.279606
0.654994 0.114473 0.300481
0.049378 0.097169 0.430915
0.044556 0.075532 0.472724
0.053590 0.060212 0.446296
0.109529 0.062013 0.411200
0.235706 0.073213 0.378576
0.430823 0.093416 0.352361
0.556848 0.098665 0.319860
0.648310 0.114015 0.309911
0.747433 0.167391 0.360082
0.079622 0.184360 0.463111
0.082612 0.184771 0.529534
0.092226 0.176349 0.517327
0.129809 0.154131 0.503929
0.260884 0.158007 0.495552
0.496773 0.170596 0.455451
0.645136 0.158358 0.392187
0.752865 0.177646 0.373327
0.850553 0.291707 0.461463
0.123140 0.338460 0.503746
0.147280 0.416037 0.592828
0.161990 0.418845 0.598718
0.202808 0.389303 0.586358
0.331975 0.369924 0.581140
0.570947 0.387228 0.585229
0.736019 0.360128 0.528603
0.851102 0.364340 0.499245
0.901488 0.523690 0.618036
0.169223 0.538643 0.553124
0.217716 0.681514 0.669551
0.237430 0.702281 0.684611
0.285435 0.685313 0.677897
0.431907 0.675090 0.674266
0.639735 0.684092 0.684489
0.787106 0.662394 0.657755
0.883970 0.646922 0.636973
0.918822 0.739116 0.734508
0.223423 0.728176 0.605432
0.280919 0.838254 0.724346
0.293156 0.851621 0.735454
0.313939 0.844511 0.703075
0.443473 0.839231 0.691356
0.656794 0.837797 0.690791
0.823148 0.859617 0.733242
0.901396 0.850919 0.732494
0.931762 0.864439 0.798154
0.289860 0.854154 0.679194
0.342138 0.901732 0.777829
0.338811 0.906401 0.778698
0.330755 0.899474 0.735058
0.435996 0.901884 0.694072
0.659388 0.906737 0.682170
0.842741 0.917540 0.733501
0.908721 0.927062 0.783444
0.933837 0.912963 0.823484
0.345617 0.910002 0.755947
0.351537 0.916289 0.784466
0.334813 0.909728 0.760449
0.378164 0.910979 0.737667
0.555825 0.925719 0.747524
0.738491 0.931731 0.766934
0.860685 0.940673 0.797116
0.910216 0.947540 0.835416
0.936217 0.950347 0.852262
0.029816 0.029847 0.433234
0.034882 0.028199 0.380957
0.055390 0.027283 0.324773
0.105501 0.030488 0.288548
0.187488 0.040009 0.278050
0.286961 0.052613 0.276524
0.384039 0.065766 0.282689
0.480049 0.078981 0.290867
0.580957 0.095705 0.300877
0.034913 0.052522 0.465766
0.030976 0.030549 0.486580
0.035828 0.030426 0.434852
0.061524 0.030854 0.387945
0.137438 0.037934 0.350256
0.266056 0.053864 0.325353
0.435370 0.074525 0.322118
0.562921 0.094911 0.325872
0.638819 0.114015 0.342260
0.051301 0.095064 0.504234
0.043488 0.071138 0.535760
0.039216 0.050782 0.517052
0.057954 0.051942 0.512078
0.129137 0.055573 0.485725
0.284245 0.070253 0.418952
0.496071 0.093233 0.384680
0.620478 0.112551 0.376562
0.715328 0.151064 0.411078
0.081056 0.180026 0.545434
0.080629 0.177035 0.594720
0.071595 0.147768 0.586969
0.079316 0.119051 0.588891
0.151537 0.117220 0.619959
0.334112 0.129580 0.558083
0.569390 0.152224 0.498299
0.698756 0.159152 0.459236
0.816892 0.252949 0.525322
0.127687 0.340505 0.587030
0.139773 0.374594 0.653925
0.133120 0.345785 0.658961
0.140673 0.306020 0.655756
0.199573 0.265248 0.676936
0.405127 0.289815 0.693874
0.667689 0.330831 0.674250
0.799283 0.312551 0.604883
0.881071 0.488090 0.690730
0.178958 0.536965 0.641047
0.208743 0.614298 0.727535
0.209049 0.602060 0.737545
0.222904 0.577035 0.739712
0.312581 0.567178 0.756619
0.486656 0.562356 0.758816
0.728878 0.621836 0.779171
0.859129 0.610147 0.752880
0.907469 0.718364 0.805203
0.226688 0.706935 0.694575
0.264897 0.786862 0.788296
0.274571 0.803220 0.807706
0.292119 0.804623 0.812467
0.399558 0.817502 0.821683
0.595956 0.830777 0.826963
0.776303 0.853697 0.834562
0.888151 0.840085 0.831540
0.932769 0.876463 0.867674
0.280003 0.830716 0.756374
0.307286 0.870787 0.822629
0.315984 0.883055 0.844236
0.319585 0.886961 0.831144
0.405234 0.895109 0.827573
0.607614 0.906523 0.833829
0.797177 0.908873 0.834684
0.906462 0.925719 0.868315
0.942077 0.922240 0.883238
0.332921 0.890715 0.819516
0.338842 0.899626 0.845945
0.331304 0.901213 0.836820
0.369604 0.907500 0.826444
0.532723 0.925170 0.844968
0.715969 0.937713 0.849607
0.846799 0.941955 0.872679
0.917784 0.952361 0.892607
0.943816 0.954284 0.901213
0.030610 0.030060 0.490761
0.033234 0.029755 0.455055
0.040620 0.028901 0.414618
0.060517 0.029358 0.382666
0.112764 0.033814 0.354894
0.201266 0.044312 0.332250
0.304662 0.057862 0.320714
0.439399 0.075502 0.319463
0.562310 0.095125 0.333989
0.035798 0.052399 0.525841
0.032380 0.035920 0.546654
0.033387 0.035920 0.533013
0.040650 0.035065 0.513512
0.077302 0.036927 0.478309
0.175662 0.046448 0.416907
0.331548 0.065431 0.376684
0.519707 0.088624 0.371771
0.618921 0.113680 0.395239
0.053620 0.101045 0.562493
0.045502 0.078676 0.585382
0.040131 0.059236 0.578759
0.044251 0.056550 0.607843
0.083009 0.055085 0.605585
0.189670 0.062379 0.525322
0.372198 0.082612 0.456794
0.568994 0.106172 0.444678
0.678920 0.150362 0.490120
0.085847 0.192355 0.607324
0.079286 0.171023 0.633906
0.068513 0.143496 0.631708
0.062226 0.110170 0.650965
0.096803 0.102876 0.716884
0.212894 0.109255 0.684855
0.423621 0.133974 0.605905
0.624689 0.167849 0.574121
0.777707 0.246845 0.637110
0.129854 0.339803 0.647669
0.130282 0.331807 0.680232
0.120424 0.301289 0.686122
0.109560 0.250904 0.697017
0.123796 0.199786 0.741146
0.253635 0.222705 0.796475
0.495216 0.265003 0.769772
0.736782 0.316091 0.754879
0.859251 0.457877 0.781796
0.180087 0.517922 0.694575
0.189364 0.531624 0.730465
0.182803 0.508278 0.740078
0.179477 0.477317 0.754086
0.220127 0.455070 0.791409
0.326833 0.440940 0.823850
0.588937 0.532479 0.846586
0.817044 0.571176 0.853605
0.897246 0.680797 0.856107
0.228000 0.676448 0.749233
0.244907 0.707637 0.791806
0.248051 0.710231 0.804776
0.258457 0.718288 0.820401
0.329641 0.742092 0.850401
0.496941 0.769451 0.875883
0.664958 0.764065 0.871061
0.871580 0.817227 0.889830
0.922667 0.854795 0.895171
0.264500 0.788205 0.789822
0.286687 0.833860 0.842954
0.300603 0.859953 0.858946
0.321202 0.878019 0.868711
0.402152 0.892668 0.881865
0.579263 0.905547 0.892821
0.760067 0.909178 0.897154
0.892363 0.915892 0.901793
0.946044 0.924224 0.913146
0.299321 0.862760 0.829862
0.306401 0.877012 0.849790
0.318029 0.889677 0.858183
0.364202 0.904662 0.868254
0.516274 0.924834 0.881529
0.692027 0.939513 0.893034
0.826413 0.943481 0.902556
0.912963 0.951202 0.918944
0.951598 0.956268 0.922789
0.031159 0.033936 0.548272
0.032013 0.034363 0.540856
0.033417 0.033997 0.530358
0.042145 0.033753 0.513359
0.067720 0.035035 0.485328
0.136538 0.041291 0.435431
0.240482 0.052918 0.393622
0.376226 0.070039 0.367529
0.522850 0.088777 0.365820
0.038880 0.061189 0.579370
0.039277 0.058289 0.583062
0.039612 0.056092 0.600000
0.049165 0.053681 0.624292
0.083040 0.052949 0.612238
0.158999 0.058350 0.542870
0.280797 0.070466 0.477974
0.430457 0.089021 0.445777
0.572869 0.107729 0.445319
0.058656 0.115633 0.613916
0.055848 0.108827 0.622522
0.055940 0.101015 0.648096
0.065888 0.091798 0.702022
0.103731 0.089662 0.737545
0.190433 0.095705 0.685466
0.334752 0.111269 0.608454
0.486030 0.130434 0.572045
0.621088 0.154513 0.558129
0.089967 0.203738 0.651057
0.089509 0.198764 0.659937
0.084962 0.181827 0.674739
0.090181 0.159823 0.735622
0.130312 0.158267 0.803983
0.227054 0.172366 0.819181
0.392798 0.199832 0.775448
0.570245 0.227405 0.737209
0.721828 0.267597 0.733883
0.130526 0.331350 0.682521
0.128695 0.323598 0.697444
0.124727 0.304128 0.712459
0.130587 0.278889 0.750484
0.187869 0.299886 0.819028
0.305272 0.344533 0.858763
0.490730 0.396139 0.851713
0.671199 0.429984 0.838804
0.824887 0.450950 0.843473
0.175814 0.486580 0.717067
0.174502 0.480018 0.734218
0.175479 0.472221 0.754238
0.199588 0.477104 0.792935
0.278294 0.512764 0.844327
0.396506 0.555398 0.878843
0.588510 0.631418 0.885588
0.763638 0.665537 0.887480
0.885161 0.660929 0.887297
0.219333 0.627710 0.764645
0.222049 0.628779 0.777859
0.229984 0.643275 0.795834
0.273564 0.686458 0.836667
0.399237 0.752163 0.877684
0.536690 0.768124 0.894438
0.685771 0.798520 0.901427
0.840116 0.844816 0.910277
0.917205 0.846220 0.915221
0.259098 0.744717 0.812345
0.267735 0.761837 0.831815
0.280339 0.787625 0.845792
0.328283 0.834745 0.868589
0.459312 0.866972 0.892821
0.618967 0.882841 0.909728
0.764523 0.896483 0.915801
0.881743 0.914672 0.931121
0.939818 0.923095 0.938750
0.287419 0.835142 0.848814
0.300420 0.861814 0.859953
0.321141 0.883818 0.872190
0.377447 0.905943 0.888853
0.515297 0.924956 0.904784
0.667811 0.938598 0.917174
0.809201 0.942840 0.925200
0.899626 0.951110 0.937987
0.966064 0.966064 0.957580
