assets/luts/impulz-kodak-gold-gen-6-200-fpe-rec709-06167b89.cube
# (C) 2014 VisionColor & Patchflyer [www.vision-color.com]
# Generator: VC Patchmatch v.2.1.1 [64/53]
# All work and no play makes Jack a dull boy.
# LUT generated from: Kodak Gold Gen.6 200_FPE
LUT_3D_SIZE 9
0.036072 0.040314 0.040894
0.093843 0.049439 0.041627
0.193271 0.059419 0.042786
0.258091 0.062928 0.045197
0.313115 0.067292 0.047761
0.365026 0.069398 0.050690
0.416602 0.076448 0.057099
0.466468 0.079713 0.062379
0.511955 0.080354 0.066163
0.044465 0.066407 0.042451
0.120699 0.089937 0.043763
0.236728 0.112337 0.042573
0.351873 0.138186 0.047913
0.437079 0.161013 0.052155
0.493812 0.174929 0.056001
0.540276 0.189090 0.062867
0.578515 0.192081 0.067597
0.614404 0.185214 0.072267
0.076509 0.136690 0.044862
0.191440 0.176364 0.043336
0.334783 0.218601 0.044434
0.439261 0.248692 0.052155
0.533715 0.280980 0.058381
0.598138 0.306127 0.065675
0.641901 0.318822 0.072602
0.674128 0.317754 0.077333
0.706477 0.307622 0.081788
0.146822 0.239658 0.047181
0.284855 0.286870 0.048798
0.440208 0.339757 0.056733
0.541176 0.367376 0.064118
0.619287 0.391943 0.072297
0.678340 0.412329 0.080720
0.718959 0.424201 0.088777
0.747127 0.421973 0.092897
0.767727 0.401892 0.094484
0.235843 0.342779 0.047761
0.378820 0.387915 0.053956
0.516350 0.431952 0.067018
0.622766 0.464973 0.081483
0.692653 0.479561 0.089570
0.742855 0.493843 0.097200
0.778256 0.500908 0.104097
0.802029 0.496559 0.108309
0.820127 0.479500 0.109834
0.323980 0.420050 0.056489
0.448310 0.456855 0.067018
0.561425 0.489693 0.079805
0.663264 0.520317 0.094728
0.742733 0.541253 0.105806
0.789700 0.549432 0.113191
0.820829 0.553246 0.118746
0.838529 0.549187 0.121675
0.854826 0.532616 0.120424
0.384253 0.473213 0.063813
0.498329 0.505089 0.075776
0.599451 0.532708 0.089174
0.691066 0.559167 0.103456
0.769924 0.582605 0.116915
0.820829 0.594202 0.125765
0.856352 0.597253 0.130068
0.871733 0.591669 0.132326
0.881376 0.578363 0.133791
0.417975 0.507378 0.068666
0.529900 0.537774 0.082795
0.625360 0.564263 0.096986
0.712886 0.589654 0.112123
0.783078 0.610529 0.125002
0.840116 0.628168 0.136172
0.876341 0.632715 0.141054
0.897124 0.632227 0.143740
0.908080 0.624537 0.145541
0.425727 0.533684 0.073304
0.539696 0.563195 0.087312
0.645106 0.592401 0.104463
0.731716 0.619410 0.122530
0.795987 0.637415 0.133394
0.848234 0.655024 0.143954
0.889677 0.669398 0.152102
0.915099 0.674464 0.157351
0.928801 0.673793 0.159060
0.031525 0.040589 0.065919
0.063081 0.045319 0.084443
0.146120 0.053498 0.091646
0.226505 0.058595 0.094972
0.291508 0.059052 0.092073
0.346929 0.058625 0.093538
0.394751 0.062470 0.096559
0.438727 0.064363 0.102510
0.483619 0.063416 0.103792
0.033814 0.075593 0.082551
0.097353 0.099214 0.101472
0.202060 0.121767 0.110323
0.297063 0.137026 0.113741
0.371160 0.148257 0.119387
0.434577 0.163272 0.125002
0.487312 0.173556 0.134554
0.535576 0.179599 0.138857
0.583429 0.172641 0.139376
0.056123 0.156649 0.093812
0.164553 0.200168 0.115602
0.300816 0.244999 0.124269
0.407050 0.266423 0.125368
0.490364 0.290288 0.133700
0.555047 0.308171 0.135439
0.595911 0.318059 0.150942
0.638422 0.320745 0.153872
0.673609 0.300938 0.157809
0.113954 0.257328 0.106142
0.255894 0.309209 0.119753
0.384283 0.353033 0.129030
0.503227 0.389044 0.137881
0.575921 0.403296 0.148287
0.632044 0.419074 0.153841
0.673945 0.427588 0.165347
0.703334 0.421515 0.167910
0.741115 0.407355 0.170504
0.198978 0.354803 0.105898
0.344854 0.401526 0.126101
0.456367 0.437537 0.140963
0.565454 0.473396 0.154452
0.653071 0.496315 0.161532
0.692653 0.499306 0.170535
0.733516 0.507103 0.176394
0.756466 0.499763 0.181003
0.778866 0.476051 0.178775
0.268193 0.422400 0.110475
0.408881 0.463539 0.130861
0.511315 0.494942 0.147585
0.606165 0.526177 0.167666
0.691585 0.551354 0.178012
0.747707 0.560388 0.180575
0.776944 0.560754 0.186862
0.797330 0.553796 0.190127
0.817441 0.536217 0.190036
0.322667 0.471992 0.102541
0.447608 0.505180 0.127565
0.547814 0.536522 0.147768
0.639246 0.566033 0.166232
0.714473 0.592432 0.186526
0.772213 0.604669 0.191867
0.818601 0.609522 0.192020
0.835935 0.603113 0.197665
0.854215 0.588647 0.193668
0.342321 0.503044 0.109316
0.458473 0.532891 0.122377
0.569574 0.565759 0.144015
0.655512 0.594385 0.167758
0.727413 0.619226 0.186892
0.786831 0.640894 0.203861
0.838010 0.650904 0.207553
0.869963 0.651606 0.206729
0.888792 0.642542 0.203555
0.330846 0.519066 0.077790
0.455238 0.555627 0.096529
0.570031 0.588251 0.116915
0.665217 0.618097 0.141634
0.733883 0.643427 0.167391
0.792264 0.665980 0.191440
0.849058 0.688960 0.212802
0.889464 0.700282 0.220829
0.918517 0.704067 0.219913
0.031037 0.041413 0.108278
0.048707 0.042298 0.130556
0.117250 0.048829 0.148653
0.204898 0.054292 0.161654
0.281346 0.056153 0.163638
0.341283 0.056672 0.162661
0.391028 0.060182 0.166598
0.436347 0.062593 0.170596
0.481147 0.063996 0.167666
0.034302 0.078279 0.139681
0.071260 0.098421 0.158846
0.162173 0.110475 0.181674
0.260929 0.123934 0.188754
0.340887 0.135866 0.191867
0.405280 0.139315 0.191714
0.458351 0.149447 0.195956
0.507225 0.148440 0.197452
0.558190 0.145266 0.189395
0.041413 0.164858 0.183932
0.104829 0.203067 0.207462
0.240482 0.240543 0.231693
0.344060 0.263310 0.240574
0.424140 0.280644 0.246799
0.490394 0.295964 0.254215
0.548150 0.309880 0.260258
0.601190 0.309178 0.257572
0.660456 0.298528 0.248081
0.064179 0.263859 0.206607
0.176394 0.311345 0.226413
0.320012 0.349706 0.252811
0.438178 0.389593 0.274235
0.512383 0.405554 0.281193
0.575341 0.420844 0.283482
0.625299 0.426917 0.288273
0.674372 0.426032 0.284550
0.724788 0.411505 0.274540
0.118624 0.354223 0.220249
0.257237 0.400092 0.241672
0.391028 0.434699 0.269322
0.490822 0.467353 0.292027
0.580774 0.494270 0.305150
0.632868 0.501457 0.309270
0.681270 0.511070 0.311009
0.723354 0.505241 0.305699
0.766293 0.489784 0.291051
0.180606 0.422156 0.225925
0.321386 0.461646 0.248905
0.450111 0.495735 0.277378
0.535271 0.522454 0.301335
0.618219 0.549157 0.317876
0.684047 0.563775 0.321538
0.719478 0.563500 0.326757
0.765713 0.565698 0.317571
0.793698 0.543786 0.294774
0.234928 0.471901 0.218082
0.365148 0.505119 0.246525
0.482673 0.536400 0.281315
0.567071 0.563592 0.306249
0.646204 0.591882 0.328771
0.709285 0.607935 0.333776
0.761624 0.615534 0.334386
0.799313 0.616144 0.330236
0.831144 0.599786 0.304082
0.275975 0.506523 0.197147
0.393652 0.537896 0.221653
0.502647 0.568750 0.249393
0.589410 0.597955 0.285252
0.664973 0.625299 0.309636
0.728542 0.649470 0.329900
0.787167 0.664698 0.338018
0.839261 0.671504 0.337835
0.871977 0.662745 0.316472
0.284611 0.531334 0.171115
0.401221 0.563409 0.180270
0.502281 0.595605 0.203006
0.600580 0.626154 0.233555
0.675807 0.653193 0.271336
0.737362 0.678340 0.300237
0.801266 0.703151 0.321904
0.864683 0.724605 0.337987
0.905241 0.732815 0.337011
0.031922 0.043641 0.145113
0.042573 0.041657 0.159274
0.096162 0.047486 0.183780
0.173678 0.051331 0.189944
0.258762 0.053742 0.203830
0.327337 0.054871 0.211856
0.382300 0.058442 0.221134
0.430610 0.061097 0.227146
0.481300 0.064118 0.226383
0.036561 0.089418 0.194125
0.060975 0.100038 0.201907
0.121981 0.103090 0.217502
0.227481 0.118685 0.239933
0.317266 0.132204 0.251621
0.387518 0.138552 0.256077
0.445930 0.147066 0.262608
0.497505 0.146395 0.262974
0.556481 0.149264 0.256870
0.042847 0.166690 0.244663
0.084993 0.198001 0.262028
0.199619 0.235264 0.284459
0.307744 0.252598 0.305272
0.392065 0.267399 0.309087
0.462470 0.281346 0.313695
0.520531 0.288273 0.313939
0.575250 0.285405 0.305150
0.642359 0.276219 0.296086
0.050019 0.262211 0.299840
0.115908 0.306127 0.317205
0.253239 0.346777 0.335668
0.391180 0.384833 0.362676
0.464576 0.400122 0.366583
0.524895 0.411109 0.369329
0.582635 0.419409 0.370336
0.642054 0.415991 0.361212
0.712764 0.401282 0.342229
0.071015 0.347967 0.321569
0.179782 0.395178 0.337804
0.319860 0.430030 0.353399
0.447242 0.462531 0.384100
0.528954 0.488655 0.401953
0.587091 0.499031 0.403204
0.639002 0.504509 0.400580
0.693690 0.502007 0.389105
0.757351 0.489021 0.367620
0.112001 0.413764 0.328130
0.230350 0.455085 0.345373
0.373968 0.491402 0.375097
0.489082 0.520165 0.401648
0.565789 0.544274 0.418891
0.634791 0.563714 0.430426
0.683467 0.568872 0.428473
0.734462 0.567193 0.414282
0.788907 0.552392 0.383642
0.155123 0.466987 0.324926
0.280705 0.501183 0.345708
0.416022 0.534234 0.371283
0.519921 0.562493 0.400549
0.592035 0.587091 0.424933
0.662318 0.609827 0.438972
0.723812 0.622614 0.442573
0.770993 0.621973 0.430640
0.822538 0.611200 0.396643
0.195285 0.507897 0.311131
0.310002 0.536858 0.329259
0.434241 0.569421 0.358465
0.540856 0.602716 0.383215
0.611597 0.626459 0.413581
0.683223 0.652888 0.434211
0.752651 0.673884 0.445075
0.814725 0.686305 0.448249
0.864378 0.679500 0.414832
0.220523 0.537835 0.270085
0.330358 0.567926 0.283391
0.442267 0.602625 0.301213
0.538445 0.633692 0.317021
0.614435 0.659602 0.358282
0.698360 0.691585 0.398383
0.769833 0.718196 0.422400
0.845731 0.744442 0.441108
0.902159 0.758846 0.443702
0.032898 0.044800 0.180789
0.040223 0.040528 0.181491
0.076692 0.045777 0.203647
0.146304 0.050477 0.215030
0.225925 0.052369 0.225742
0.302678 0.053803 0.241978
0.367987 0.058381 0.260014
0.423896 0.061189 0.270970
0.478798 0.063966 0.270695
0.038025 0.094484 0.240726
0.053040 0.101686 0.237797
0.100649 0.101656 0.243381
0.192447 0.117494 0.267582
0.288273 0.127871 0.285740
0.364569 0.135653 0.298802
0.430793 0.147219 0.310155
0.488960 0.145571 0.313451
0.549798 0.146609 0.302068
0.042420 0.171145 0.296117
0.076143 0.204868 0.308019
0.161257 0.229191 0.321447
0.254276 0.239353 0.333501
0.361242 0.259983 0.354345
0.434882 0.274784 0.361089
0.501060 0.285374 0.367407
0.558343 0.281102 0.357641
0.634913 0.275639 0.345129
0.048951 0.255894 0.347539
0.098878 0.297795 0.360082
0.214054 0.338506 0.375708
0.340154 0.372808 0.397467
0.435035 0.389899 0.411566
0.496620 0.398535 0.412757
0.558526 0.405890 0.410925
0.619959 0.398627 0.396643
0.701656 0.386816 0.378943
0.058381 0.342077 0.398535
0.127413 0.388190 0.407904
0.257572 0.425757 0.417060
0.392004 0.456214 0.434607
0.492531 0.485206 0.456428
0.548272 0.491005 0.455726
0.604608 0.495460 0.452674
0.672450 0.496193 0.442664
0.752712 0.483772 0.419165
0.073457 0.404639 0.405951
0.159762 0.448218 0.415808
0.312108 0.487343 0.433173
0.435462 0.514214 0.452369
0.529686 0.539361 0.472877
0.598932 0.560601 0.487221
0.652461 0.563806 0.483528
0.717403 0.563561 0.470008
0.790555 0.557733 0.443580
0.092409 0.452888 0.404395
0.188083 0.492836 0.418219
0.345403 0.529961 0.441627
0.463966 0.560174 0.463661
0.559075 0.585046 0.484352
0.625879 0.605646 0.498878
0.696986 0.625422 0.510796
0.757137 0.628870 0.498329
0.823362 0.624109 0.465461
0.129091 0.495064 0.389197
0.218112 0.529778 0.404395
0.365423 0.566674 0.428992
0.481880 0.600977 0.452399
0.581567 0.633722 0.477821
0.650080 0.655665 0.499397
0.728054 0.682216 0.516808
0.804166 0.700832 0.524468
0.862913 0.699153 0.497200
0.149752 0.528588 0.359716
0.235508 0.562188 0.370642
0.367102 0.600336 0.386969
0.469947 0.633204 0.407019
0.573236 0.668910 0.420783
0.661280 0.700557 0.469673
0.751949 0.734707 0.501488
0.840818 0.767788 0.526482
0.906676 0.784024 0.533135
0.035248 0.048646 0.216007
0.037873 0.042664 0.206760
0.064027 0.047181 0.222049
0.121096 0.050904 0.235050
0.199466 0.052979 0.247837
0.280461 0.052857 0.272068
0.348791 0.057465 0.290074
0.411719 0.060883 0.303563
0.470802 0.062287 0.306554
0.039399 0.101534 0.279942
0.048798 0.106203 0.268620
0.076875 0.097261 0.262791
0.158114 0.111849 0.283848
0.255299 0.127199 0.307988
0.342321 0.134859 0.329259
0.410895 0.146914 0.343023
0.476967 0.147250 0.348974
0.540185 0.142733 0.340246
0.043671 0.180606 0.340307
0.061799 0.199344 0.338506
0.134188 0.226535 0.347082
0.206561 0.226596 0.352361
0.316823 0.250523 0.374029
0.405493 0.267216 0.391363
0.473762 0.279088 0.399512
0.541558 0.279393 0.395727
0.617395 0.264988 0.375921
0.048341 0.258640 0.388586
0.082826 0.294102 0.394629
0.180224 0.337316 0.409918
0.296803 0.363439 0.423896
0.381399 0.373022 0.432929
0.469093 0.393378 0.448707
0.533135 0.401068 0.450568
0.600061 0.394598 0.439033
0.681666 0.374853 0.411719
0.058350 0.335210 0.433082
0.108309 0.373175 0.436744
0.224414 0.415534 0.448035
0.347921 0.446204 0.461982
0.442130 0.468940 0.479683
0.521294 0.484688 0.492134
0.578546 0.486885 0.487312
0.649561 0.484291 0.473548
0.732540 0.463691 0.442573
0.063905 0.397345 0.467506
0.124147 0.440253 0.471473
0.254307 0.484047 0.483101
0.387213 0.509606 0.492103
0.487221 0.534722 0.510155
0.566583 0.557305 0.529625
0.624140 0.559960 0.524895
0.696376 0.559442 0.511711
0.779202 0.549249 0.485298
0.072877 0.442420 0.464698
0.142885 0.482795 0.472114
0.277165 0.526146 0.487404
0.414801 0.556390 0.503441
0.516411 0.581170 0.522210
0.596094 0.605280 0.542626
0.670466 0.626551 0.558038
0.738613 0.631220 0.545647
0.816495 0.629664 0.519005
0.085908 0.478859 0.453040
0.147433 0.509911 0.459419
0.274464 0.558892 0.482673
0.418845 0.597955 0.504692
0.526284 0.631098 0.526329
0.619867 0.658961 0.549249
0.702571 0.684871 0.569970
0.787228 0.708614 0.583917
0.858549 0.714687 0.561761
0.097353 0.510307 0.427314
0.155215 0.544640 0.435676
0.267506 0.590448 0.456916
0.395010 0.633173 0.481392
0.503304 0.671016 0.503807
0.623926 0.712734 0.525750
0.730678 0.748989 0.567651
0.832120 0.786007 0.595361
0.906432 0.807279 0.610590
0.037110 0.053895 0.252872
0.037812 0.043458 0.230076
0.055238 0.046754 0.238468
0.100435 0.051759 0.254093
0.176364 0.054871 0.270176
0.258793 0.056001 0.296910
0.334447 0.056855 0.320897
0.398535 0.060365 0.334630
0.458808 0.061402 0.337591
0.040497 0.107118 0.316869
0.043458 0.108827 0.297887
0.064210 0.099245 0.286351
0.128328 0.115785 0.304295
0.220981 0.128023 0.325567
0.311162 0.139010 0.350744
0.391608 0.146181 0.373419
0.458381 0.147158 0.380835
0.522332 0.139406 0.373816
0.043824 0.187716 0.377356
0.054871 0.203372 0.367193
0.112245 0.225223 0.371557
0.168887 0.222232 0.369726
0.273701 0.243595 0.389349
0.366857 0.263218 0.410681
0.447608 0.275212 0.429023
0.516899 0.275822 0.429847
0.594873 0.256016 0.407019
0.048280 0.263157 0.425635
0.067353 0.289433 0.421515
0.154604 0.326604 0.430579
0.246967 0.351080 0.441993
0.325185 0.354437 0.447425
0.422919 0.376867 0.465888
0.503349 0.394598 0.481300
0.573175 0.389349 0.474861
0.654292 0.361334 0.443885
0.053925 0.333104 0.467231
0.089540 0.365423 0.464912
0.193851 0.409583 0.475685
0.298116 0.438544 0.488777
0.391135 0.455085 0.499092
0.464515 0.463752 0.507836
0.548974 0.482551 0.523308
0.620996 0.477729 0.514977
0.704829 0.452216 0.478401
0.058167 0.385779 0.495491
0.101991 0.423926 0.494423
0.216129 0.465034 0.503990
0.338018 0.499886 0.517845
0.434638 0.519524 0.530999
0.513695 0.539605 0.548882
0.592157 0.553735 0.561517
0.665492 0.549859 0.548821
0.750271 0.531151 0.514672
0.061219 0.429511 0.516533
0.106111 0.469490 0.515465
0.228031 0.517601 0.530083
0.352087 0.550042 0.544457
0.468376 0.576226 0.560113
0.553124 0.601007 0.581415
0.640925 0.628443 0.605158
0.718196 0.628962 0.592035
0.803494 0.623529 0.564782
0.066346 0.461158 0.501488
0.100069 0.495064 0.503471
0.204166 0.546654 0.525994
0.334371 0.588708 0.548486
0.463920 0.626490 0.572686
0.566705 0.656672 0.596460
0.672602 0.690639 0.621912
0.768887 0.717189 0.640681
0.854215 0.723751 0.626062
0.068330 0.485237 0.482612
0.093843 0.517632 0.484932
0.178531 0.571191 0.505486
0.287221 0.620935 0.534752
0.420096 0.668940 0.565118
0.559686 0.719020 0.603387
0.699580 0.767330 0.636408
0.815549 0.803098 0.668208
0.910948 0.833371 0.695827
0.039246 0.058167 0.283482
0.037140 0.046448 0.254093
0.046815 0.049226 0.256535
0.087098 0.054261 0.272343
0.149966 0.057374 0.292363
0.231937 0.059144 0.319402
0.311955 0.060090 0.345647
0.383703 0.059663 0.364416
0.446235 0.060731 0.368994
0.042329 0.117800 0.349493
0.043275 0.113924 0.327367
0.050690 0.098024 0.307286
0.099611 0.111543 0.320195
0.178805 0.124056 0.343542
0.271489 0.134401 0.370886
0.358862 0.145449 0.395392
0.437842 0.146914 0.413275
0.502770 0.138705 0.408820
0.045197 0.194583 0.409125
0.050233 0.199527 0.393225
0.072633 0.211917 0.388312
0.125704 0.204410 0.383948
0.210101 0.227878 0.402625
0.304173 0.244724 0.425666
0.397711 0.260533 0.448096
0.485206 0.270970 0.465797
0.563165 0.248569 0.451118
0.048280 0.264652 0.455268
0.057160 0.279057 0.446113
0.093385 0.306310 0.449409
0.171756 0.325170 0.457862
0.239124 0.327886 0.459541
0.343572 0.348730 0.477974
0.443610 0.369024 0.499519
0.535210 0.381445 0.514885
0.618311 0.352575 0.494362
0.053681 0.328588 0.493050
0.076234 0.352331 0.489113
0.121675 0.379492 0.491676
0.211109 0.408331 0.505821
0.300282 0.429328 0.519493
0.377722 0.433051 0.525231
0.485267 0.452461 0.543236
0.579248 0.469581 0.557702
0.667079 0.447608 0.536431
0.056947 0.377478 0.521782
0.082948 0.403632 0.516686
0.146670 0.440467 0.525322
0.253147 0.477821 0.542718
0.348486 0.501518 0.559686
0.427832 0.514549 0.572900
0.522301 0.524590 0.582147
0.619318 0.540734 0.597650
0.710994 0.528893 0.575341
0.058350 0.412482 0.536889
0.087617 0.450141 0.539361
0.155825 0.486275 0.548455
0.269810 0.527428 0.569299
0.381720 0.561639 0.592401
0.477699 0.584619 0.613031
0.577020 0.606043 0.631891
0.680415 0.623529 0.648524
0.771084 0.615534 0.620386
0.059449 0.441016 0.548699
0.086030 0.474617 0.548211
0.147585 0.526787 0.568048
0.263905 0.570916 0.594171
0.380087 0.612696 0.622797
0.488991 0.646845 0.648249
0.621912 0.685420 0.677455
0.752682 0.726558 0.709682
0.859342 0.732174 0.700130
0.058778 0.460548 0.530114
0.070314 0.490517 0.534569
0.109255 0.538567 0.555077
0.188327 0.593866 0.589075
0.288350 0.654658 0.625483
0.445563 0.711391 0.667506
0.640223 0.773037 0.713924
0.786526 0.818875 0.747799
0.911040 0.856504 0.782681
0.040894 0.065675 0.313359
0.038972 0.046296 0.277623
0.041688 0.046754 0.271489
0.060975 0.051942 0.285832
0.111360 0.055512 0.308965
0.181827 0.059815 0.335790
0.267277 0.062654 0.365332
0.342840 0.062379 0.384802
0.422553 0.060243 0.400061
0.043671 0.117769 0.377142
0.042695 0.111788 0.355718
0.044556 0.091493 0.329961
0.061646 0.102937 0.336278
0.118196 0.117006 0.359350
0.199405 0.130831 0.387213
0.297856 0.143465 0.416602
0.384985 0.143709 0.436500
0.473487 0.139864 0.448585
0.046113 0.195773 0.437629
0.045777 0.186984 0.417243
0.053864 0.190585 0.410895
0.065064 0.177005 0.398077
0.117739 0.197452 0.412543
0.200290 0.218112 0.439338
0.306554 0.236881 0.467964
0.420539 0.250492 0.494087
0.521691 0.250797 0.506493
0.048219 0.258366 0.480140
0.049134 0.257939 0.467842
0.060182 0.264683 0.466285
0.075196 0.273411 0.469917
0.105135 0.273655 0.468116
0.206363 0.302831 0.488045
0.318944 0.324773 0.513634
0.447852 0.340307 0.540642
0.564233 0.348516 0.557305
0.050813 0.314611 0.515801
0.054749 0.323705 0.510124
0.077485 0.337774 0.511406
0.098116 0.351720 0.520409
0.120424 0.359350 0.529381
0.200198 0.368017 0.534142
0.329900 0.396094 0.556725
0.475868 0.418616 0.582391
0.607202 0.436927 0.605798
0.052827 0.353643 0.540612
0.058717 0.371801 0.538170
0.088228 0.398627 0.548150
0.124422 0.422400 0.561242
0.161959 0.443610 0.579400
0.242008 0.453956 0.593866
0.356603 0.467292 0.602960
0.516747 0.496681 0.628962
0.654231 0.517174 0.653437
0.054871 0.388495 0.560998
0.063722 0.417517 0.562158
0.101625 0.449104 0.575158
0.145907 0.482307 0.594415
0.214054 0.514916 0.619165
0.317906 0.547204 0.648585
0.450141 0.573510 0.673335
0.578149 0.588251 0.688289
0.721187 0.609766 0.713588
0.055879 0.413642 0.571618
0.063844 0.446937 0.576043
0.095003 0.489937 0.598413
0.154147 0.532433 0.622156
0.241337 0.579644 0.654108
0.364782 0.623438 0.689021
0.532647 0.672724 0.730282
0.697139 0.717617 0.767971
0.833219 0.736660 0.791501
0.056580 0.434699 0.576959
0.061677 0.465492 0.584222
0.086824 0.510521 0.611292
0.116335 0.559716 0.641596
0.178058 0.615534 0.676295
0.319646 0.682094 0.717067
0.547265 0.762142 0.770321
0.756436 0.824918 0.817838
0.916259 0.880339 0.872343
