assets/luts/impulz-kodak-ultramax-400-fpe-log-0cf8f1a9.cube
# (C) 2014 VisionColor & Patchflyer [www.vision-color.com]
# Generator: VC Patchmatch v.2.1.1 [64/53]
# All work and no play makes Jack a dull boy.
# LUT generated from: Kodak Ultramax 400_FPE
LUT_3D_SIZE 9
0.032502 0.036225 0.035950
0.047395 0.038331 0.037079
0.084504 0.042390 0.036408
0.152895 0.048737 0.039246
0.236179 0.048310 0.040162
0.320806 0.045319 0.042420
0.394263 0.045228 0.045411
0.453712 0.047456 0.048798
0.504784 0.051575 0.057282
0.037354 0.050904 0.038911
0.073793 0.060487 0.038209
0.148653 0.073854 0.038117
0.257969 0.092775 0.040986
0.352514 0.091554 0.043549
0.430213 0.088655 0.047486
0.484077 0.074708 0.050416
0.521752 0.064240 0.052155
0.565637 0.069368 0.058473
0.058534 0.091859 0.040314
0.126070 0.121798 0.039826
0.232425 0.145998 0.040040
0.359854 0.174380 0.043977
0.470726 0.189670 0.048890
0.551080 0.198550 0.053681
0.601251 0.176455 0.056153
0.642786 0.160128 0.058900
0.680934 0.172183 0.064332
0.158236 0.199924 0.039216
0.242908 0.239170 0.040986
0.356435 0.274266 0.045899
0.466575 0.290745 0.050996
0.578134 0.312596 0.059022
0.667262 0.335851 0.068940
0.715572 0.320928 0.070741
0.749172 0.299931 0.072328
0.767514 0.294621 0.074403
0.318288 0.332860 0.045563
0.373068 0.366033 0.049897
0.466697 0.399329 0.057557
0.581491 0.426429 0.069825
0.674998 0.444465 0.080934
0.751492 0.451728 0.089326
0.804074 0.447944 0.094484
0.824399 0.421729 0.093538
0.827543 0.397406 0.090486
0.442847 0.432441 0.057496
0.475624 0.460121 0.063416
0.555444 0.489113 0.073823
0.657069 0.514092 0.089021
0.748379 0.531151 0.102937
0.818906 0.541039 0.112703
0.859251 0.534264 0.116152
0.873411 0.514763 0.114809
0.871946 0.488960 0.110048
0.474525 0.492470 0.067445
0.521904 0.515648 0.074464
0.602472 0.541375 0.085756
0.704402 0.566857 0.102205
0.795102 0.585626 0.118624
0.855161 0.591363 0.127840
0.890776 0.592432 0.132692
0.902037 0.581109 0.132174
0.901732 0.562463 0.128542
0.439429 0.528283 0.070436
0.515038 0.551202 0.079530
0.616175 0.578668 0.093263
0.731716 0.607385 0.111971
0.823911 0.626032 0.129244
0.880522 0.633722 0.140230
0.908324 0.630549 0.143862
0.921874 0.632807 0.146700
0.921263 0.623285 0.144839
0.362860 0.535851 0.067597
0.487953 0.569970 0.080598
0.616815 0.604028 0.097932
0.736568 0.633844 0.117006
0.824216 0.652461 0.133059
0.884001 0.661921 0.145083
0.908965 0.663386 0.150729
0.923003 0.657954 0.152438
0.930541 0.661463 0.154635
0.030030 0.036561 0.054597
0.042603 0.039002 0.057618
0.092195 0.044099 0.063447
0.171237 0.049653 0.073152
0.255070 0.049104 0.075257
0.329961 0.046937 0.076905
0.400275 0.046632 0.076478
0.458595 0.048005 0.077455
0.509361 0.052338 0.090455
0.031342 0.057862 0.064454
0.068940 0.075227 0.077546
0.148074 0.079164 0.070069
0.237034 0.073060 0.061982
0.322087 0.065919 0.058503
0.394812 0.052888 0.052216
0.455787 0.050050 0.053162
0.501884 0.051423 0.057099
0.579828 0.089601 0.100649
0.049226 0.116365 0.070741
0.125551 0.158968 0.070283
0.275242 0.199252 0.075410
0.401785 0.192966 0.062684
0.491600 0.186984 0.061097
0.544793 0.151263 0.057984
0.575677 0.115023 0.058503
0.601007 0.094545 0.059693
0.673335 0.182712 0.105318
0.115206 0.216678 0.078614
0.255665 0.292210 0.055055
0.392294 0.341680 0.063600
0.556802 0.375967 0.072450
0.650156 0.363500 0.073823
0.700648 0.330495 0.072084
0.725185 0.283680 0.071473
0.738552 0.256382 0.070985
0.767117 0.311772 0.108003
0.230625 0.329747 0.069490
0.400732 0.413214 0.056306
0.497780 0.458686 0.068879
0.645579 0.493263 0.088991
0.762585 0.513146 0.102815
0.816312 0.491691 0.103700
0.834379 0.445365 0.098970
0.826780 0.399802 0.091493
0.828824 0.413001 0.109102
0.311925 0.417182 0.062135
0.457588 0.483253 0.065187
0.545556 0.520195 0.077485
0.685206 0.556329 0.098940
0.806088 0.579492 0.118990
0.878721 0.586267 0.129854
0.892058 0.556786 0.125856
0.884703 0.517174 0.117128
0.876921 0.505669 0.121492
0.315618 0.461494 0.058412
0.440528 0.527062 0.070161
0.552361 0.561090 0.084291
0.707973 0.600702 0.108034
0.831388 0.627253 0.130861
0.897612 0.634577 0.143160
0.922026 0.632105 0.146731
0.916503 0.606653 0.140444
0.908080 0.588464 0.137270
0.285100 0.491249 0.059052
0.372747 0.537652 0.068360
0.533532 0.581415 0.086213
0.696773 0.624079 0.110506
0.820584 0.651514 0.132845
0.891417 0.663447 0.147127
0.918517 0.661067 0.152041
0.931121 0.663294 0.155123
0.926726 0.646815 0.151400
0.250553 0.507012 0.060822
0.373297 0.552209 0.071412
0.553826 0.603174 0.093599
0.703914 0.646052 0.120058
0.798459 0.668574 0.136782
0.867582 0.680385 0.147311
0.901915 0.681422 0.152499
0.922026 0.676875 0.155856
0.934051 0.681514 0.159060
0.029877 0.036347 0.093446
0.036988 0.038148 0.092775
0.088685 0.043641 0.102510
0.170413 0.047913 0.112245
0.259983 0.046723 0.120333
0.335454 0.045472 0.129793
0.402594 0.045838 0.133974
0.455512 0.047395 0.130739
0.507042 0.052857 0.138888
0.031647 0.059632 0.111604
0.043824 0.062409 0.125856
0.133455 0.074281 0.137209
0.237949 0.071229 0.128939
0.325811 0.064820 0.126528
0.399847 0.054353 0.118624
0.460822 0.051301 0.110445
0.507012 0.052918 0.108278
0.583459 0.102083 0.157168
0.037324 0.127901 0.139956
0.072999 0.175998 0.176791
0.198306 0.190921 0.174197
0.319036 0.187625 0.160159
0.417777 0.167300 0.139803
0.489448 0.141390 0.124208
0.541802 0.104707 0.108064
0.581628 0.094942 0.105501
0.676753 0.218814 0.189578
0.064729 0.223758 0.158724
0.144625 0.294957 0.167636
0.299626 0.330480 0.165652
0.480003 0.374548 0.186679
0.591592 0.362646 0.153506
0.653071 0.332937 0.134829
0.698817 0.288106 0.118837
0.716579 0.248463 0.113710
0.768124 0.353033 0.207553
0.133333 0.326665 0.153719
0.221805 0.395575 0.134737
0.386023 0.436377 0.123384
0.571511 0.491829 0.157778
0.711986 0.516472 0.168338
0.775753 0.492363 0.140139
0.811978 0.449088 0.123934
0.816495 0.402365 0.116976
0.829648 0.459236 0.214511
0.169558 0.402380 0.143038
0.242985 0.447608 0.082338
0.407050 0.494026 0.081727
0.611170 0.555657 0.117525
0.764675 0.590539 0.151095
0.850553 0.598718 0.155276
0.882048 0.572442 0.141970
0.883177 0.528466 0.127657
0.876402 0.546441 0.215579
0.154330 0.434546 0.098268
0.225071 0.474464 0.058228
0.404730 0.532677 0.070222
0.619806 0.594690 0.100404
0.784787 0.635645 0.134859
0.875395 0.652094 0.152956
0.914183 0.647181 0.153597
0.918791 0.627741 0.147860
0.904082 0.623407 0.216556
0.135714 0.454200 0.068452
0.213718 0.495979 0.058991
0.377600 0.551476 0.071199
0.615717 0.620203 0.103639
0.777829 0.662043 0.131899
0.868223 0.678462 0.147616
0.909575 0.677363 0.153933
0.931212 0.677455 0.157870
0.922210 0.676173 0.209323
0.131960 0.472053 0.059663
0.257053 0.528527 0.069551
0.462531 0.600793 0.109071
0.648096 0.662409 0.159152
0.755856 0.693385 0.195712
0.834501 0.709224 0.210941
0.881071 0.712764 0.208347
0.911803 0.706600 0.194247
0.930938 0.706569 0.186130
0.031098 0.035279 0.143740
0.036500 0.036500 0.134035
0.077485 0.040864 0.141299
0.156741 0.044892 0.150790
0.251255 0.044862 0.162844
0.335821 0.044404 0.182712
0.396338 0.045808 0.186862
0.443854 0.047578 0.175357
0.496345 0.053132 0.178470
0.033906 0.066377 0.167666
0.034699 0.047974 0.176120
0.079408 0.055940 0.174685
0.212741 0.065461 0.195102
0.318334 0.056214 0.193484
0.394415 0.050172 0.190494
0.447974 0.049592 0.173526
0.499336 0.053956 0.167239
0.577111 0.110384 0.204746
0.038056 0.135958 0.207645
0.044038 0.142824 0.235569
0.109651 0.150149 0.226352
0.277531 0.177035 0.251194
0.386511 0.160739 0.234195
0.469123 0.140169 0.220462
0.533013 0.113130 0.196170
0.583185 0.113161 0.183169
0.670466 0.237613 0.246952
0.045380 0.227146 0.250584
0.066438 0.289830 0.312261
0.179080 0.320378 0.310338
0.378256 0.350225 0.314702
0.493950 0.347417 0.298650
0.581262 0.328084 0.275349
0.642420 0.283833 0.237125
0.690455 0.264836 0.218143
0.750393 0.363073 0.285588
0.063233 0.319005 0.270878
0.086397 0.382910 0.304814
0.219516 0.424720 0.303044
0.443030 0.468452 0.310765
0.613306 0.504265 0.339422
0.700618 0.493309 0.303181
0.758480 0.460807 0.266072
0.796811 0.436057 0.249302
0.815122 0.481697 0.332799
0.081361 0.394354 0.274296
0.085420 0.429633 0.234821
0.222049 0.480049 0.222644
0.468879 0.535485 0.246418
0.666835 0.589532 0.310140
0.775311 0.603479 0.317739
0.832883 0.583886 0.272572
0.865568 0.557244 0.254017
0.863523 0.571221 0.355993
0.072023 0.424903 0.226947
0.079042 0.442847 0.147936
0.196170 0.499062 0.118212
0.481270 0.579553 0.149310
0.693172 0.643671 0.227802
0.809430 0.670558 0.269612
0.877440 0.667536 0.259266
0.904723 0.655543 0.258869
0.900236 0.653284 0.374304
0.063905 0.434760 0.164721
0.083833 0.459022 0.094789
0.214878 0.526329 0.093675
0.485267 0.610742 0.132448
0.705348 0.679469 0.199939
0.818097 0.709377 0.246708
0.884642 0.716091 0.244221
0.922026 0.705898 0.218814
0.918883 0.711330 0.357870
0.064576 0.450477 0.124147
0.149416 0.519799 0.144396
0.351629 0.606043 0.211780
0.570459 0.681819 0.284352
0.706569 0.724300 0.346578
0.795590 0.747097 0.372702
0.861875 0.759731 0.371847
0.906401 0.761105 0.341146
0.929107 0.749508 0.302693
0.033387 0.035676 0.195987
0.035462 0.036042 0.179568
0.061463 0.039094 0.181857
0.136477 0.041230 0.197787
0.228763 0.042298 0.202792
0.322087 0.042939 0.220218
0.385107 0.045167 0.224796
0.431403 0.047578 0.209354
0.482124 0.052644 0.209049
0.036316 0.065644 0.224796
0.035431 0.041321 0.228275
0.056367 0.045045 0.216251
0.156252 0.050233 0.240909
0.287907 0.052583 0.245640
0.376349 0.046723 0.241856
0.430640 0.047883 0.220249
0.483131 0.053742 0.209689
0.558343 0.105318 0.240146
0.039612 0.136751 0.268406
0.041138 0.127810 0.296147
0.058106 0.109865 0.257084
0.183230 0.134981 0.277470
0.349645 0.153323 0.305760
0.441901 0.123110 0.284550
0.504814 0.101564 0.249027
0.563836 0.113863 0.238468
0.649165 0.241611 0.292088
0.044251 0.225711 0.317601
0.049256 0.255558 0.371130
0.095796 0.276616 0.364324
0.249149 0.295171 0.357031
0.439384 0.332006 0.385901
0.533165 0.309560 0.356069
0.603265 0.281514 0.314595
0.664576 0.278782 0.289586
0.727382 0.373083 0.342962
0.050080 0.315435 0.364874
0.057740 0.373083 0.432807
0.120912 0.411383 0.436011
0.320287 0.453834 0.438544
0.533013 0.489418 0.454261
0.616785 0.475151 0.425162
0.689387 0.446097 0.373861
0.746090 0.413931 0.329992
0.792233 0.479316 0.396017
0.055726 0.388861 0.383398
0.055879 0.425544 0.408530
0.103517 0.467720 0.404440
0.315770 0.528679 0.426719
0.553124 0.569451 0.449363
0.700450 0.597772 0.475166
0.779858 0.588251 0.438239
0.831662 0.567071 0.404852
0.854215 0.597253 0.471229
0.055787 0.427283 0.364904
0.051606 0.436774 0.338125
0.088167 0.492256 0.328573
0.308110 0.580316 0.360769
0.591882 0.642664 0.403647
0.735973 0.681758 0.464469
0.834195 0.691890 0.471458
0.886229 0.681331 0.447501
0.898863 0.690517 0.515892
0.051698 0.436164 0.313436
0.052308 0.450629 0.272755
0.093324 0.514183 0.271748
0.337682 0.622065 0.323903
0.606256 0.695003 0.365988
0.757336 0.735836 0.432792
0.852232 0.755734 0.456168
0.914733 0.756710 0.434623
0.920714 0.753964 0.528420
0.050416 0.447120 0.266590
0.082734 0.512932 0.298848
0.248875 0.613001 0.367453
0.512230 0.699184 0.440574
0.676783 0.751949 0.500343
0.782193 0.781369 0.536690
0.851621 0.797635 0.547982
0.904479 0.807401 0.539986
0.931426 0.804318 0.519051
0.035645 0.036957 0.240879
0.035554 0.036408 0.219150
0.053895 0.038361 0.225345
0.119844 0.040345 0.251102
0.207492 0.040253 0.258671
0.293767 0.041321 0.248844
0.366613 0.043641 0.255619
0.422156 0.046998 0.246830
0.472724 0.051575 0.247013
0.039185 0.069276 0.282231
0.037568 0.040009 0.264164
0.040497 0.039399 0.241306
0.100389 0.042786 0.282078
0.221576 0.043854 0.299657
0.341833 0.045167 0.293034
0.415686 0.046540 0.276921
0.472419 0.052491 0.264622
0.541100 0.101228 0.286534
0.041779 0.148104 0.336370
0.042115 0.111391 0.347143
0.041596 0.079683 0.287449
0.107469 0.099977 0.301976
0.260273 0.114534 0.337865
0.407660 0.122652 0.354253
0.484443 0.088533 0.320531
0.540948 0.100954 0.301213
0.627771 0.235538 0.345556
0.044892 0.234104 0.385657
0.045686 0.229496 0.426307
0.052735 0.221912 0.399023
0.131640 0.237507 0.375830
0.323964 0.278767 0.407721
0.486580 0.298512 0.429999
0.567437 0.265400 0.386755
0.633143 0.267323 0.359228
0.706020 0.380560 0.406165
0.048859 0.311894 0.423072
0.050965 0.337652 0.483070
0.066224 0.359213 0.483650
0.192370 0.405539 0.481697
0.404883 0.437949 0.482551
0.573327 0.471641 0.507408
0.643946 0.439750 0.453193
0.707210 0.420142 0.414496
0.765621 0.492866 0.469398
0.051575 0.377264 0.458320
0.052583 0.399908 0.517174
0.066072 0.437842 0.527001
0.192340 0.514336 0.542718
0.459770 0.565850 0.553368
0.633906 0.588190 0.561395
0.703334 0.573693 0.521691
0.774197 0.548943 0.476844
0.834348 0.598383 0.536645
0.051148 0.414008 0.459174
0.050690 0.419287 0.483558
0.057160 0.461646 0.498512
0.157031 0.566033 0.531548
0.468513 0.648005 0.563531
0.667872 0.674434 0.572595
0.791928 0.696590 0.592798
0.858671 0.689052 0.567010
0.885527 0.701473 0.609552
0.049042 0.425055 0.428382
0.049317 0.435126 0.434638
0.059388 0.488319 0.456947
0.198291 0.611643 0.512505
0.505119 0.710994 0.552056
0.702998 0.748379 0.575021
0.823240 0.776120 0.610895
0.904601 0.790616 0.614404
0.911040 0.775509 0.645869
0.048646 0.436347 0.392035
0.058564 0.489754 0.435462
0.149462 0.598413 0.501122
0.401389 0.707729 0.564843
0.632761 0.767452 0.613184
0.767239 0.803861 0.650355
0.839200 0.820706 0.670192
0.898589 0.834195 0.678157
0.927306 0.839475 0.674067
0.037446 0.038544 0.266728
0.035706 0.036896 0.237858
0.043732 0.038514 0.251102
0.087404 0.040894 0.285161
0.172030 0.041444 0.302770
0.255436 0.040742 0.299351
0.340459 0.041779 0.292058
0.411933 0.045686 0.292943
0.470558 0.050599 0.295995
0.041779 0.073030 0.328038
0.037781 0.038849 0.271550
0.036683 0.037781 0.249027
0.058228 0.040162 0.282445
0.143877 0.042206 0.312383
0.268498 0.042267 0.331518
0.395087 0.044404 0.347845
0.469795 0.052003 0.336736
0.533227 0.097963 0.347692
0.044099 0.148898 0.391241
0.044831 0.112642 0.396460
0.040528 0.057496 0.299321
0.053101 0.066621 0.312810
0.148821 0.081880 0.351781
0.306065 0.088716 0.383642
0.457771 0.087068 0.408972
0.532555 0.100282 0.389258
0.606470 0.226719 0.407630
0.045930 0.227970 0.437690
0.047944 0.212802 0.465919
0.045533 0.176242 0.421851
0.056306 0.170001 0.382422
0.180621 0.218585 0.422004
0.370275 0.246876 0.459480
0.529442 0.258350 0.477913
0.607050 0.254627 0.446143
0.685573 0.378241 0.472175
0.049928 0.311742 0.482002
0.050385 0.306584 0.515770
0.049714 0.295216 0.503471
0.080674 0.327169 0.498543
0.235294 0.372427 0.503441
0.452613 0.415427 0.534203
0.612482 0.441032 0.550927
0.685908 0.421286 0.506584
0.749691 0.499245 0.538262
0.052094 0.365728 0.511315
0.053956 0.371618 0.557183
0.054444 0.382116 0.563195
0.093523 0.446296 0.574182
0.321248 0.523247 0.595178
0.534798 0.548821 0.597925
0.687160 0.578180 0.618769
0.743984 0.553491 0.568872
0.811093 0.601526 0.602197
0.052461 0.395605 0.526574
0.054505 0.401068 0.571588
0.056794 0.425422 0.592889
0.085328 0.508873 0.624475
0.317205 0.629633 0.657954
0.595117 0.669184 0.663233
0.738521 0.688533 0.671168
0.801328 0.667781 0.631525
0.871885 0.700221 0.672999
0.051667 0.412848 0.514946
0.053162 0.423713 0.546807
0.056886 0.454414 0.578485
0.096193 0.559670 0.629023
0.330205 0.700435 0.672450
0.640238 0.760739 0.691829
0.771328 0.772732 0.689296
0.872831 0.785946 0.710292
0.904570 0.785733 0.724239
0.050874 0.426276 0.494270
0.056275 0.466377 0.535760
0.082460 0.555200 0.589532
0.253895 0.688197 0.650538
0.536950 0.772366 0.698329
0.742275 0.813901 0.720974
0.819486 0.830655 0.739345
0.888609 0.845426 0.756741
0.918761 0.847959 0.760311
0.037507 0.038392 0.269627
0.036133 0.037293 0.246616
0.039582 0.038392 0.257267
0.056855 0.040070 0.286046
0.121126 0.041627 0.308598
0.209384 0.042023 0.323217
0.301091 0.041871 0.335546
0.393256 0.044282 0.347173
0.468788 0.050507 0.354009
0.043610 0.081636 0.366827
0.038056 0.039673 0.276463
0.037781 0.040223 0.268772
0.042878 0.042115 0.287846
0.094484 0.045777 0.323339
0.208774 0.047486 0.355810
0.335790 0.047700 0.384710
0.448493 0.050385 0.403388
0.531182 0.100801 0.413397
0.047150 0.162600 0.442054
0.045930 0.125185 0.418524
0.041382 0.057832 0.314519
0.043977 0.068452 0.335668
0.092927 0.089357 0.371649
0.231083 0.099886 0.411078
0.379217 0.098573 0.439368
0.504631 0.095827 0.460182
0.594995 0.227085 0.475746
0.048188 0.223178 0.474037
0.049042 0.210117 0.483192
0.046662 0.168521 0.434333
0.044648 0.139864 0.395392
0.081743 0.185168 0.441230
0.257786 0.225559 0.484016
0.446754 0.243854 0.516838
0.570184 0.243305 0.529107
0.665644 0.372381 0.543023
0.049470 0.290929 0.506035
0.049561 0.275486 0.515801
0.049348 0.262394 0.505333
0.052399 0.277394 0.503563
0.099443 0.302724 0.508690
0.309911 0.364599 0.555444
0.528832 0.400320 0.590356
0.655207 0.412863 0.603143
0.735897 0.497169 0.604822
0.052979 0.352117 0.547204
0.053285 0.343694 0.563500
0.053498 0.350866 0.570336
0.074159 0.417792 0.595758
0.221759 0.484199 0.617487
0.413535 0.502571 0.627436
0.630900 0.541436 0.661891
0.739651 0.556054 0.669642
0.804654 0.604578 0.664637
0.054170 0.379034 0.561822
0.055329 0.384863 0.587793
0.056947 0.403326 0.606012
0.074037 0.479408 0.637720
0.248478 0.597833 0.681239
0.537606 0.651026 0.710872
0.686458 0.656245 0.713802
0.803494 0.671199 0.729732
0.861051 0.699031 0.731746
0.054383 0.401068 0.572168
0.055970 0.416602 0.601495
0.057496 0.436347 0.617243
0.069398 0.509575 0.656550
0.192416 0.653605 0.711116
0.552377 0.752651 0.758877
0.721370 0.768429 0.761898
0.823423 0.773770 0.763302
0.891295 0.789792 0.783566
0.054139 0.419959 0.571069
0.057465 0.447211 0.603479
0.068055 0.511833 0.641810
0.152850 0.648676 0.701625
0.450797 0.761685 0.749508
0.696696 0.818570 0.778592
0.789792 0.833280 0.793576
0.856168 0.851408 0.800656
0.913085 0.857389 0.814389
0.037720 0.038666 0.273838
0.037415 0.038727 0.264439
0.037934 0.039277 0.270481
0.046967 0.040528 0.291783
0.089021 0.043427 0.321141
0.174655 0.044648 0.346960
0.268620 0.045441 0.369848
0.365515 0.045533 0.391821
0.447517 0.048768 0.402777
0.044556 0.093965 0.384863
0.040894 0.057404 0.311925
0.041535 0.061738 0.321599
0.047822 0.074922 0.346288
0.102235 0.091493 0.377142
0.205142 0.096864 0.404669
0.313939 0.098634 0.428351
0.417700 0.097169 0.447028
0.503746 0.096681 0.459937
0.048371 0.182528 0.469337
0.045533 0.138308 0.411780
0.044129 0.121523 0.385168
0.050538 0.143954 0.414771
0.107973 0.181857 0.446723
0.240696 0.204623 0.478584
0.379339 0.216800 0.502434
0.485267 0.217685 0.516014
0.565515 0.215122 0.524620
0.049409 0.226749 0.495705
0.048402 0.212070 0.471931
0.047547 0.209201 0.458656
0.055116 0.237629 0.478340
0.120043 0.283497 0.513146
0.290532 0.321111 0.546563
0.456336 0.348272 0.577325
0.571008 0.360021 0.593347
0.643977 0.359472 0.597436
0.049439 0.273960 0.516533
0.049836 0.278752 0.519554
0.054078 0.308583 0.530816
0.093278 0.357748 0.555352
0.232807 0.405203 0.587579
0.412055 0.448218 0.622095
0.577478 0.476661 0.653223
0.665583 0.487404 0.663844
0.724453 0.488518 0.666255
0.052216 0.327703 0.553704
0.053101 0.344854 0.568170
0.067414 0.407416 0.597559
0.175784 0.493904 0.632959
0.371832 0.537652 0.665248
0.528542 0.562371 0.689204
0.661341 0.586389 0.716762
0.745541 0.599084 0.729519
0.799863 0.599145 0.728115
0.054688 0.365423 0.579034
0.056092 0.385565 0.597009
0.065766 0.450202 0.628840
0.177935 0.564324 0.673426
0.429923 0.637507 0.719051
0.611154 0.663752 0.744350
0.721614 0.677546 0.762417
0.804593 0.692866 0.779263
0.854887 0.695949 0.783230
0.055604 0.393042 0.593072
0.057130 0.413062 0.610895
0.064515 0.470741 0.642664
0.129381 0.586755 0.688685
0.403189 0.691371 0.742763
0.640909 0.744320 0.782132
0.747677 0.769253 0.801785
0.838865 0.783261 0.815854
0.885405 0.787533 0.823392
0.056214 0.417792 0.604730
0.057649 0.437537 0.617792
0.065064 0.491676 0.648310
0.109789 0.606256 0.698024
0.375433 0.739391 0.759487
0.666178 0.818051 0.813565
0.770962 0.832059 0.830411
0.835843 0.851957 0.845609
0.916259 0.880339 0.872343
