assets/luts/impulz-kodak-ektar-100-fpe-log-78a7ad91.cube
# (C) 2014 VisionColor & Patchflyer [www.vision-color.com]
# Generator: VC Patchmatch v.2.1.1 [64/53]
# All work and no play makes Jack a dull boy.
# LUT generated from: Kodak Ektar 100_FPE
LUT_3D_SIZE 17
0.033692 0.031983 0.032746
0.040345 0.035828 0.036164
0.060792 0.040284 0.037812
0.088319 0.045747 0.040894
0.124117 0.051911 0.044465
0.164340 0.058412 0.047944
0.215946 0.062470 0.049897
0.266941 0.062928 0.051118
0.312535 0.062806 0.052247
0.353857 0.062562 0.053254
0.393896 0.065095 0.055177
0.436347 0.072084 0.059174
0.472755 0.079713 0.062501
0.503807 0.086427 0.066102
0.523796 0.090913 0.069795
0.537682 0.094331 0.073854
0.548363 0.101381 0.077790
0.037049 0.040711 0.039246
0.041169 0.040864 0.038666
0.061555 0.046143 0.040436
0.093812 0.061311 0.044709
0.134249 0.076020 0.048951
0.177005 0.084688 0.051637
0.231022 0.089631 0.052583
0.288182 0.097139 0.053407
0.343999 0.106294 0.054078
0.390570 0.111635 0.054963
0.431617 0.113771 0.056855
0.476570 0.125032 0.060914
0.521019 0.146242 0.065248
0.562493 0.171206 0.070680
0.584741 0.179843 0.074830
0.598657 0.184054 0.078767
0.605920 0.186496 0.082582
0.040742 0.064332 0.051789
0.045106 0.064851 0.050874
0.063905 0.071077 0.048829
0.095918 0.084413 0.051575
0.139010 0.098634 0.053834
0.184695 0.115389 0.055451
0.247440 0.130434 0.055177
0.312779 0.142214 0.055207
0.371923 0.152621 0.055726
0.426734 0.164858 0.056611
0.474098 0.175479 0.058503
0.525719 0.195377 0.063325
0.572168 0.220829 0.068452
0.615900 0.251499 0.075776
0.644343 0.273045 0.082307
0.661158 0.283116 0.087190
0.660578 0.272709 0.090425
0.043000 0.100465 0.068177
0.050324 0.101869 0.064729
0.066438 0.104097 0.060609
0.091463 0.111147 0.057618
0.130159 0.130068 0.059449
0.182254 0.144839 0.058350
0.242313 0.159213 0.057221
0.310811 0.179202 0.056031
0.386282 0.203098 0.056001
0.448463 0.219760 0.056794
0.503319 0.232364 0.059663
0.560815 0.260838 0.066682
0.614252 0.297215 0.076265
0.660731 0.334905 0.086336
0.689937 0.358282 0.093812
0.709895 0.374853 0.103273
0.707393 0.359808 0.105287
0.044038 0.141878 0.085298
0.051575 0.144015 0.079744
0.063325 0.144656 0.074281
0.092470 0.150698 0.069062
0.123751 0.159792 0.064942
0.171298 0.176028 0.061860
0.223545 0.188205 0.058991
0.298466 0.210941 0.056794
0.374166 0.234531 0.056214
0.458183 0.268345 0.058595
0.522667 0.292515 0.063539
0.585931 0.323308 0.071626
0.640345 0.359777 0.082002
0.691920 0.400214 0.097383
0.727596 0.433509 0.112001
0.750057 0.454322 0.125002
0.745663 0.433875 0.123964
0.043214 0.182040 0.096254
0.051606 0.185702 0.089448
0.062379 0.188022 0.083223
0.079866 0.190646 0.077668
0.114595 0.198550 0.071595
0.159030 0.210513 0.064881
0.209384 0.222904 0.062257
0.276921 0.241733 0.059052
0.359274 0.273686 0.058778
0.450492 0.310338 0.061189
0.531167 0.343084 0.067384
0.598383 0.376623 0.078126
0.659022 0.414191 0.092653
0.712642 0.454566 0.110018
0.755154 0.492988 0.129549
0.779538 0.515435 0.147066
0.774899 0.494331 0.144839
0.041474 0.213809 0.102663
0.051118 0.221592 0.095460
0.061646 0.227848 0.089509
0.074891 0.230930 0.085176
0.102327 0.239963 0.080354
0.147494 0.251652 0.073854
0.205203 0.267369 0.066468
0.268864 0.280400 0.062562
0.337819 0.300587 0.061463
0.432731 0.340002 0.064240
0.521614 0.378241 0.071992
0.597436 0.414130 0.083192
0.660273 0.450843 0.097810
0.717678 0.485603 0.116396
0.763577 0.522301 0.139284
0.793149 0.548943 0.161257
0.792172 0.532982 0.161654
0.041444 0.246281 0.113893
0.048463 0.255100 0.107607
0.055665 0.265110 0.102602
0.068544 0.271214 0.097078
0.088960 0.280156 0.091981
0.128206 0.293431 0.086458
0.179355 0.308507 0.079957
0.259770 0.327459 0.069337
0.326284 0.345678 0.068177
0.413077 0.372229 0.067903
0.504921 0.408698 0.075715
0.580713 0.439490 0.086488
0.649439 0.470222 0.100710
0.709590 0.505028 0.119570
0.762295 0.540307 0.142672
0.792935 0.560723 0.163455
0.794797 0.544915 0.163699
0.042969 0.279240 0.131136
0.047272 0.288914 0.126253
0.052461 0.297734 0.122438
0.058259 0.304723 0.116121
0.076051 0.314244 0.109682
0.109133 0.331548 0.102235
0.156374 0.346471 0.096010
0.238163 0.367346 0.085145
0.314061 0.383581 0.074769
0.387320 0.402197 0.074739
0.478752 0.430426 0.077729
0.556832 0.458259 0.088258
0.625589 0.484565 0.101137
0.686427 0.505058 0.114137
0.737575 0.529961 0.132265
0.777432 0.550164 0.152132
0.784298 0.537682 0.155306
0.044465 0.311559 0.151522
0.046326 0.319005 0.149081
0.048768 0.328008 0.146456
0.051759 0.335058 0.141634
0.059785 0.344152 0.135164
0.081727 0.361730 0.128115
0.128069 0.380652 0.120455
0.196338 0.401831 0.109926
0.279408 0.417762 0.096101
0.361334 0.431922 0.082368
0.441932 0.452949 0.085298
0.520195 0.471626 0.088502
0.588190 0.488502 0.098329
0.650538 0.506706 0.109621
0.711421 0.524681 0.124819
0.758480 0.543267 0.143648
0.770687 0.527276 0.144869
0.046387 0.344274 0.177371
0.047333 0.349615 0.175784
0.048402 0.355596 0.174075
0.050507 0.361364 0.170626
0.054871 0.370092 0.166598
0.061494 0.381048 0.162478
0.095766 0.405371 0.160006
0.145281 0.428351 0.153811
0.226246 0.447883 0.139162
0.309789 0.461250 0.120546
0.389593 0.468116 0.095888
0.473243 0.486336 0.096925
0.555566 0.502373 0.101930
0.619959 0.515892 0.111910
0.684901 0.530449 0.125093
0.738247 0.539757 0.137606
0.760220 0.530449 0.143221
0.048829 0.376684 0.207889
0.049683 0.379248 0.206363
0.050629 0.382574 0.204105
0.051728 0.386084 0.201541
0.054353 0.391577 0.201358
0.060121 0.402258 0.203220
0.073487 0.421607 0.207889
0.115846 0.449561 0.209659
0.178058 0.472969 0.203113
0.264775 0.489754 0.180941
0.345708 0.498451 0.156497
0.433722 0.504387 0.122377
0.515526 0.517021 0.118502
0.587518 0.528130 0.116670
0.664515 0.544610 0.134859
0.732326 0.562951 0.153292
0.767452 0.559533 0.160525
0.054108 0.408362 0.243198
0.054475 0.408362 0.239597
0.055055 0.409888 0.236667
0.056275 0.413153 0.234684
0.058228 0.417578 0.236637
0.064881 0.429450 0.247196
0.076478 0.447089 0.254948
0.108827 0.475196 0.274662
0.162463 0.502068 0.273045
0.242512 0.522026 0.259373
0.332113 0.534630 0.231296
0.419135 0.541161 0.197879
0.510674 0.550774 0.170962
0.600916 0.570031 0.176577
0.669093 0.579553 0.167514
0.735500 0.594537 0.179507
0.777859 0.599207 0.196078
0.060487 0.436622 0.279332
0.060670 0.435645 0.275181
0.061280 0.436500 0.272831
0.063142 0.440253 0.271366
0.065248 0.444984 0.273747
0.077821 0.461494 0.290074
0.093904 0.480415 0.309575
0.128969 0.510094 0.335546
0.184360 0.536645 0.349126
0.252552 0.558984 0.340276
0.336599 0.572198 0.312932
0.426459 0.581445 0.278325
0.520378 0.593133 0.252934
0.599603 0.601617 0.230472
0.682063 0.616724 0.235538
0.752529 0.634821 0.243381
0.796506 0.641993 0.254032
0.067292 0.463050 0.315526
0.067445 0.462043 0.312963
0.068055 0.462745 0.310796
0.071015 0.466590 0.309728
0.078004 0.475624 0.314885
0.093385 0.494209 0.332708
0.128176 0.521843 0.363439
0.164553 0.553185 0.397925
0.242176 0.583368 0.420539
0.310780 0.607874 0.427893
0.396719 0.620172 0.402747
0.476692 0.630457 0.375402
0.558465 0.639796 0.348028
0.633967 0.649622 0.332525
0.706844 0.660670 0.324102
0.774624 0.676661 0.329717
0.810788 0.682307 0.331792
0.076448 0.486732 0.350378
0.077180 0.487098 0.350378
0.077882 0.487861 0.349706
0.081239 0.491585 0.348852
0.094697 0.505150 0.357702
0.113680 0.525109 0.373938
0.172519 0.561975 0.410834
0.238941 0.598108 0.448127
0.338338 0.632990 0.483589
0.418540 0.656947 0.497078
0.494438 0.672938 0.495705
0.558587 0.680568 0.470558
0.628656 0.688869 0.446052
0.684871 0.695613 0.435218
0.745815 0.704555 0.427802
0.790829 0.711666 0.422553
0.825437 0.717250 0.420233
0.092561 0.511040 0.388037
0.094667 0.513024 0.389715
0.096040 0.514305 0.389776
0.097078 0.515282 0.388067
0.116121 0.532036 0.399207
0.146883 0.554864 0.415534
0.214176 0.590875 0.446204
0.303487 0.628748 0.484138
0.407645 0.665187 0.522271
0.499046 0.693294 0.550103
0.573999 0.711299 0.557580
0.623957 0.720333 0.551019
0.675685 0.725765 0.531975
0.724056 0.731777 0.524163
0.765560 0.736446 0.515923
0.807157 0.742519 0.510338
0.834165 0.745144 0.497505
0.034913 0.033509 0.034638
0.039124 0.034913 0.035950
0.058808 0.039399 0.038025
0.083375 0.044648 0.043366
0.114199 0.050172 0.048798
0.151492 0.056306 0.052674
0.201877 0.060914 0.054871
0.253269 0.061769 0.057343
0.303105 0.062562 0.058137
0.346044 0.062379 0.059052
0.386603 0.064546 0.059358
0.427741 0.069520 0.062287
0.462654 0.073793 0.064820
0.492561 0.077089 0.067811
0.512535 0.081239 0.071473
0.527611 0.085206 0.075135
0.538598 0.091402 0.078798
0.036347 0.038972 0.040345
0.040925 0.041352 0.042115
0.066255 0.048310 0.046387
0.102327 0.054688 0.047578
0.145235 0.060883 0.050416
0.195773 0.065370 0.051728
0.251591 0.068574 0.053529
0.300237 0.068635 0.053925
0.345251 0.066255 0.053956
0.387427 0.067414 0.055695
0.430884 0.071321 0.058656
0.469673 0.079988 0.062898
0.500389 0.086793 0.065949
0.521172 0.090639 0.069551
0.536736 0.094575 0.073426
0.546441 0.100130 0.077211
0.555566 0.107973 0.080842
0.039673 0.062104 0.054017
0.046723 0.072358 0.059724
0.069886 0.078737 0.056092
0.107881 0.084749 0.056245
0.157748 0.096620 0.056397
0.215793 0.110201 0.056580
0.279698 0.118471 0.056550
0.333043 0.119142 0.056153
0.383978 0.123323 0.055909
0.433875 0.131716 0.057496
0.482856 0.143404 0.060639
0.523583 0.154055 0.065309
0.558434 0.169162 0.069673
0.587732 0.189059 0.075288
0.606134 0.199374 0.079744
0.614343 0.202762 0.083345
0.612238 0.192752 0.086305
0.040772 0.095064 0.076020
0.047608 0.114321 0.080507
0.067689 0.118563 0.075441
0.107057 0.128481 0.067811
0.159091 0.139406 0.065705
0.223545 0.151095 0.061891
0.293950 0.168063 0.059297
0.362310 0.181979 0.058228
0.422721 0.190249 0.057252
0.477302 0.200412 0.058900
0.532433 0.218784 0.063783
0.580011 0.241581 0.069581
0.623194 0.270024 0.076844
0.654383 0.293858 0.083101
0.674434 0.308202 0.090150
0.672877 0.295781 0.092775
0.662409 0.271458 0.094331
0.040955 0.134066 0.098848
0.045380 0.161013 0.097475
0.060853 0.164858 0.089235
0.094636 0.171267 0.080903
0.145296 0.183291 0.072023
0.202304 0.195651 0.066773
0.274083 0.206332 0.060029
0.356191 0.226535 0.058717
0.432792 0.248661 0.059113
0.506767 0.274174 0.063203
0.567926 0.296880 0.068971
0.619410 0.319615 0.075624
0.666163 0.354040 0.087892
0.703151 0.388708 0.102998
0.724727 0.406043 0.112367
0.723384 0.393133 0.114595
0.707393 0.354009 0.108400
0.039551 0.174289 0.116304
0.043366 0.201205 0.107790
0.055909 0.209995 0.100130
0.076661 0.215122 0.091798
0.129488 0.227054 0.081392
0.189090 0.242374 0.071717
0.257420 0.255283 0.065003
0.335958 0.269718 0.061738
0.429770 0.300633 0.061982
0.510704 0.328283 0.066285
0.587488 0.360388 0.075410
0.644373 0.387945 0.085359
0.696590 0.424659 0.101137
0.735012 0.461006 0.117861
0.761044 0.480385 0.133425
0.760616 0.464851 0.134615
0.743526 0.422431 0.125673
0.038911 0.209506 0.127169
0.041932 0.239994 0.115236
0.052613 0.252720 0.108492
0.070771 0.264530 0.100862
0.104616 0.277378 0.092531
0.167971 0.293095 0.082338
0.248295 0.313726 0.071260
0.318853 0.320775 0.068910
0.406149 0.340505 0.066621
0.501442 0.376226 0.072633
0.587488 0.411963 0.081849
0.658167 0.444587 0.094850
0.710109 0.474647 0.111666
0.755093 0.510216 0.135897
0.783627 0.531426 0.153292
0.790188 0.525658 0.158999
0.770077 0.478706 0.143343
0.039338 0.242313 0.138155
0.042359 0.272801 0.129976
0.047242 0.286625 0.125978
0.059327 0.300572 0.119478
0.081300 0.311986 0.111513
0.134829 0.331884 0.104372
0.211124 0.351110 0.092378
0.304753 0.371740 0.078401
0.390600 0.386236 0.073793
0.476524 0.407813 0.076509
0.565316 0.440131 0.085237
0.640558 0.469337 0.098390
0.703151 0.498024 0.115480
0.750820 0.532341 0.139528
0.782956 0.545312 0.154788
0.792294 0.539391 0.160616
0.777218 0.498817 0.147951
0.041230 0.276036 0.157259
0.044099 0.306493 0.152132
0.047395 0.318090 0.149081
0.051118 0.329107 0.145235
0.065522 0.342473 0.138186
0.096101 0.360632 0.131655
0.163333 0.385992 0.125063
0.249668 0.408362 0.113954
0.354437 0.424933 0.089509
0.438041 0.441505 0.090181
0.531777 0.464454 0.088075
0.611856 0.489265 0.100313
0.675166 0.506523 0.113008
0.728939 0.524590 0.128878
0.764767 0.538964 0.145174
0.784268 0.538109 0.155032
0.775418 0.506249 0.146395
0.043519 0.310979 0.180362
0.046204 0.341039 0.178744
0.048127 0.349889 0.176364
0.050660 0.357183 0.172763
0.054627 0.365179 0.169650
0.073426 0.382544 0.163668
0.116197 0.409918 0.163638
0.193164 0.434546 0.153140
0.296773 0.454536 0.131258
0.395666 0.467353 0.104707
0.483772 0.485298 0.104768
0.563867 0.497078 0.098268
0.633509 0.509270 0.109010
0.696162 0.525597 0.124971
0.745510 0.532525 0.137148
0.769894 0.530907 0.146426
0.762203 0.496162 0.136080
0.045502 0.345068 0.208255
0.049104 0.374365 0.208896
0.049928 0.378119 0.205692
0.051728 0.383795 0.203067
0.054475 0.389868 0.202090
0.060792 0.401801 0.203677
0.081636 0.427436 0.208072
0.140429 0.455482 0.204135
0.231952 0.483772 0.192325
0.332708 0.495949 0.158724
0.430304 0.504295 0.123934
0.522118 0.517571 0.120729
0.603204 0.526726 0.118105
0.671565 0.535454 0.128908
0.726619 0.541497 0.139651
0.761807 0.536889 0.147372
0.764492 0.513542 0.143984
0.048341 0.378180 0.238743
0.053803 0.407965 0.242893
0.054444 0.409247 0.238743
0.055451 0.411475 0.235325
0.056947 0.415167 0.235142
0.063386 0.427100 0.243565
0.073335 0.444587 0.257023
0.118379 0.476539 0.266941
0.183032 0.505394 0.265980
0.281529 0.524376 0.237766
0.386328 0.536645 0.201389
0.495155 0.546471 0.160952
0.576654 0.552636 0.150484
0.659144 0.563348 0.153689
0.731563 0.577569 0.173342
0.777554 0.581323 0.182071
0.776242 0.546715 0.163699
0.053040 0.408759 0.272648
0.059846 0.437842 0.279820
0.060151 0.437781 0.275792
0.061158 0.439185 0.272679
0.063142 0.442329 0.271458
0.071565 0.456611 0.287022
0.089815 0.478401 0.308873
0.125368 0.509056 0.336553
0.197589 0.541070 0.344121
0.284932 0.563378 0.328588
0.391440 0.578973 0.296788
0.498833 0.589349 0.257328
0.596613 0.601373 0.232578
0.676875 0.609979 0.221408
0.739925 0.616693 0.212741
0.788418 0.621485 0.228580
0.802548 0.605127 0.223514
0.059174 0.437049 0.309148
0.067048 0.462318 0.314916
0.067475 0.462226 0.312169
0.068971 0.464454 0.310735
0.073945 0.470832 0.312230
0.088014 0.487922 0.328099
0.124636 0.518273 0.359045
0.162860 0.550011 0.390295
0.261387 0.586389 0.420172
0.342550 0.610956 0.414099
0.439170 0.625849 0.393133
0.533272 0.636744 0.362066
0.625879 0.648463 0.338964
0.699153 0.657526 0.323369
0.763668 0.666285 0.322148
0.810727 0.674342 0.316777
0.828550 0.662928 0.300023
0.066163 0.464851 0.346075
0.080018 0.488106 0.352575
0.080598 0.488167 0.350896
0.082521 0.490394 0.350500
0.088655 0.497658 0.352850
0.102602 0.514214 0.367956
0.157900 0.550896 0.399237
0.221790 0.588983 0.440620
0.331502 0.628626 0.475929
0.424247 0.657649 0.496132
0.515694 0.674037 0.481178
0.588861 0.684291 0.462928
0.668940 0.693660 0.438087
0.725216 0.700374 0.428138
0.786618 0.709377 0.419776
0.824796 0.712245 0.405676
0.841031 0.707118 0.393347
0.076539 0.491218 0.381231
0.104097 0.520195 0.395026
0.103273 0.519402 0.393896
0.104982 0.521080 0.393133
0.104280 0.521965 0.391760
0.128573 0.542107 0.406806
0.187961 0.579004 0.436866
0.283894 0.620539 0.477638
0.402213 0.663233 0.521050
0.506111 0.693965 0.548547
0.593286 0.715724 0.559197
0.651148 0.724330 0.545983
0.708797 0.731777 0.531121
0.756130 0.737392 0.524163
0.799619 0.742611 0.512993
0.836027 0.747005 0.502098
0.851011 0.742580 0.484260
0.096315 0.520500 0.418280
0.151766 0.562768 0.447517
0.144442 0.558892 0.443061
0.138033 0.554925 0.438514
0.127535 0.548730 0.432410
0.153780 0.565789 0.444678
0.207294 0.597070 0.468452
0.315999 0.637690 0.505821
0.426810 0.676326 0.543938
0.534279 0.710262 0.580468
0.617578 0.733577 0.599084
0.681453 0.749630 0.607385
0.729030 0.756374 0.599817
0.773220 0.762081 0.594385
0.804837 0.765194 0.586816
0.835386 0.768124 0.574792
0.858763 0.769497 0.558068
0.034577 0.033448 0.040223
0.038880 0.034821 0.041138
0.052918 0.037781 0.043244
0.076905 0.043030 0.047608
0.105257 0.048463 0.053223
0.138430 0.053681 0.059937
0.186526 0.059419 0.065827
0.240635 0.061036 0.066926
0.291386 0.061982 0.067842
0.339025 0.062257 0.068177
0.379126 0.063050 0.067628
0.418463 0.064576 0.067475
0.453315 0.067597 0.069612
0.483070 0.070130 0.071473
0.503563 0.073426 0.074586
0.519219 0.076997 0.077638
0.529595 0.081636 0.080415
0.035645 0.038575 0.046204
0.041749 0.041962 0.050477
0.059327 0.045563 0.053132
0.094209 0.052186 0.054292
0.133059 0.058289 0.059876
0.180331 0.063081 0.064424
0.236088 0.067506 0.066438
0.287297 0.067933 0.063935
0.334203 0.065461 0.064240
0.378271 0.065614 0.062165
0.420752 0.067323 0.063874
0.458503 0.073182 0.065614
0.488777 0.078157 0.068330
0.509972 0.080995 0.071839
0.526299 0.084321 0.075044
0.536156 0.089601 0.078614
0.544671 0.095796 0.081788
0.036011 0.054658 0.063050
0.041962 0.062654 0.072450
0.061250 0.062287 0.064973
0.103609 0.072847 0.069184
0.153780 0.079072 0.067262
0.210300 0.083101 0.065919
0.268894 0.083070 0.062226
0.324956 0.082612 0.061524
0.370916 0.082185 0.060883
0.414069 0.079164 0.059815
0.456062 0.083619 0.062867
0.493385 0.088533 0.065949
0.519982 0.094423 0.069184
0.536370 0.097444 0.072969
0.546685 0.102113 0.076783
0.554833 0.108095 0.080323
0.559655 0.112337 0.084016
0.037537 0.087251 0.086580
0.043275 0.104219 0.094759
0.063874 0.110353 0.091157
0.106722 0.120668 0.081971
0.161349 0.127321 0.078157
0.230167 0.138399 0.072663
0.300847 0.149569 0.067597
0.367193 0.155520 0.064607
0.419364 0.155489 0.062959
0.467445 0.159091 0.062226
0.517479 0.174136 0.066163
0.561395 0.190585 0.070710
0.592126 0.202274 0.075624
0.610742 0.210391 0.080262
0.619257 0.213230 0.084596
0.611841 0.193423 0.086519
0.611383 0.188693 0.089662
0.037690 0.126497 0.112184
0.041627 0.150332 0.118624
0.054994 0.160861 0.112123
0.091493 0.170504 0.102815
0.159304 0.187350 0.094484
0.232639 0.198520 0.084474
0.312444 0.207675 0.072663
0.392355 0.224674 0.067536
0.459434 0.237858 0.067048
0.518975 0.249485 0.066133
0.572992 0.266667 0.070466
0.622858 0.289433 0.078370
0.658015 0.309514 0.085237
0.680201 0.324407 0.092500
0.685237 0.320958 0.096620
0.675776 0.295598 0.096742
0.658473 0.261021 0.096803
0.036927 0.166659 0.135775
0.039857 0.193301 0.136385
0.048585 0.209934 0.127077
0.074678 0.222934 0.117769
0.132601 0.237461 0.109468
0.213382 0.255589 0.095979
0.290135 0.264866 0.084627
0.379568 0.278782 0.069734
0.467857 0.303593 0.070375
0.540917 0.323217 0.071778
0.608087 0.349187 0.080110
0.662959 0.376837 0.090272
0.704311 0.402808 0.102266
0.727260 0.418463 0.113344
0.733089 0.413520 0.119295
0.721462 0.379736 0.114107
0.703059 0.340368 0.110414
0.036591 0.203281 0.151705
0.039124 0.234470 0.149294
0.045899 0.251133 0.139071
0.062562 0.269200 0.132723
0.099702 0.285283 0.124788
0.182956 0.304540 0.112184
0.274510 0.325780 0.096986
0.357290 0.334936 0.083375
0.452720 0.354986 0.077302
0.543893 0.383551 0.078767
0.619348 0.411444 0.087129
0.683894 0.439216 0.100679
0.729671 0.466957 0.116518
0.760464 0.489143 0.134707
0.767514 0.485084 0.140902
0.755825 0.449561 0.132937
0.733883 0.399695 0.121584
0.037781 0.238987 0.167269
0.040894 0.270604 0.165438
0.044526 0.290837 0.154482
0.054322 0.310155 0.149844
0.080110 0.330755 0.143984
0.141482 0.355230 0.138613
0.231418 0.374853 0.122744
0.336889 0.395697 0.101076
0.427237 0.408423 0.096132
0.521096 0.425788 0.087434
0.608499 0.453223 0.095766
0.680964 0.480873 0.108095
0.741695 0.513359 0.128908
0.771450 0.528252 0.145388
0.782773 0.522606 0.152316
0.773281 0.490852 0.144717
0.753292 0.444160 0.131777
0.039643 0.273259 0.186191
0.042512 0.304662 0.186465
0.045899 0.327001 0.179385
0.049378 0.339605 0.176883
0.061585 0.358984 0.173617
0.091188 0.378943 0.168978
0.175875 0.411933 0.167391
0.274510 0.433631 0.148745
0.385016 0.448920 0.119081
0.481559 0.461738 0.103197
0.572946 0.478553 0.100374
0.650675 0.498177 0.110384
0.714229 0.517937 0.124483
0.756436 0.527703 0.137850
0.771817 0.524437 0.146273
0.770809 0.499733 0.143008
0.754940 0.459937 0.130739
0.041962 0.308598 0.208988
0.044862 0.340673 0.214359
0.047456 0.361425 0.208072
0.049866 0.369909 0.205539
0.054383 0.380224 0.204196
0.070588 0.401007 0.203922
0.115099 0.430335 0.206302
0.215076 0.467720 0.207950
0.323690 0.489143 0.186816
0.434211 0.499916 0.147646
0.527642 0.512139 0.138460
0.609216 0.517510 0.116091
0.682704 0.527428 0.125643
0.736568 0.535637 0.137697
0.759976 0.522850 0.139956
0.761166 0.499886 0.137270
0.749447 0.464942 0.126619
0.044678 0.345861 0.238987
0.048066 0.376043 0.245304
0.052277 0.397772 0.242588
0.053712 0.402258 0.239506
0.056123 0.407630 0.236515
0.063722 0.419959 0.242374
0.086122 0.446082 0.248508
0.158953 0.485542 0.266575
0.262715 0.517052 0.257328
0.378271 0.533623 0.224948
0.488045 0.542901 0.183505
0.585595 0.552972 0.170748
0.661921 0.552666 0.143679
0.717800 0.550286 0.146334
0.752529 0.540887 0.150088
0.761807 0.516991 0.144472
0.754025 0.488258 0.136324
0.047730 0.379950 0.271580
0.052674 0.409949 0.280644
0.058961 0.431037 0.279423
0.059449 0.431403 0.274205
0.060670 0.434180 0.271366
0.068696 0.447089 0.280278
0.088075 0.469337 0.300420
0.139010 0.508141 0.326543
0.225574 0.540551 0.328923
0.347005 0.570550 0.314305
0.456672 0.582818 0.276005
0.567132 0.592462 0.234958
0.661036 0.596582 0.214694
0.726619 0.598413 0.198123
0.768124 0.587854 0.191959
0.782803 0.566552 0.181979
0.765896 0.522179 0.158083
0.052094 0.410803 0.305486
0.058442 0.439582 0.316320
0.067048 0.462196 0.317235
0.067353 0.461860 0.312657
0.070649 0.465248 0.311223
0.077821 0.477180 0.320256
0.108309 0.505577 0.349279
0.152850 0.543267 0.388312
0.255146 0.580438 0.404578
0.365805 0.612421 0.406012
0.482506 0.630091 0.377844
0.589914 0.642573 0.346502
0.685786 0.653132 0.321111
0.749111 0.652796 0.290532
0.788205 0.644221 0.267552
0.810025 0.631495 0.262150
0.800870 0.594141 0.230167
0.058198 0.440040 0.341711
0.065736 0.465064 0.350561
0.075837 0.485573 0.350713
0.076600 0.486488 0.349645
0.081788 0.491920 0.351293
0.095399 0.506676 0.360540
0.144320 0.542596 0.394232
0.213245 0.584924 0.435798
0.329763 0.626062 0.474342
0.438315 0.657649 0.486610
0.536995 0.674495 0.470588
0.625788 0.687648 0.452216
0.715541 0.697780 0.428595
0.772915 0.703853 0.415198
0.813443 0.699458 0.385931
0.833555 0.689754 0.358129
0.827054 0.657099 0.317601
0.065400 0.468147 0.377264
0.080751 0.493477 0.388342
0.101869 0.518456 0.394141
0.102937 0.519280 0.393683
0.099519 0.518059 0.391302
0.114809 0.532189 0.399939
0.167666 0.566369 0.427253
0.261219 0.611902 0.469551
0.379965 0.654566 0.510765
0.502480 0.692042 0.546319
0.596139 0.711513 0.542382
0.667445 0.724025 0.536156
0.733089 0.732265 0.521324
0.788540 0.738949 0.511498
0.829923 0.742275 0.494911
0.847501 0.735256 0.466102
0.846159 0.718807 0.439979
0.079957 0.498360 0.412207
0.115511 0.531609 0.429267
0.166079 0.566766 0.451362
0.161135 0.564263 0.448218
0.137972 0.553765 0.437507
0.140047 0.557183 0.438453
0.186191 0.586267 0.461524
0.279255 0.625238 0.495308
0.407340 0.670405 0.541161
0.532235 0.708888 0.578943
0.627634 0.736263 0.603418
0.696315 0.750362 0.601953
0.747158 0.758572 0.596613
0.794156 0.764340 0.589715
0.826474 0.766110 0.573022
0.857359 0.768978 0.558556
0.857114 0.754086 0.525200
0.110048 0.536950 0.451484
0.175753 0.579614 0.479866
0.253208 0.617517 0.511864
0.219272 0.604150 0.497749
0.188022 0.589136 0.483314
0.167575 0.580560 0.475532
0.208713 0.602075 0.492439
0.295521 0.636927 0.522759
0.410666 0.676020 0.561944
0.533425 0.715694 0.603815
0.623789 0.743191 0.632166
0.695918 0.763302 0.648829
0.741756 0.771603 0.648096
0.782681 0.777371 0.643397
0.816129 0.780514 0.634852
0.843046 0.782559 0.620172
0.866880 0.783871 0.602197
0.035737 0.035126 0.052216
0.042267 0.036622 0.052399
0.053803 0.038972 0.053468
0.070619 0.041688 0.055604
0.096254 0.046540 0.062684
0.128542 0.051606 0.068391
0.173800 0.057465 0.076143
0.227787 0.060151 0.081758
0.281193 0.061952 0.085512
0.330816 0.062409 0.086519
0.374182 0.063325 0.084291
0.414069 0.064637 0.083406
0.448737 0.066346 0.082429
0.478981 0.068360 0.081971
