assets/luts/impulz-fuji-pro-400-fpe-rec709-5827f41e.cube
# (C) 2014 VisionColor & Patchflyer [www.vision-color.com]
# Generator: VC Patchmatch v.2.1.1 [64/53]
# All work and no play makes Jack a dull boy.
# LUT generated from: Fuji Pro 400_FPE
LUT_3D_SIZE 17
0.037720 0.043946 0.044038
0.060426 0.046571 0.043427
0.104219 0.055665 0.045380
0.158755 0.066011 0.049622
0.224491 0.072755 0.050538
0.287480 0.085145 0.058473
0.339025 0.092653 0.063478
0.380713 0.099580 0.068269
0.411078 0.112764 0.075288
0.436652 0.122621 0.081025
0.459907 0.132296 0.084810
0.484352 0.146609 0.090913
0.503471 0.155581 0.096742
0.525689 0.169741 0.104128
0.543938 0.180087 0.108339
0.561639 0.189914 0.112306
0.572534 0.193118 0.116304
0.041169 0.066621 0.047883
0.087098 0.084047 0.051209
0.134035 0.095399 0.053529
0.198093 0.112947 0.060792
0.272068 0.134401 0.066865
0.328801 0.142336 0.072145
0.385504 0.159823 0.080720
0.436652 0.181064 0.091218
0.468055 0.191165 0.097871
0.496468 0.201877 0.104799
0.523186 0.218509 0.111727
0.547295 0.233005 0.118196
0.563104 0.237034 0.122408
0.577539 0.240146 0.126558
0.589380 0.241032 0.127199
0.605615 0.248905 0.130556
0.615076 0.250187 0.133974
0.053773 0.105440 0.055848
0.104005 0.125521 0.060273
0.171389 0.149050 0.066499
0.234958 0.168124 0.074800
0.314427 0.194553 0.084504
0.378546 0.217319 0.095552
0.437263 0.238773 0.105074
0.488807 0.260380 0.115389
0.526757 0.281163 0.128908
0.557488 0.295079 0.137423
0.583215 0.306676 0.142153
0.606043 0.315984 0.147036
0.618616 0.316503 0.150057
0.631006 0.316747 0.152987
0.640742 0.314122 0.151949
0.649470 0.309026 0.149905
0.658900 0.310002 0.151949
0.075074 0.156619 0.071778
0.133608 0.182223 0.077821
0.211795 0.213321 0.086458
0.280735 0.239841 0.096712
0.362646 0.274815 0.111269
0.424262 0.296422 0.123293
0.483467 0.321477 0.137331
0.538415 0.349218 0.153597
0.579339 0.372290 0.168673
0.611688 0.387610 0.178347
0.636042 0.394141 0.183749
0.658534 0.400488 0.188876
0.669764 0.398993 0.190372
0.679896 0.395789 0.191012
0.686305 0.387976 0.188052
0.692164 0.378485 0.184390
0.696101 0.369146 0.179477
0.108217 0.230625 0.095033
0.183658 0.259068 0.102480
0.266758 0.295628 0.112856
0.347051 0.331640 0.127871
0.412848 0.356451 0.138674
0.468574 0.375982 0.152255
0.527398 0.402777 0.170413
0.583917 0.430976 0.188785
0.622889 0.449378 0.202823
0.657099 0.462837 0.214725
0.682460 0.469734 0.221256
0.704860 0.475074 0.225986
0.714076 0.470405 0.226413
0.721462 0.462959 0.225925
0.726986 0.454047 0.221256
0.732204 0.443610 0.216709
0.735683 0.433570 0.211460
0.148867 0.296544 0.120333
0.237003 0.328588 0.130220
0.321935 0.362982 0.141909
0.390875 0.394171 0.157595
0.463752 0.424933 0.172274
0.506371 0.444617 0.186007
0.562005 0.467109 0.201205
0.617212 0.488716 0.218387
0.658595 0.505577 0.234195
0.691249 0.517815 0.244938
0.717922 0.526513 0.251682
0.740658 0.531426 0.257328
0.750393 0.527428 0.257939
0.757870 0.520806 0.257267
0.763363 0.511986 0.252537
0.767178 0.501579 0.247501
0.770016 0.491463 0.241428
0.195010 0.357946 0.144869
0.288701 0.391730 0.156710
0.376776 0.425452 0.170321
0.442741 0.454994 0.186252
0.508690 0.483680 0.203006
0.557702 0.507012 0.218021
0.596048 0.522423 0.232090
0.649683 0.541039 0.247807
0.685573 0.550744 0.259525
0.720394 0.562127 0.272007
0.744717 0.566766 0.277317
0.765164 0.569574 0.282567
0.776852 0.566522 0.282933
0.786160 0.562402 0.283513
0.790921 0.555535 0.279911
0.793942 0.546197 0.275944
0.797574 0.537346 0.269230
0.251377 0.417060 0.168460
0.344915 0.451301 0.183261
0.436164 0.485908 0.199161
0.498970 0.513146 0.215122
0.555688 0.537926 0.231510
0.606622 0.561486 0.248631
0.645655 0.577722 0.263249
0.681147 0.591821 0.276310
0.715602 0.597894 0.287022
0.746181 0.602502 0.296300
0.769711 0.604730 0.301213
0.789670 0.606653 0.306676
0.800687 0.603052 0.306401
0.808743 0.601312 0.308446
0.815549 0.597040 0.306127
0.819150 0.588281 0.302831
0.822873 0.579034 0.295506
0.306493 0.465950 0.191775
0.395239 0.498360 0.207767
0.480873 0.529717 0.222843
0.536645 0.551843 0.238224
0.588830 0.573297 0.253330
0.633143 0.591211 0.268467
0.673274 0.609033 0.284245
0.709316 0.621546 0.296757
0.738613 0.630732 0.307286
0.770443 0.638148 0.318090
0.792447 0.639796 0.322393
0.810758 0.641291 0.328771
0.821042 0.639277 0.329686
0.828946 0.637293 0.331579
0.835264 0.632288 0.328954
0.843534 0.628809 0.328191
0.845518 0.618830 0.321416
0.359319 0.507195 0.214420
0.440131 0.536217 0.230106
0.515984 0.563104 0.244572
0.567681 0.582757 0.258488
0.616419 0.601801 0.273350
0.661555 0.619410 0.288182
0.695064 0.634394 0.301427
0.734432 0.647669 0.315068
0.765164 0.657221 0.325750
0.789456 0.664912 0.334844
0.808988 0.666102 0.338933
0.826261 0.667170 0.345006
0.835843 0.664790 0.346014
0.844999 0.665064 0.349676
0.852079 0.661921 0.348302
0.858732 0.660060 0.349310
0.865507 0.657008 0.347204
0.403052 0.542260 0.233951
0.477119 0.567895 0.248875
0.546899 0.591882 0.262791
0.597772 0.610498 0.275639
0.637781 0.624689 0.288701
0.683070 0.641566 0.302739
0.715908 0.655085 0.315373
0.750362 0.667994 0.328161
0.784451 0.679225 0.340002
0.805203 0.685725 0.347814
0.824308 0.691646 0.354986
0.841276 0.692195 0.360754
0.850523 0.689174 0.361364
0.857237 0.687160 0.363867
0.862547 0.685481 0.364355
0.869230 0.683680 0.365881
0.877256 0.681697 0.363745
0.440925 0.573175 0.251408
0.508995 0.595605 0.265324
0.574975 0.617609 0.278721
0.624170 0.634363 0.291051
0.661433 0.647456 0.303777
0.701717 0.661952 0.317021
0.735348 0.674739 0.329961
0.766964 0.686976 0.342412
0.798520 0.698390 0.354345
0.818998 0.704952 0.362127
0.837736 0.710750 0.369177
0.855802 0.716365 0.375952
0.863005 0.712825 0.376379
0.868467 0.710292 0.378607
0.873503 0.708339 0.379217
0.879454 0.706691 0.382025
0.888029 0.705257 0.380011
0.468666 0.598108 0.268406
0.534905 0.619898 0.281956
0.598413 0.640497 0.295018
0.645930 0.655085 0.306523
0.681270 0.667170 0.318090
0.716701 0.678340 0.329686
0.749508 0.689998 0.341466
0.779568 0.701289 0.352789
0.805081 0.710781 0.362524
0.826658 0.718593 0.371160
0.844968 0.724269 0.378058
0.860471 0.729824 0.384527
0.873777 0.735073 0.390509
0.879545 0.733150 0.393164
0.884611 0.731289 0.393835
0.890867 0.730770 0.397803
0.895659 0.727199 0.396765
0.486152 0.615930 0.279667
0.550256 0.636866 0.293034
0.613275 0.656306 0.306279
0.662867 0.671351 0.318425
0.696834 0.682399 0.329534
0.731716 0.692653 0.341070
0.760739 0.702022 0.351476
0.788602 0.712367 0.362158
0.812375 0.721157 0.371313
0.833005 0.729152 0.379736
0.850095 0.735775 0.387121
0.863951 0.741268 0.393347
0.877684 0.746700 0.399512
0.887846 0.750576 0.404059
0.893339 0.750546 0.406226
0.897093 0.749630 0.411383
0.902434 0.750179 0.414099
0.503014 0.632807 0.290898
0.565881 0.652338 0.304723
0.627680 0.671046 0.317815
0.678370 0.686427 0.330053
0.712520 0.696437 0.341222
0.746334 0.706264 0.352209
0.775235 0.715114 0.362066
0.796017 0.722560 0.370520
0.819059 0.731014 0.379309
0.841123 0.739223 0.387854
0.853910 0.745205 0.394568
0.867124 0.750881 0.401007
0.880888 0.756313 0.407202
0.891783 0.760830 0.412268
0.897307 0.764065 0.415656
0.901152 0.763485 0.421057
0.906615 0.764553 0.424170
0.516472 0.646357 0.297520
0.581231 0.665461 0.313481
0.641962 0.683711 0.326848
0.693080 0.699031 0.338842
0.726650 0.708949 0.350408
0.759487 0.718715 0.361547
0.788571 0.727535 0.371954
0.806577 0.734096 0.380163
0.825895 0.741238 0.388586
0.846830 0.749264 0.397650
0.859648 0.755337 0.405219
0.871397 0.761166 0.412268
0.883726 0.766384 0.418402
0.893797 0.771237 0.424140
0.899474 0.774563 0.427588
0.905394 0.778042 0.431220
0.910674 0.779141 0.434516
0.534478 0.662257 0.309209
0.597436 0.680812 0.324742
0.657435 0.698512 0.339391
0.706416 0.712428 0.350744
0.738674 0.721736 0.361700
0.771725 0.732235 0.373632
0.802304 0.740932 0.384344
0.819547 0.747066 0.391821
0.836210 0.753017 0.399084
0.851560 0.759274 0.407477
0.865690 0.765560 0.415137
0.877348 0.771237 0.421637
0.887663 0.776608 0.428229
0.895628 0.780667 0.433936
0.901579 0.784115 0.437568
0.907530 0.787686 0.441199
0.912261 0.790890 0.444190
0.034882 0.042634 0.050538
0.050599 0.045106 0.056947
0.089906 0.051667 0.058015
0.137545 0.059876 0.059907
0.195956 0.064759 0.063355
0.256565 0.074586 0.067140
0.308782 0.080415 0.071260
0.356512 0.084932 0.077302
0.391669 0.091951 0.079500
0.415900 0.099763 0.083894
0.437568 0.106142 0.087129
0.458259 0.110719 0.091615
0.479896 0.121431 0.095094
0.501274 0.134310 0.100954
0.518364 0.143557 0.104585
0.532250 0.149233 0.109743
0.543694 0.153597 0.111940
0.034852 0.059236 0.063478
0.066804 0.073518 0.070253
0.117617 0.083680 0.073304
0.176547 0.094606 0.074311
0.239200 0.104677 0.077913
0.303655 0.117800 0.082765
0.358587 0.130678 0.090333
0.402960 0.141329 0.096590
0.440711 0.153140 0.100587
0.472786 0.162661 0.106050
0.496040 0.171206 0.112459
0.517296 0.180453 0.117739
0.536400 0.189303 0.121981
0.551934 0.193729 0.127352
0.562951 0.192538 0.128298
0.577447 0.198672 0.132143
0.590173 0.204471 0.132662
0.045869 0.097017 0.072755
0.085451 0.117433 0.081758
0.157107 0.140505 0.087465
0.217716 0.154482 0.089387
0.291752 0.178164 0.099031
0.359930 0.195438 0.105226
0.412695 0.206638 0.112123
0.460853 0.226596 0.122499
0.501701 0.243229 0.129274
0.532067 0.250187 0.133913
0.554559 0.256168 0.140078
0.573754 0.260990 0.144411
0.590112 0.265141 0.146853
0.604303 0.267674 0.151614
0.613977 0.264683 0.151980
0.622614 0.261051 0.151675
0.634089 0.264744 0.150607
0.060853 0.144564 0.085176
0.114260 0.175174 0.096864
0.183841 0.198703 0.102571
0.264775 0.225681 0.109712
0.334478 0.245579 0.118776
0.406683 0.268437 0.128237
0.465339 0.288640 0.137942
0.514031 0.308293 0.148043
0.557183 0.326055 0.155398
0.588739 0.336217 0.163516
0.610254 0.342321 0.171115
0.627741 0.344518 0.174502
0.642329 0.343633 0.174350
0.655024 0.340398 0.176120
0.664179 0.336736 0.176272
0.671351 0.330999 0.175265
0.677180 0.324590 0.169009
0.083742 0.212955 0.110872
0.151369 0.242191 0.119081
0.230564 0.271244 0.128084
0.312993 0.302495 0.136751
0.382177 0.329534 0.149233
0.447578 0.347356 0.158816
0.508629 0.368414 0.169955
0.557855 0.387152 0.183474
0.600122 0.400427 0.191623
0.633173 0.410224 0.199252
0.656733 0.418280 0.208408
0.673762 0.419226 0.211673
0.686702 0.415015 0.209964
0.699519 0.411963 0.211734
0.706752 0.404150 0.208194
0.712734 0.396277 0.205264
0.717372 0.388769 0.198489
0.119783 0.279454 0.128756
0.193393 0.312322 0.140780
0.273075 0.340398 0.151064
0.356054 0.373785 0.162631
0.431922 0.406836 0.177920
0.494087 0.430152 0.189700
0.549187 0.440864 0.199161
0.597681 0.456611 0.214054
0.639429 0.469093 0.225498
0.672389 0.477241 0.231968
0.695155 0.482765 0.241093
0.711666 0.482216 0.244816
0.725002 0.477760 0.243229
0.737179 0.473793 0.245060
0.743954 0.465553 0.241154
0.748623 0.457649 0.237491
0.753231 0.449470 0.229435
0.161471 0.342138 0.149172
0.239139 0.375402 0.161563
0.317815 0.403265 0.172122
0.399207 0.434485 0.186709
0.469368 0.463905 0.202609
0.537438 0.490455 0.217502
0.589960 0.508537 0.230076
0.635431 0.521050 0.242527
0.673732 0.529961 0.253086
0.707881 0.537774 0.263920
0.728756 0.540093 0.271550
0.746151 0.540093 0.275364
0.759487 0.535607 0.274205
0.770626 0.532128 0.277745
0.776638 0.523766 0.274327
0.780819 0.515160 0.270665
0.785367 0.504387 0.258671
0.203342 0.401587 0.178958
0.286473 0.428199 0.185153
0.370520 0.458595 0.199710
0.447120 0.486366 0.213687
0.508293 0.511223 0.228824
0.571710 0.535058 0.244205
0.629480 0.555871 0.257633
0.665614 0.568322 0.270146
0.702144 0.573419 0.279301
0.730404 0.575921 0.288090
0.754055 0.579278 0.295720
0.771298 0.580133 0.300237
0.781552 0.576989 0.301060
0.794003 0.575799 0.304936
0.803555 0.570977 0.302770
0.808774 0.563806 0.299992
0.813077 0.553918 0.288609
0.247166 0.450172 0.201328
0.339635 0.475502 0.206760
0.413642 0.501518 0.221164
0.485878 0.527214 0.234653
0.546410 0.550622 0.249729
0.596155 0.570245 0.265568
0.657588 0.592920 0.280491
0.695094 0.605035 0.293309
0.729732 0.615686 0.304784
0.757290 0.617060 0.312901
0.775662 0.615412 0.317815
0.791135 0.615991 0.323064
0.801602 0.613581 0.325353
0.813809 0.612116 0.329290
0.824247 0.607294 0.326024
0.831174 0.603754 0.326513
0.833585 0.593744 0.316197
0.292760 0.490913 0.218387
0.385138 0.519005 0.232090
0.456153 0.543847 0.246098
0.523247 0.567163 0.259312
0.581903 0.588067 0.273686
0.628656 0.605951 0.288029
0.674922 0.622339 0.301976
0.716915 0.636988 0.315892
0.750698 0.647364 0.327062
0.780118 0.655665 0.336461
0.797238 0.652888 0.340795
0.809842 0.649683 0.344030
0.819821 0.646723 0.346807
0.832517 0.646418 0.352361
0.841123 0.641443 0.348760
0.847074 0.637781 0.349523
0.854307 0.633173 0.342535
0.328527 0.525658 0.241520
0.422919 0.552911 0.251713
0.491463 0.576776 0.265263
0.553216 0.596765 0.277104
0.606195 0.614893 0.290135
0.650629 0.631220 0.304204
0.693080 0.645350 0.318120
0.730251 0.658503 0.331426
0.764157 0.669673 0.343359
0.792172 0.677363 0.352209
0.815488 0.684077 0.360082
0.829252 0.683223 0.364660
0.837919 0.680110 0.367346
0.845365 0.676478 0.372320
0.856535 0.674678 0.371221
0.862364 0.670558 0.371679
0.871336 0.668269 0.366552
0.358373 0.556481 0.267582
0.458015 0.582666 0.273045
0.520867 0.603174 0.285557
0.579217 0.621332 0.296574
0.628779 0.637598 0.308141
0.668360 0.650813 0.320928
0.709041 0.663996 0.333684
0.744320 0.676173 0.345617
0.772702 0.685908 0.355718
0.801205 0.694301 0.365057
0.826261 0.701320 0.373175
0.841703 0.706874 0.379644
0.849454 0.704189 0.382605
0.857420 0.702235 0.388525
0.868284 0.701442 0.389502
0.876249 0.700557 0.392187
0.884337 0.698756 0.388464
0.388098 0.581842 0.284306
0.477760 0.602716 0.284855
0.540795 0.621942 0.298161
0.598016 0.639735 0.309056
0.647272 0.655085 0.319707
0.682063 0.665492 0.331060
0.721553 0.678523 0.344030
0.755886 0.690028 0.355993
0.780118 0.699306 0.365850
0.807370 0.708583 0.376135
0.832334 0.715969 0.384619
0.846860 0.721584 0.390997
0.860533 0.727016 0.397131
0.868559 0.725216 0.403174
0.879515 0.724575 0.404242
0.884794 0.722652 0.407843
0.890074 0.720150 0.406134
0.404120 0.598871 0.293095
0.500206 0.624292 0.301732
0.561669 0.642908 0.314763
0.619410 0.660578 0.326513
0.665888 0.673762 0.336339
0.699794 0.684199 0.348028
0.734249 0.695064 0.359838
0.767941 0.705196 0.371435
0.791501 0.714260 0.381079
0.814542 0.723018 0.390143
0.835782 0.730922 0.398871
0.851621 0.736690 0.405402
0.865415 0.742123 0.411597
0.878538 0.747585 0.417884
0.886015 0.744595 0.418799
0.890745 0.742641 0.422705
0.897063 0.743923 0.424140
0.418280 0.615259 0.304265
0.519829 0.642878 0.314488
0.579767 0.661006 0.327184
0.635279 0.677363 0.339025
0.681880 0.690242 0.348852
0.713893 0.699519 0.359075
0.745327 0.708736 0.369512
0.777188 0.717861 0.380194
0.801114 0.726528 0.389013
0.822080 0.734676 0.397681
0.839261 0.741970 0.406836
0.856077 0.748867 0.414771
0.869963 0.754360 0.421027
0.880980 0.759579 0.427344
0.892088 0.764981 0.433967
0.896941 0.763485 0.438209
0.903471 0.765499 0.440162
0.433570 0.630213 0.315038
0.536553 0.658595 0.322698
0.595148 0.676265 0.335241
0.646632 0.690761 0.346349
0.695644 0.704524 0.357061
0.726406 0.713252 0.367071
0.757595 0.722225 0.378332
0.787747 0.730922 0.389288
0.810178 0.738582 0.398322
0.828092 0.745937 0.407721
0.844877 0.753048 0.417182
0.861051 0.759976 0.426184
0.871763 0.765164 0.432441
0.882628 0.770474 0.438911
0.893950 0.775998 0.445686
0.901640 0.780240 0.450355
0.906493 0.780423 0.452216
0.453925 0.646571 0.326268
0.553765 0.673274 0.332219
0.610468 0.689509 0.346044
0.661067 0.703731 0.356939
0.709194 0.717281 0.367315
0.738643 0.725826 0.377478
0.768368 0.734249 0.387884
0.797513 0.742458 0.398016
0.819120 0.749538 0.406989
0.833860 0.755825 0.415686
0.850401 0.762753 0.424536
0.867399 0.769863 0.433875
0.876371 0.775235 0.441382
0.884428 0.779507 0.447517
0.896147 0.785245 0.454505
0.903197 0.789303 0.459205
0.908141 0.792660 0.462318
0.032136 0.041169 0.062348
0.045838 0.042756 0.066926
0.076814 0.047974 0.075441
0.119173 0.054810 0.078981
0.168338 0.061006 0.080140
0.229038 0.069581 0.087526
0.285863 0.076081 0.091646
0.335515 0.081453 0.095735
0.372778 0.088136 0.097841
0.406653 0.094881 0.102510
0.432197 0.099123 0.104372
0.453010 0.103853 0.108492
0.474708 0.114687 0.111513
0.492470 0.120729 0.117098
0.505730 0.124056 0.118410
0.519921 0.130190 0.123262
0.531395 0.134646 0.124636
0.032227 0.058564 0.077790
0.061769 0.070008 0.085634
0.099519 0.074525 0.093599
0.156130 0.083772 0.092805
0.210758 0.093629 0.095399
0.274266 0.101595 0.099458
0.331151 0.113588 0.103029
0.376989 0.121950 0.107485
0.413794 0.125643 0.111971
0.445808 0.132784 0.114687
0.473243 0.140902 0.116396
0.493172 0.147646 0.120333
0.508110 0.150729 0.125673
0.523033 0.154177 0.129641
0.537194 0.157076 0.128878
0.551324 0.162325 0.130831
0.562554 0.165743 0.131594
0.035096 0.086885 0.099306
0.067597 0.105867 0.112520
0.122591 0.116396 0.115785
0.183291 0.131380 0.119783
0.247959 0.142275 0.118868
0.310796 0.154086 0.122713
0.373053 0.171725 0.130892
0.427802 0.182650 0.133547
0.468116 0.193240 0.140871
0.496437 0.200046 0.142733
0.524041 0.208530 0.150271
0.541558 0.207889 0.152193
0.557183 0.210025 0.157778
0.571344 0.212802 0.159335
0.586389 0.216403 0.160067
0.598810 0.217624 0.157534
0.611292 0.222171 0.159335
0.045563 0.134340 0.115511
0.097353 0.164431 0.126162
0.153964 0.176913 0.133852
0.230198 0.201999 0.140475
0.297490 0.218753 0.141909
0.367102 0.240696 0.149264
0.429664 0.256779 0.156832
0.482826 0.265354 0.158785
0.522545 0.280095 0.170596
0.552178 0.286320 0.173800
0.578363 0.292546 0.180545
0.594293 0.289494 0.181582
0.609369 0.289738 0.187167
0.621942 0.286381 0.184817
0.635401 0.286748 0.183780
0.646479 0.286076 0.180636
0.652796 0.279484 0.176669
0.060334 0.197787 0.128603
0.118257 0.221744 0.142397
0.188266 0.244419 0.150515
0.263737 0.270329 0.157656
0.347967 0.300084 0.167452
0.413031 0.317693 0.173831
0.476570 0.334874 0.183566
0.528557 0.347265 0.189761
0.569879 0.362585 0.201114
0.600397 0.368383 0.203586
0.628534 0.374182 0.211490
0.646876 0.371801 0.213626
0.661067 0.370825 0.219272
0.672389 0.365515 0.216129
0.682948 0.357153 0.209018
0.693019 0.354314 0.205020
0.699825 0.350591 0.204105
0.085328 0.260380 0.149599
0.152255 0.289250 0.165927
0.227298 0.311070 0.169589
0.305364 0.338354 0.180362
0.390082 0.370764 0.191562
0.458717 0.394537 0.203311
0.517021 0.407630 0.214206
0.568811 0.419013 0.220005
0.609705 0.432105 0.232731
0.638392 0.435004 0.235813
0.666773 0.441688 0.245609
0.687190 0.439124 0.246708
0.703029 0.438666 0.251865
0.714534 0.433753 0.248203
0.723964 0.427497 0.243565
0.734066 0.420630 0.235538
0.740536 0.415259 0.232639
0.116518 0.322057 0.171176
0.197848 0.353887 0.184634
0.271244 0.375250 0.192020
0.343999 0.400122 0.204501
0.423957 0.431312 0.217319
0.501793 0.461280 0.233036
0.560479 0.480476 0.244694
0.604883 0.483558 0.249424
0.643275 0.490883 0.262058
0.672084 0.493904 0.267308
0.700038 0.500389 0.278172
0.721309 0.497566 0.278325
0.734829 0.495674 0.282902
0.746853 0.492592 0.282109
0.756374 0.486152 0.277989
0.766506 0.478492 0.269169
0.773678 0.471351 0.261234
0.152193 0.386175 0.192660
0.233616 0.411566 0.204410
0.314641 0.433234 0.215366
0.385290 0.457343 0.227481
0.457435 0.483497 0.241520
0.531090 0.510979 0.256168
0.592157 0.533257 0.269718
0.643061 0.547021 0.280705
0.677089 0.548669 0.290959
0.702388 0.547631 0.295476
0.731380 0.555077 0.307286
0.748531 0.551995 0.310063
0.762997 0.549462 0.312779
0.774838 0.546227 0.312169
0.786374 0.541070 0.310124
0.796689 0.533165 0.301305
0.801633 0.526421 0.295384
0.193637 0.435889 0.216709
0.275853 0.461891 0.234836
0.359716 0.483528 0.239628
0.427955 0.506432 0.251896
0.496040 0.528893 0.265324
0.557458 0.551293 0.280247
0.615747 0.571099 0.294713
0.667933 0.586603 0.307042
0.708003 0.598108 0.317784
0.731350 0.596796 0.321569
0.751919 0.597772 0.332555
0.772305 0.598718 0.336736
0.789029 0.599084 0.340795
0.799466 0.594903 0.340673
0.810330 0.590631 0.339269
0.822354 0.586664 0.336126
0.827390 0.579095 0.329046
0.230838 0.477211 0.244236
0.321508 0.505791 0.261051
0.401068 0.522698 0.261631
0.462654 0.542260 0.273289
0.526940 0.562554 0.285252
0.586206 0.583032 0.298650
0.631556 0.598321 0.312139
0.684504 0.615137 0.325353
0.724910 0.626642 0.335698
0.752956 0.634333 0.344579
0.772946 0.634363 0.354955
0.790219 0.632105 0.358282
0.807309 0.632136 0.362036
0.816556 0.630030 0.364294
0.826505 0.626307 0.363775
0.840116 0.623926 0.359838
0.848844 0.621363 0.357977
0.259525 0.511467 0.266606
0.359777 0.539818 0.278782
0.439673 0.558312 0.284825
0.497780 0.576379 0.295811
0.556359 0.594568 0.306676
0.613306 0.613184 0.320409
0.655146 0.627894 0.334478
0.699977 0.643061 0.347906
0.739467 0.654932 0.359594
0.766903 0.662470 0.368292
0.793362 0.669764 0.376654
0.808652 0.666194 0.379217
0.819883 0.661830 0.381048
0.829343 0.659846 0.383948
0.841886 0.660121 0.387213
0.855436 0.658045 0.383948
0.867247 0.658442 0.383795
0.282750 0.541131 0.285832
0.387610 0.569146 0.296056
0.473457 0.589837 0.305791
0.530053 0.607477 0.316472
0.582727 0.623316 0.326543
0.635615 0.639094 0.338354
0.675044 0.652522 0.350835
0.712154 0.664515 0.362829
0.749508 0.675288 0.373602
0.778500 0.684504 0.383429
0.802853 0.691463 0.391455
0.822751 0.697841 0.398779
0.833829 0.693111 0.400366
0.843015 0.690486 0.402869
0.855192 0.690883 0.408179
0.869169 0.690883 0.407813
0.876677 0.687678 0.406775
0.312505 0.567071 0.301457
0.409400 0.591424 0.309667
0.500053 0.615259 0.320348
0.555261 0.632441 0.330785
0.603998 0.646021 0.340368
0.652399 0.660334 0.350622
0.690730 0.673396 0.362768
0.725216 0.683680 0.374212
0.758724 0.693446 0.385657
0.787503 0.702724 0.396033
0.809171 0.710170 0.404456
0.828794 0.716487 0.411658
0.847196 0.722591 0.418677
0.856992 0.721798 0.422217
0.867063 0.719905 0.426825
0.877897 0.719234 0.430213
0.886290 0.717647 0.430304
0.334600 0.586969 0.316533
0.434302 0.613642 0.326818
0.523796 0.638056 0.336889
0.576593 0.653346 0.347662
0.624140 0.666468 0.357061
0.670161 0.679500 0.366339
0.702998 0.689021 0.376684
0.736141 0.698421 0.387274
0.768460 0.707576 0.397559
0.792569 0.715846 0.406897
0.812833 0.723659 0.415717
0.832792 0.730251 0.423194
0.852445 0.736599 0.430457
0.863462 0.741817 0.436805
0.873594 0.740932 0.442176
0.885100 0.741695 0.446357
0.894713 0.744503 0.450507
0.352026 0.604578 0.329473
0.455573 0.632471 0.338964
0.539696 0.653559 0.345403
0.591180 0.668025 0.356512
0.637873 0.680964 0.365850
0.682185 0.693172 0.374670
0.714473 0.702510 0.385748
0.745693 0.711666 0.396643
0.777310 0.720882 0.407202
0.801053 0.729000 0.417456
0.818418 0.736538 0.427008
0.838071 0.744381 0.436225
0.856657 0.750820 0.444160
0.868437 0.756313 0.450965
0.879820 0.761868 0.457740
0.891508 0.763302 0.462440
0.900114 0.764950 0.466926
0.365545 0.618647 0.337896
0.472663 0.648096 0.346105
0.555779 0.670710 0.357244
0.606012 0.684840 0.368078
0.654047 0.698360 0.378424
0.695827 0.709072 0.387304
0.727993 0.718196 0.397742
0.757626 0.727047 0.408362
0.785855 0.735256 0.418311
0.810544 0.743160 0.427985
0.827329 0.750240 0.436591
0.844480 0.757534 0.445563
0.861112 0.764858 0.456062
0.874052 0.770626 0.463294
0.885771 0.776364 0.470283
0.895598 0.781552 0.478340
0.903410 0.782284 0.483009
0.377935 0.631891 0.343023
0.480140 0.659632 0.354742
0.569299 0.684749 0.361700
0.618494 0.698573 0.372290
0.664118 0.711116 0.382147
0.705379 0.721767 0.391058
0.737026 0.730312 0.400153
0.765530 0.738521 0.409796
0.792752 0.746914 0.422126
0.818387 0.755093 0.434180
0.834623 0.761990 0.443336
0.851011 0.769345 0.453986
0.867674 0.777096 0.466163
0.879057 0.782742 0.474647
0.889494 0.788052 0.482124
0.898772 0.793118 0.490639
0.905821 0.797421 0.496223
0.033204 0.043427 0.074891
0.039216 0.043061 0.076661
0.072175 0.048585 0.086183
0.108919 0.053895 0.093446
0.154757 0.059388 0.097536
0.206943 0.069368 0.104067
0.263401 0.075624 0.108827
0.315404 0.080812 0.115389
0.357733 0.087434 0.121645
0.391852 0.093050 0.125673
0.419165 0.096559 0.125948
0.444038 0.099519 0.128420
0.462959 0.104585 0.132815
0.480964 0.109468 0.137545
