assets/luts/impulz-fujicolor-200-fc-log-a13f7773.cube
# (C) 2014 VisionColor & Patchflyer [www.vision-color.com]
# Generator: VC Patchmatch v.2.1.1 [64/53]
# All work and no play makes Jack a dull boy.
# LUT generated from: FujiColor 200_FC
LUT_3D_SIZE 9
0.023743 0.023743 0.023743
0.094392 0.047700 0.027802
0.198520 0.074037 0.011200
0.280735 0.098970 0.004852
0.335454 0.111177 0.002808
0.386572 0.120546 0.002564
0.430030 0.126925 0.002686
0.482063 0.136202 0.003388
0.586877 0.156039 0.011749
0.033692 0.077882 0.058717
0.074983 0.081270 0.036469
0.181582 0.114260 0.020996
0.282322 0.138155 0.007446
0.373449 0.155886 0.004944
0.453620 0.171664 0.004395
0.511650 0.181704 0.003571
0.579004 0.198093 0.006470
0.683009 0.229435 0.023713
0.073610 0.155978 0.112520
0.109957 0.162997 0.064271
0.173556 0.162478 0.036561
0.286534 0.185946 0.015564
0.402609 0.208377 0.012177
0.524346 0.240146 0.016419
0.622797 0.263310 0.015686
0.700282 0.297368 0.029267
0.763058 0.339910 0.066011
0.121767 0.239292 0.162966
0.167697 0.263340 0.095827
0.241215 0.263035 0.054505
0.313695 0.258885 0.041260
0.443442 0.289860 0.038392
0.577600 0.330022 0.048371
0.692195 0.363561 0.056672
0.766018 0.406653 0.077760
0.801114 0.449470 0.116030
0.159548 0.349279 0.221653
0.224887 0.388144 0.137270
0.325704 0.391302 0.094881
0.412375 0.387366 0.079072
0.493645 0.392142 0.078218
0.626703 0.428931 0.091890
0.738460 0.470344 0.110658
0.805905 0.513695 0.138033
0.830076 0.551019 0.173556
0.183505 0.458228 0.286870
0.271092 0.508446 0.181155
0.406531 0.509148 0.143038
0.499397 0.504417 0.127474
0.578302 0.502922 0.122866
0.671763 0.520806 0.136873
0.771328 0.563836 0.168368
0.828397 0.602777 0.201724
0.845731 0.633661 0.236240
0.183200 0.548852 0.365393
0.285771 0.606165 0.245640
0.444770 0.600732 0.183474
0.554284 0.590387 0.164004
0.642390 0.586816 0.167269
0.727474 0.610437 0.196536
0.796048 0.642847 0.240360
0.852293 0.687648 0.282994
0.864988 0.711849 0.311315
0.183017 0.620356 0.450660
0.283940 0.685298 0.338506
0.446296 0.677882 0.233921
0.572381 0.647822 0.189792
0.678920 0.643000 0.198123
0.777798 0.682399 0.252659
0.842527 0.730312 0.332158
0.869078 0.754910 0.385870
0.878111 0.773953 0.416876
0.205692 0.685389 0.534142
0.304845 0.737514 0.432319
0.449592 0.726772 0.308110
0.553704 0.686641 0.219120
0.653346 0.657740 0.198825
0.776211 0.700099 0.257176
0.860441 0.765560 0.385840
0.879637 0.801511 0.485267
0.884916 0.813291 0.515160
0.019440 0.036530 0.073243
0.077424 0.051362 0.096925
0.192416 0.080812 0.101198
0.306554 0.105470 0.103090
0.411536 0.118105 0.096834
0.489174 0.120912 0.095064
0.560327 0.120699 0.091035
0.626245 0.122225 0.091402
0.697963 0.140993 0.111482
0.037903 0.088441 0.104036
0.087373 0.093477 0.094545
0.228061 0.122286 0.073426
0.360784 0.135470 0.047547
0.444038 0.138613 0.027466
0.483162 0.138399 0.010742
0.509789 0.140871 0.007263
0.584833 0.155306 0.011475
0.738186 0.206485 0.074250
0.070314 0.169070 0.158724
0.118807 0.184085 0.143343
0.215854 0.194278 0.080659
0.367147 0.204593 0.054658
0.501747 0.221653 0.044129
0.592584 0.226230 0.024170
0.640436 0.238529 0.021698
0.710750 0.261051 0.034180
0.797574 0.321294 0.108400
0.112642 0.252079 0.216617
0.160555 0.302647 0.197421
0.276936 0.328008 0.110994
0.398093 0.322499 0.088228
0.550057 0.342535 0.079011
0.678126 0.356939 0.070985
0.754086 0.380987 0.073793
0.789456 0.407721 0.097261
0.826688 0.453376 0.162417
0.148135 0.352789 0.287358
0.188266 0.434379 0.265751
0.352850 0.480522 0.158755
0.490471 0.472038 0.133242
0.606180 0.478050 0.132631
0.734981 0.499123 0.140322
0.806668 0.526268 0.152529
0.830320 0.544213 0.171664
0.847623 0.567468 0.217502
0.170596 0.451179 0.364599
0.188327 0.541527 0.352483
0.367895 0.596918 0.206516
0.544274 0.583185 0.171878
0.667994 0.585748 0.181338
0.774472 0.618402 0.220859
0.840360 0.647303 0.242466
0.856046 0.658686 0.257267
0.863584 0.669367 0.291447
0.171633 0.533532 0.443244
0.182040 0.622736 0.441108
0.352300 0.683864 0.282231
0.551598 0.657679 0.202884
0.700298 0.659449 0.215152
0.819852 0.709987 0.298558
0.868742 0.752285 0.377691
0.874113 0.754269 0.376806
0.874968 0.749752 0.382910
0.174472 0.606561 0.523217
0.207034 0.683223 0.526177
0.358801 0.736019 0.381170
0.522881 0.701900 0.246006
0.657511 0.668971 0.212497
0.807492 0.722255 0.303044
0.876219 0.794491 0.459113
0.884611 0.812772 0.516381
0.882383 0.805661 0.496223
0.209415 0.680476 0.610071
0.266575 0.739254 0.577417
0.414527 0.764858 0.452949
0.545159 0.740414 0.328771
0.658457 0.716060 0.271214
0.792203 0.741756 0.329656
0.869322 0.798062 0.471534
0.886503 0.837003 0.575616
0.888426 0.842557 0.588342
0.015473 0.053529 0.132876
0.054261 0.066285 0.166567
0.156741 0.085206 0.188846
0.270237 0.105135 0.190433
0.388434 0.119997 0.192508
0.478279 0.127596 0.198459
0.555230 0.122530 0.196078
0.627344 0.119448 0.200748
0.702907 0.134524 0.217227
0.032929 0.112947 0.159182
0.056062 0.097810 0.153841
0.176577 0.122652 0.208286
0.337102 0.136965 0.188022
0.464332 0.142489 0.175174
0.555871 0.135653 0.155917
0.631952 0.127901 0.143923
0.701534 0.138735 0.149355
0.787289 0.186770 0.201633
0.067201 0.186160 0.223056
0.111299 0.203006 0.237766
0.182437 0.180148 0.182742
0.370459 0.198581 0.164920
0.531441 0.195315 0.131930
0.640894 0.190066 0.096773
0.701869 0.190005 0.070436
0.748379 0.208255 0.078767
0.843442 0.290074 0.193912
0.106416 0.270573 0.286046
0.142306 0.314549 0.302098
0.211673 0.300908 0.233463
0.379995 0.320745 0.173526
0.563088 0.338689 0.159243
0.707332 0.344366 0.138277
0.788876 0.357275 0.123110
0.814298 0.375708 0.133364
0.864286 0.436683 0.225895
0.134218 0.365942 0.358251
0.166476 0.430549 0.380255
0.238010 0.462699 0.290959
0.449332 0.486320 0.213840
0.604074 0.493980 0.198947
0.751308 0.508370 0.196384
0.826993 0.527321 0.190799
0.844816 0.541787 0.206790
0.868986 0.578592 0.291371
0.153170 0.457893 0.437171
0.169497 0.524712 0.458717
0.233890 0.596246 0.367742
0.499367 0.631098 0.251041
0.679347 0.631556 0.256870
0.797848 0.656977 0.287877
0.859220 0.671382 0.292576
0.864469 0.680049 0.307103
0.874968 0.703975 0.380957
0.157961 0.532738 0.510124
0.171664 0.602380 0.541772
0.223423 0.684260 0.465553
0.482048 0.716457 0.307164
0.694438 0.709346 0.275700
0.837217 0.745907 0.362219
0.876768 0.782467 0.449104
0.878721 0.777218 0.446479
0.880552 0.783566 0.479530
0.171328 0.607294 0.589837
0.211460 0.678859 0.628229
0.264317 0.740749 0.564416
0.473335 0.759762 0.400671
0.643198 0.728786 0.293431
0.810086 0.762722 0.376257
0.880766 0.823514 0.535271
0.887419 0.839780 0.584710
0.886381 0.834318 0.583093
0.219242 0.684230 0.674342
0.263676 0.729793 0.670558
0.362402 0.777646 0.625727
0.534630 0.799802 0.531273
0.675059 0.793301 0.453834
0.812924 0.807462 0.482155
0.877379 0.842466 0.593896
0.889006 0.862425 0.665431
0.889311 0.860838 0.659419
0.012940 0.076387 0.172152
0.040650 0.087343 0.212467
0.125734 0.094575 0.247227
0.221317 0.109255 0.259983
0.343908 0.121950 0.262058
0.445777 0.131014 0.272923
0.521630 0.130404 0.275486
0.593805 0.127962 0.282170
0.674495 0.134585 0.294774
0.035462 0.135103 0.208591
0.038575 0.110719 0.193149
0.111666 0.120577 0.267796
0.256535 0.136477 0.299779
0.407721 0.142336 0.286412
0.513664 0.140902 0.275303
0.596002 0.132113 0.267185
0.680812 0.135531 0.265568
0.768887 0.174350 0.300542
0.066194 0.204776 0.274510
0.081758 0.201297 0.276799
0.125521 0.171054 0.238773
0.265782 0.187015 0.309026
0.451820 0.192996 0.285344
0.593805 0.187686 0.268315
0.709194 0.174411 0.245396
0.782345 0.182528 0.243473
0.837583 0.267857 0.327337
0.104952 0.294896 0.360937
0.134463 0.340429 0.411017
0.189761 0.310460 0.359289
0.292973 0.281010 0.309712
0.532937 0.297002 0.281682
0.721309 0.291783 0.247272
0.818723 0.288121 0.220356
0.861112 0.305486 0.222843
0.874388 0.406134 0.342794
0.129030 0.382971 0.429694
0.150088 0.445624 0.484398
0.209293 0.452079 0.435782
0.325872 0.453544 0.367834
0.531685 0.474815 0.322560
0.747158 0.488945 0.289540
0.843503 0.501869 0.271504
0.873014 0.509621 0.278340
0.874418 0.565469 0.395956
0.144564 0.466804 0.500847
0.156313 0.530938 0.553643
0.204257 0.563256 0.513573
0.328313 0.627802 0.422339
0.602075 0.654597 0.375555
0.768566 0.670344 0.396612
0.858640 0.689693 0.386908
0.875029 0.695766 0.394507
0.878355 0.717739 0.494545
0.151675 0.537438 0.567529
0.169924 0.604761 0.621820
0.202213 0.648005 0.603357
0.321691 0.740047 0.505852
0.630716 0.765347 0.430976
0.812619 0.780392 0.476448
0.873808 0.806760 0.536431
0.883146 0.807279 0.540795
0.886046 0.816587 0.603326
0.173739 0.609827 0.639429
0.222049 0.684627 0.693965
0.261601 0.725124 0.689601
0.370825 0.779568 0.614893
0.622812 0.802457 0.514458
0.813825 0.823301 0.528832
0.882353 0.856748 0.640955
0.889128 0.859922 0.665736
0.890501 0.864225 0.697047
0.226261 0.688533 0.711055
0.272068 0.730159 0.728145
0.342565 0.767178 0.720851
0.496040 0.815641 0.710964
0.676616 0.849882 0.684779
0.808957 0.860502 0.677699
0.878569 0.874449 0.727199
0.894072 0.882353 0.769741
0.894682 0.882017 0.765805
0.012726 0.099184 0.196933
0.032441 0.109377 0.238071
0.083162 0.106844 0.297307
0.193484 0.112551 0.318059
0.288609 0.125826 0.326970
0.399634 0.134218 0.332219
0.481666 0.140444 0.341894
0.556054 0.141970 0.353429
0.634180 0.144533 0.366186
0.031281 0.151766 0.242802
0.026062 0.125643 0.226474
0.063050 0.130159 0.305577
0.192966 0.130892 0.364477
0.334203 0.145663 0.379644
0.457023 0.147250 0.365332
0.545830 0.144961 0.361212
0.633143 0.145907 0.361242
0.726833 0.171847 0.383398
0.057496 0.215030 0.317632
0.055695 0.209110 0.324804
0.088106 0.171817 0.273320
0.182650 0.176242 0.381628
0.348302 0.188479 0.404211
0.492821 0.187839 0.382071
0.623743 0.176272 0.370016
0.732143 0.176364 0.366857
0.801389 0.249363 0.420874
0.094331 0.305486 0.402289
0.104555 0.329595 0.442145
0.140993 0.295201 0.402808
0.196841 0.255436 0.384253
0.386481 0.272709 0.447379
0.583902 0.273503 0.423301
0.738216 0.262638 0.396384
0.816953 0.276341 0.391180
0.844602 0.376745 0.460853
0.119783 0.396399 0.483528
0.136233 0.455604 0.547448
0.193851 0.457313 0.531548
0.298466 0.448478 0.500374
0.445945 0.435935 0.474845
0.671916 0.442496 0.445151
0.806271 0.447532 0.422477
0.862486 0.450950 0.405783
0.861662 0.547799 0.512795
0.138521 0.473152 0.546868
0.154147 0.535454 0.612848
0.193912 0.559716 0.603693
0.293492 0.587457 0.569116
0.466545 0.623087 0.521874
0.683543 0.644511 0.525505
0.835935 0.665202 0.499977
0.874174 0.670604 0.505699
0.873594 0.716930 0.599847
0.152560 0.544244 0.610712
0.172366 0.604395 0.669642
0.203677 0.646021 0.682124
0.273625 0.691188 0.652918
0.484947 0.771237 0.609949
0.746838 0.802426 0.607904
0.864927 0.826596 0.657710
0.885924 0.828122 0.657435
0.888945 0.834226 0.709316
0.174105 0.607752 0.670405
0.220706 0.677363 0.724453
0.266148 0.724239 0.741939
0.344945 0.764981 0.735195
0.526772 0.829282 0.714351
0.771435 0.861662 0.701961
0.878599 0.878019 0.752224
0.896727 0.883909 0.780362
0.898955 0.887755 0.805264
0.222263 0.680293 0.726314
0.273930 0.728939 0.752071
0.349645 0.765774 0.764462
0.487999 0.817716 0.777157
0.659281 0.858854 0.792386
0.814572 0.884001 0.806760
0.885039 0.895354 0.827573
0.905303 0.902312 0.849577
0.907713 0.902983 0.853208
0.013794 0.120455 0.224613
0.025910 0.130587 0.262364
0.049042 0.120089 0.345159
0.161532 0.117952 0.380987
0.262577 0.125643 0.386389
0.353399 0.137728 0.392706
0.446906 0.144564 0.399359
0.527337 0.151125 0.410346
0.597040 0.157473 0.423255
0.020203 0.169986 0.286839
0.009430 0.141451 0.266300
0.021942 0.144869 0.330327
0.107713 0.130373 0.427771
0.269123 0.137301 0.438361
0.403479 0.150607 0.445014
0.509026 0.154055 0.436500
0.589288 0.160861 0.437171
0.672724 0.181979 0.451728
0.041047 0.233707 0.368902
0.014649 0.214969 0.370153
0.043641 0.180179 0.326085
0.101579 0.171267 0.419562
0.259846 0.171023 0.478645
0.416846 0.183841 0.477791
0.553887 0.183413 0.461097
0.661219 0.185702 0.459663
0.754879 0.237766 0.490425
0.079469 0.317174 0.443824
0.055726 0.324010 0.483009
0.080827 0.287633 0.449287
0.132708 0.239445 0.402838
0.256733 0.239048 0.535760
0.456672 0.251652 0.536187
0.614527 0.247257 0.498695
0.748257 0.254612 0.494118
0.804501 0.342428 0.531426
0.106600 0.409308 0.518669
0.106294 0.442176 0.564141
0.146334 0.430686 0.552911
0.211933 0.408988 0.530297
0.302693 0.375387 0.543816
0.526757 0.400931 0.589868
0.698848 0.395102 0.555657
0.800015 0.400870 0.535607
0.830655 0.512703 0.600305
0.124269 0.474525 0.574884
0.139895 0.534661 0.638972
0.182681 0.553094 0.643061
0.280476 0.577966 0.643183
0.432853 0.607263 0.640101
0.614023 0.618540 0.633295
0.775082 0.614542 0.610727
0.846159 0.617655 0.600717
0.865782 0.700648 0.678584
0.150423 0.547265 0.638086
0.163516 0.599603 0.695491
0.192538 0.627527 0.710994
0.269200 0.678492 0.717800
0.434195 0.743893 0.718990
0.637888 0.781369 0.695460
0.827390 0.814908 0.726497
0.880034 0.812833 0.719112
0.888670 0.828946 0.760098
0.170687 0.602441 0.690150
0.196658 0.643946 0.726070
0.242100 0.694240 0.750393
0.346746 0.758816 0.777615
0.505959 0.820066 0.790799
0.697093 0.863310 0.787961
0.868559 0.889525 0.819028
0.902617 0.899046 0.849485
0.904448 0.895079 0.846220
0.203281 0.653101 0.727993
0.253391 0.705013 0.754971
0.347295 0.761563 0.783963
0.502770 0.825010 0.814237
0.664652 0.864073 0.837705
0.807157 0.891600 0.856596
0.880674 0.904662 0.866514
0.905974 0.908507 0.876310
0.908660 0.911894 0.882689
0.005432 0.140688 0.259190
0.013794 0.147219 0.291752
0.011780 0.133883 0.372503
0.109697 0.123629 0.442756
0.231052 0.128481 0.441108
0.321477 0.137331 0.444770
0.415656 0.147738 0.450263
0.507652 0.153628 0.460548
0.574029 0.162417 0.469642
0.004273 0.181735 0.320439
0.000641 0.150729 0.269291
0.001678 0.154086 0.331548
0.046601 0.132815 0.463172
0.202502 0.132418 0.493324
0.343206 0.142092 0.498634
0.477363 0.156435 0.503105
0.563500 0.164553 0.501274
0.630274 0.190311 0.506371
0.008698 0.244694 0.408118
0.000427 0.209049 0.355688
0.001587 0.181735 0.342687
0.025696 0.173709 0.443885
0.149554 0.158175 0.546105
0.329839 0.165133 0.559533
0.499428 0.179446 0.557549
0.605707 0.193393 0.535943
0.699825 0.234440 0.550744
0.045899 0.330999 0.493751
0.014557 0.324681 0.501671
0.013519 0.280949 0.475593
0.043595 0.236088 0.455116
0.128374 0.215488 0.572183
0.324407 0.219028 0.633600
0.523400 0.231357 0.616846
0.664240 0.244297 0.578027
0.756039 0.313329 0.593591
0.090822 0.416144 0.551232
0.076295 0.442817 0.590997
0.087694 0.417060 0.578180
0.119615 0.372396 0.545739
0.174792 0.328817 0.555276
0.352850 0.341848 0.685695
0.580407 0.356649 0.673762
0.724666 0.352621 0.621942
0.789944 0.471244 0.651148
0.106325 0.477363 0.599268
0.115938 0.519585 0.644007
0.142367 0.525048 0.648066
0.204013 0.530968 0.647425
0.304326 0.545495 0.667018
0.439048 0.543099 0.703517
0.684962 0.576333 0.722927
0.785519 0.565560 0.685267
0.847135 0.673228 0.738125
0.138155 0.544060 0.651057
0.143496 0.585626 0.700496
0.163577 0.600153 0.709926
0.231632 0.637720 0.724605
0.384543 0.716274 0.759487
0.593088 0.774014 0.780606
0.790036 0.805234 0.796811
0.868925 0.795834 0.772519
0.889769 0.838712 0.817960
0.156710 0.595117 0.698573
0.161349 0.616510 0.723720
0.190829 0.641443 0.737911
0.291478 0.720088 0.775326
0.463920 0.808011 0.822568
0.659922 0.859770 0.837522
0.820005 0.883574 0.838468
0.898161 0.895598 0.856809
0.906340 0.898405 0.866758
0.176974 0.625940 0.725246
0.216281 0.665156 0.745327
0.305913 0.734646 0.782223
0.475853 0.817716 0.830533
0.653117 0.865110 0.857023
0.792142 0.888334 0.868070
0.877073 0.906737 0.877714
0.905608 0.909880 0.883696
0.908995 0.917205 0.889281
0.000610 0.147921 0.264805
0.001984 0.155489 0.301183
0.000916 0.139528 0.360906
0.059144 0.125704 0.495857
0.192905 0.127565 0.491798
0.283879 0.134340 0.495705
0.381231 0.143893 0.500725
0.482277 0.154421 0.503838
0.558923 0.161746 0.514824
0.000427 0.185611 0.326177
0.000305 0.160159 0.287510
0.000427 0.158175 0.320653
0.012604 0.139223 0.476417
0.141192 0.132418 0.548424
0.277867 0.140261 0.549676
0.407782 0.150393 0.554162
0.536461 0.161685 0.553765
0.599603 0.189761 0.561151
0.000580 0.247410 0.403754
0.000336 0.217777 0.366552
0.000336 0.186679 0.339635
0.005982 0.184512 0.443778
0.081010 0.160983 0.599664
0.248402 0.161227 0.624903
0.411414 0.171328 0.622126
0.569451 0.184024 0.611597
0.640650 0.231296 0.612512
0.013794 0.347265 0.531579
0.003357 0.321935 0.503838
0.003998 0.269352 0.444266
0.007477 0.237125 0.462867
0.060182 0.218814 0.575509
0.192859 0.206821 0.702235
0.405646 0.219059 0.705776
0.597467 0.231418 0.680507
0.690028 0.298436 0.659907
0.069123 0.434089 0.587213
0.052491 0.440925 0.604974
0.052674 0.408759 0.593317
0.062242 0.356268 0.562951
0.090425 0.303227 0.542962
0.179202 0.295781 0.707424
0.414160 0.314046 0.761013
0.635554 0.333639 0.726925
0.739620 0.439261 0.706081
0.106966 0.495827 0.626764
0.116762 0.519799 0.650507
0.124819 0.510399 0.646021
0.146365 0.488594 0.633021
0.192569 0.475776 0.638056
0.245411 0.455955 0.696544
0.479118 0.494255 0.777920
0.703670 0.522347 0.761959
0.807675 0.635538 0.765652
0.121401 0.536675 0.659785
0.133028 0.565240 0.688350
0.154757 0.580224 0.698970
0.197604 0.597253 0.707179
0.295521 0.642084 0.735866
0.445151 0.696773 0.784115
0.624979 0.722957 0.818936
0.836332 0.774594 0.838315
0.881865 0.825833 0.853422
0.140139 0.584863 0.697566
0.139315 0.602106 0.716579
0.156191 0.612787 0.725338
0.211673 0.654505 0.745144
0.333150 0.745388 0.792508
0.555825 0.836820 0.846281
0.782101 0.881590 0.870359
0.894682 0.898253 0.883238
0.907286 0.903655 0.887877
0.150057 0.607050 0.721767
0.175875 0.629541 0.735378
0.240208 0.684504 0.761074
0.374777 0.770565 0.811276
0.570382 0.842649 0.850401
0.755459 0.883268 0.871916
0.860441 0.903960 0.889067
0.901213 0.912779 0.893797
0.908995 0.917723 0.898009
0.000305 0.159915 0.284764
0.000366 0.159487 0.304906
0.000488 0.147311 0.359777
0.030701 0.131838 0.520653
0.153140 0.128664 0.548089
0.249546 0.136751 0.545556
0.343297 0.143038 0.550195
0.441169 0.151827 0.551232
0.540154 0.160067 0.552270
0.000305 0.198856 0.343023
0.000336 0.185336 0.340398
0.001495 0.185458 0.385199
0.012116 0.169467 0.519066
0.096971 0.153262 0.621332
0.231785 0.157870 0.622766
0.342504 0.164981 0.623682
0.462135 0.173892 0.619745
0.573877 0.182040 0.611780
0.000397 0.259678 0.416205
0.000397 0.236667 0.403021
0.003204 0.226932 0.432227
0.030671 0.222385 0.504662
0.055848 0.200198 0.652277
0.195056 0.195529 0.705226
0.342443 0.203586 0.704067
0.486152 0.213382 0.697322
0.609461 0.222354 0.676936
0.006561 0.358679 0.545159
0.010681 0.334936 0.533654
0.019196 0.302556 0.516228
0.046754 0.277256 0.528313
0.087221 0.261265 0.597818
0.157244 0.257877 0.749691
0.341527 0.270970 0.770840
0.511559 0.284153 0.757107
0.645075 0.295811 0.726497
0.050294 0.445655 0.607691
0.064790 0.428382 0.598932
0.086946 0.402258 0.584466
0.111757 0.377081 0.579370
0.139590 0.366125 0.616968
0.203342 0.367529 0.737362
0.372351 0.390799 0.795468
0.556634 0.414755 0.776059
0.697414 0.427573 0.751980
0.103578 0.506279 0.641779
0.118013 0.502159 0.640284
0.138521 0.490883 0.634272
0.174380 0.490883 0.640162
0.228702 0.511193 0.683070
0.283040 0.517311 0.745541
0.442832 0.553353 0.802579
0.650675 0.596201 0.802426
0.770962 0.610544 0.794430
0.131746 0.548028 0.670649
0.151431 0.559380 0.678248
0.178286 0.567742 0.685939
0.229465 0.596887 0.707240
0.328283 0.647852 0.748989
0.455589 0.693812 0.795743
0.614755 0.740414 0.831174
0.809003 0.795071 0.857450
0.869841 0.808133 0.861936
0.132662 0.577905 0.698360
0.155154 0.594812 0.710018
0.195102 0.621180 0.724117
0.269688 0.683619 0.757137
0.412955 0.757412 0.803281
0.595560 0.826596 0.844755
0.786450 0.877073 0.875059
0.881071 0.896117 0.891325
0.907042 0.902525 0.895598
0.137484 0.603845 0.719020
0.155581 0.612268 0.726101
0.200015 0.645685 0.742397
0.287785 0.723812 0.783047
0.465995 0.812345 0.832090
0.685313 0.872679 0.866728
0.842893 0.901396 0.889067
0.898558 0.914122 0.900908
0.909026 0.917937 0.902220
