assets/luts/impulz-kodak-ektar-100-fpe-log-78a7ad91.cube
# (C) 2014 VisionColor & Patchflyer [www.vision-color.com]
# Generator: VC Patchmatch v.2.1.1 [64/53]
# All work and no play makes Jack a dull boy.
# LUT generated from: Kodak Ektar 100_FPE
LUT_3D_SIZE 5
0.033692 0.031983 0.032746
0.124117 0.051911 0.044465
0.312535 0.062806 0.052247
0.472755 0.079713 0.062501
0.548363 0.101381 0.077790
0.044038 0.141878 0.085298
0.123751 0.159792 0.064942
0.374166 0.234531 0.056214
0.640345 0.359777 0.082002
0.745663 0.433875 0.123964
0.042969 0.279240 0.131136
0.076051 0.314244 0.109682
0.314061 0.383581 0.074769
0.625589 0.484565 0.101137
0.784298 0.537682 0.155306
0.054108 0.408362 0.243198
0.058228 0.417578 0.236637
0.162463 0.502068 0.273045
0.510674 0.550774 0.170962
0.777859 0.599207 0.196078
0.092561 0.511040 0.388037
0.116121 0.532036 0.399207
0.407645 0.665187 0.522271
0.675685 0.725765 0.531975
0.834165 0.745144 0.497505
0.037171 0.037293 0.068574
0.090120 0.045502 0.072450
0.270817 0.061158 0.100679
0.444495 0.065339 0.100374
0.525383 0.077241 0.096223
0.035981 0.110170 0.144747
0.160769 0.167910 0.172854
0.428138 0.160922 0.118959
0.539178 0.116213 0.078187
0.576318 0.128725 0.095369
0.037964 0.265721 0.236271
0.069184 0.359869 0.246860
0.453483 0.473167 0.238178
0.716304 0.467384 0.126131
0.744869 0.421576 0.145846
0.052308 0.418250 0.363287
0.107149 0.515526 0.402258
0.299290 0.612604 0.476753
0.739742 0.706600 0.483040
0.812192 0.605158 0.268589
0.166110 0.584619 0.516991
0.421759 0.688685 0.605341
0.444480 0.692500 0.610040
0.757992 0.788907 0.709194
0.875334 0.807950 0.687221
0.041718 0.040009 0.176120
0.128389 0.047517 0.174868
0.263874 0.054688 0.171542
0.451118 0.063386 0.190127
0.529809 0.075990 0.145754
0.038727 0.087007 0.246159
0.090669 0.077882 0.273533
0.408209 0.102876 0.281804
0.518883 0.079377 0.176761
0.570703 0.114290 0.151614
0.041291 0.247410 0.335210
0.072358 0.365789 0.423713
0.516640 0.493584 0.472908
0.684932 0.406638 0.347341
0.751492 0.424033 0.306905
0.052857 0.417853 0.441505
0.240772 0.600275 0.558953
0.468711 0.656703 0.569116
0.787411 0.739254 0.637934
0.854673 0.697658 0.517357
0.223606 0.621668 0.586816
0.616053 0.750759 0.700099
0.663783 0.765835 0.712673
0.801938 0.811063 0.762875
0.890166 0.837888 0.785122
0.043061 0.041169 0.271519
0.155489 0.046571 0.290715
0.352270 0.052003 0.286351
0.469612 0.063600 0.277806
0.546624 0.078889 0.271641
0.041657 0.054810 0.302831
0.046113 0.044709 0.305730
0.343069 0.056855 0.355413
0.545129 0.083436 0.366400
0.589258 0.132509 0.297154
0.044221 0.203601 0.399603
0.047120 0.137072 0.393668
0.288731 0.203616 0.445487
0.682521 0.415824 0.547692
0.750484 0.456779 0.522881
0.050813 0.376989 0.487495
0.081910 0.496742 0.573419
0.411917 0.644007 0.639826
0.764706 0.727413 0.704768
0.876188 0.746792 0.720974
0.125643 0.569207 0.596063
0.373953 0.678889 0.663203
0.670237 0.771481 0.740810
0.811795 0.826993 0.778012
0.906645 0.859495 0.810941
0.043305 0.042573 0.304906
0.128176 0.046357 0.330816
0.359442 0.053315 0.366522
0.495186 0.065156 0.377722
0.559716 0.084016 0.388006
0.042786 0.051484 0.326452
0.057740 0.051026 0.334417
0.312001 0.064485 0.393164
0.548608 0.113344 0.438331
0.648554 0.244968 0.495583
0.044465 0.103334 0.382513
0.063478 0.078096 0.366766
0.326345 0.118654 0.436835
0.668849 0.376349 0.582574
0.765896 0.572412 0.665248
0.053498 0.352117 0.521477
0.080507 0.330114 0.522484
0.460258 0.486763 0.627588
0.748684 0.629770 0.717647
0.853056 0.752682 0.783780
0.088808 0.523674 0.596887
0.208743 0.617975 0.640375
0.529976 0.735348 0.728176
0.800412 0.836881 0.827451
0.922637 0.887480 0.880308
