assets/luts/impulz-kodak-ektar-100-fc-rec709-8eb9f0d8.cube
# (C) 2014 VisionColor & Patchflyer [www.vision-color.com]
# Generator: VC Patchmatch v.2.1.1 [64/53]
# All work and no play makes Jack a dull boy.
# LUT generated from: Kodak Ektar 100_FC
LUT_3D_SIZE 5
0.040436 0.024323 0.029633
0.241581 0.053834 0.051118
0.474891 0.084688 0.064179
0.636744 0.119173 0.077516
0.757473 0.146761 0.093080
0.062928 0.243809 0.081117
0.153017 0.247013 0.053559
0.359533 0.283604 0.063905
0.560174 0.351629 0.084627
0.708339 0.385412 0.108095
0.069978 0.450080 0.123507
0.141054 0.490639 0.123781
0.284062 0.478737 0.103182
0.474556 0.484932 0.103914
0.652216 0.477485 0.113039
0.085115 0.603143 0.197971
0.134707 0.639704 0.211185
0.288823 0.674006 0.260716
0.431586 0.643732 0.211246
0.602106 0.581384 0.157198
0.133577 0.721401 0.312352
0.168765 0.731319 0.330938
0.316899 0.777279 0.440589
0.522576 0.810849 0.474250
0.687160 0.793057 0.404059
0.064271 0.033234 0.182559
0.182162 0.032288 0.152712
0.438239 0.053346 0.172061
0.627131 0.066499 0.163394
0.767636 0.080537 0.131197
0.046448 0.191928 0.226383
0.218936 0.223423 0.235325
0.462837 0.245212 0.231510
0.625147 0.248081 0.212589
0.775601 0.177920 0.134401
0.057252 0.414649 0.261662
0.218326 0.438972 0.281895
0.412085 0.454566 0.288518
0.578729 0.461738 0.259159
0.734737 0.393194 0.171878
0.097353 0.584314 0.343755
0.232059 0.590509 0.355383
0.417609 0.633936 0.404150
0.572808 0.642542 0.404059
0.723110 0.583886 0.262425
0.198001 0.723537 0.469612
0.294163 0.747280 0.505089
0.413581 0.780179 0.555108
0.623987 0.832303 0.643824
0.805203 0.847044 0.632258
0.068208 0.043214 0.512856
0.236759 0.037476 0.352728
0.444404 0.048005 0.293889
0.621271 0.064546 0.283970
0.760891 0.078981 0.210361
0.051972 0.167178 0.484718
0.227756 0.196231 0.454994
0.448615 0.199313 0.398688
0.611414 0.196078 0.360800
0.777554 0.132082 0.207980
0.047517 0.377020 0.418860
0.224948 0.421790 0.443702
0.465675 0.465980 0.474159
0.634363 0.467628 0.457969
0.804440 0.330205 0.250523
0.088624 0.565759 0.456641
0.266850 0.588190 0.479133
0.467811 0.619654 0.502403
0.630579 0.645167 0.517754
0.808774 0.612696 0.375219
0.209323 0.725490 0.559930
0.400275 0.768185 0.623133
0.521141 0.818143 0.669459
0.681422 0.853147 0.717983
0.875334 0.880430 0.753689
0.066926 0.047120 0.788083
0.228275 0.043244 0.593317
0.478370 0.051942 0.451728
0.626703 0.063783 0.402930
0.751858 0.082521 0.337591
0.060853 0.129549 0.730617
0.191287 0.144869 0.653895
0.430350 0.157900 0.549279
0.603418 0.178561 0.498726
0.765896 0.146792 0.362646
0.062196 0.334493 0.592371
0.222263 0.374014 0.600793
0.455436 0.424887 0.617243
0.629084 0.447501 0.602716
0.805020 0.312779 0.437293
0.074281 0.521385 0.565118
0.250278 0.564782 0.586847
0.466255 0.616297 0.621027
0.675227 0.675227 0.675532
0.874754 0.630488 0.569848
0.164340 0.700587 0.617548
0.367468 0.760159 0.679683
0.556085 0.825803 0.745602
0.726131 0.879667 0.792630
0.909209 0.906828 0.828916
0.066529 0.049531 0.905791
0.174990 0.044770 0.800656
0.443946 0.054475 0.637415
0.622217 0.066743 0.567010
0.736385 0.087739 0.526909
0.065888 0.085237 0.900053
0.132601 0.076265 0.865110
0.308537 0.077272 0.750179
0.575799 0.107576 0.646448
0.743313 0.198520 0.616358
0.068849 0.205570 0.799893
0.145083 0.172519 0.831357
0.292622 0.135897 0.796902
0.564599 0.198978 0.724697
0.787442 0.422156 0.728603
0.088838 0.441077 0.709316
0.205295 0.411444 0.754940
0.372961 0.396689 0.798032
0.630915 0.390539 0.810758
0.854734 0.670771 0.840940
0.127718 0.648432 0.685939
0.265934 0.705074 0.728573
0.449622 0.789151 0.799619
0.697688 0.881010 0.876585
0.959930 0.959930 0.951598
