assets/luts/impulz-fuji-pro-400-fpe-rec709-5827f41e.cube
# (C) 2014 VisionColor & Patchflyer [www.vision-color.com]
# Generator: VC Patchmatch v.2.1.1 [64/53]
# All work and no play makes Jack a dull boy.
# LUT generated from: Fuji Pro 400_FPE
LUT_3D_SIZE 5
0.037720 0.043946 0.044038
0.224491 0.072755 0.050538
0.411078 0.112764 0.075288
0.503471 0.155581 0.096742
0.572534 0.193118 0.116304
0.108217 0.230625 0.095033
0.412848 0.356451 0.138674
0.622889 0.449378 0.202823
0.714076 0.470405 0.226413
0.735683 0.433570 0.211460
0.306493 0.465950 0.191775
0.588830 0.573297 0.253330
0.738613 0.630732 0.307286
0.821042 0.639277 0.329686
0.845518 0.618830 0.321416
0.468666 0.598108 0.268406
0.681270 0.667170 0.318090
0.805081 0.710781 0.362524
0.873777 0.735073 0.390509
0.895659 0.727199 0.396765
0.534478 0.662257 0.309209
0.738674 0.721736 0.361700
0.836210 0.753017 0.399084
0.887663 0.776608 0.428229
0.912261 0.790890 0.444190
0.031464 0.041932 0.088319
0.144564 0.058228 0.112001
0.339635 0.086763 0.141176
0.450446 0.104128 0.155642
0.511711 0.114290 0.158175
0.047883 0.167819 0.203342
0.262272 0.235599 0.234348
0.496406 0.285313 0.254215
0.607416 0.289921 0.261753
0.663874 0.278813 0.231052
0.122194 0.406287 0.298711
0.413611 0.493050 0.338628
0.641596 0.559167 0.380743
0.745663 0.561517 0.396338
0.810178 0.535088 0.355352
0.225071 0.551965 0.369940
0.533288 0.632074 0.410986
0.701991 0.679683 0.452399
0.809995 0.710811 0.484840
0.878264 0.714717 0.484077
0.283452 0.618097 0.400916
0.589349 0.705013 0.433875
0.742092 0.745937 0.472969
0.842741 0.780484 0.518730
0.899718 0.808072 0.567163
0.031861 0.042664 0.149905
0.100740 0.052949 0.149020
0.284459 0.081941 0.192630
0.398871 0.098390 0.220401
0.478096 0.112123 0.220951
0.048768 0.143374 0.267643
0.174105 0.193362 0.295659
0.396551 0.223697 0.327733
0.533928 0.235050 0.330205
0.619257 0.216892 0.294743
0.087587 0.364202 0.411658
0.255955 0.447791 0.444160
0.540246 0.513939 0.493080
0.669367 0.508385 0.483925
0.770657 0.451606 0.415747
0.150423 0.538842 0.484108
0.355993 0.602106 0.509270
0.605493 0.658839 0.563195
0.751492 0.705959 0.603510
0.866819 0.713069 0.592157
0.211307 0.626001 0.520012
0.379644 0.674586 0.531731
0.617243 0.739712 0.567376
0.794217 0.793912 0.623438
0.898009 0.838529 0.698146
0.034058 0.045686 0.191257
0.060670 0.046540 0.175692
0.196201 0.073121 0.217929
0.345159 0.094667 0.244724
0.449226 0.107607 0.256565
0.049500 0.153780 0.318029
0.108888 0.181521 0.335149
0.261738 0.190982 0.352667
0.476875 0.218814 0.380591
0.583551 0.200229 0.342809
0.083101 0.355840 0.458351
0.177310 0.400793 0.479469
0.390372 0.445426 0.510857
0.611627 0.479942 0.545800
0.739742 0.427482 0.486671
0.139376 0.535332 0.557855
0.244419 0.576104 0.576806
0.490562 0.637049 0.618708
0.702632 0.704067 0.679805
0.855711 0.709957 0.682185
0.198062 0.633631 0.609644
0.269871 0.661006 0.613489
0.473045 0.726894 0.655055
0.745205 0.805508 0.722774
0.893767 0.859220 0.797574
0.035554 0.052338 0.219577
0.038239 0.042756 0.199466
0.089631 0.054810 0.226322
0.230381 0.078401 0.260899
0.414862 0.103853 0.289738
0.048768 0.166323 0.354620
0.054994 0.140505 0.339574
0.100740 0.127413 0.340917
0.284581 0.153964 0.387732
0.545281 0.206363 0.424292
0.075288 0.338262 0.478767
0.089815 0.311070 0.469612
0.113863 0.271122 0.465950
0.332128 0.308751 0.516381
0.690059 0.419379 0.599145
0.120729 0.490761 0.570306
0.151186 0.489815 0.577722
0.249851 0.527276 0.617670
0.460395 0.582818 0.670619
0.815061 0.679957 0.749660
0.173861 0.611841 0.643732
0.219760 0.640223 0.666438
0.383108 0.714992 0.718807
0.669734 0.805692 0.791867
0.929107 0.894743 0.888395
