assets/luts/impulz-fuji-superior-200-fpe-log-ef6ee857.cube
# (C) 2014 VisionColor & Patchflyer [www.vision-color.com]
# Generator: VC Patchmatch v.2.1.1 [64/53]
# All work and no play makes Jack a dull boy.
# LUT generated from: Fuji Superior 200_FPE
LUT_3D_SIZE 5
0.033509 0.036683 0.037079
0.118410 0.047211 0.038148
0.297093 0.046784 0.041077
0.393347 0.046143 0.045045
0.498177 0.059358 0.054475
0.048493 0.105592 0.043091
0.237812 0.162844 0.045014
0.505104 0.221195 0.053437
0.649439 0.259678 0.063294
0.744686 0.320378 0.083467
0.325582 0.378927 0.058991
0.574563 0.463615 0.096925
0.733318 0.504433 0.119966
0.843809 0.537377 0.130739
0.893339 0.572686 0.149386
0.698207 0.612207 0.130037
0.801846 0.661768 0.191348
0.894621 0.688777 0.217716
0.923827 0.703792 0.221561
0.934936 0.707393 0.204654
0.831052 0.693812 0.153292
0.906798 0.758144 0.230350
0.935637 0.779843 0.282597
0.940887 0.785183 0.298985
0.944549 0.782559 0.268009
0.030152 0.037385 0.098451
0.097353 0.045350 0.109560
0.290318 0.048035 0.119387
0.421363 0.047242 0.128817
0.509148 0.055848 0.155215
0.035859 0.138216 0.151400
0.198428 0.202121 0.180667
0.481697 0.167391 0.122652
0.564355 0.123110 0.091402
0.711879 0.281682 0.223026
0.201999 0.395132 0.250187
0.526589 0.527596 0.167330
0.798047 0.592081 0.238193
0.873930 0.563333 0.182620
0.870237 0.557916 0.291142
0.477363 0.613672 0.367956
0.775021 0.681056 0.164279
0.915892 0.753170 0.274113
0.937621 0.764157 0.314672
0.932830 0.731441 0.364599
0.582788 0.701442 0.347784
0.765072 0.696406 0.151339
0.910735 0.790158 0.334661
0.932769 0.812375 0.416632
0.941405 0.818418 0.433967
0.031586 0.036011 0.155764
0.061158 0.041199 0.207584
0.258793 0.043915 0.213016
0.410071 0.046998 0.235050
0.480507 0.052735 0.245396
0.038911 0.140780 0.257725
0.044892 0.091981 0.259312
0.363622 0.123262 0.305516
0.513268 0.086336 0.275151
0.652430 0.221683 0.337102
0.072633 0.352392 0.381292
0.146700 0.450202 0.465187
0.555093 0.510643 0.475334
0.731746 0.477623 0.425284
0.806973 0.524834 0.468788
0.189807 0.557153 0.493996
0.337545 0.658228 0.518608
0.712276 0.731716 0.487388
0.892149 0.773037 0.584955
0.910155 0.752407 0.606500
0.343771 0.697932 0.559747
0.505013 0.741024 0.528603
0.750484 0.802792 0.566079
0.881102 0.844236 0.652735
0.935729 0.860746 0.690486
0.033783 0.036347 0.206119
0.043366 0.038453 0.236118
0.160616 0.041321 0.265904
0.345892 0.042725 0.282017
0.452094 0.049683 0.303136
0.042695 0.149660 0.346380
0.039368 0.050141 0.282078
0.141833 0.054139 0.309209
0.438422 0.064942 0.366827
0.585412 0.174655 0.401587
0.056977 0.333623 0.458564
0.051911 0.321035 0.499489
0.149920 0.308461 0.460655
0.569055 0.383963 0.513695
0.729519 0.470054 0.532280
0.103182 0.522942 0.581170
0.081300 0.535149 0.634394
0.272251 0.629053 0.647700
0.757198 0.729152 0.704860
0.877409 0.746914 0.715541
0.121279 0.617914 0.644099
0.155001 0.652644 0.663111
0.465690 0.770352 0.718044
0.784237 0.841733 0.769100
0.923400 0.875090 0.814389
0.036011 0.037659 0.247288
0.038453 0.037873 0.244816
0.115023 0.042298 0.289616
0.278477 0.042206 0.317723
0.431098 0.047578 0.347692
0.044770 0.154177 0.406836
0.042908 0.093080 0.355505
0.088746 0.103853 0.366430
0.318761 0.134585 0.419806
0.531060 0.148501 0.463569
0.051301 0.325231 0.517601
0.049165 0.283665 0.497444
0.104891 0.324758 0.511955
0.423255 0.397726 0.560723
0.653468 0.436271 0.600610
0.065339 0.475868 0.619623
0.061311 0.456031 0.615595
0.193896 0.558373 0.654475
0.616922 0.673457 0.721248
0.817685 0.708949 0.756313
0.070954 0.522606 0.653376
0.066804 0.504662 0.643336
0.180896 0.651194 0.717739
0.649653 0.822751 0.817075
0.922576 0.887449 0.880247
