assets/luts/impulz-kodak-ultramax-400-fc-rec709-3d236fc2.cube
# (C) 2014 VisionColor & Patchflyer [www.vision-color.com]
# Generator: VC Patchmatch v.2.1.1 [64/53]
# All work and no play makes Jack a dull boy.
# LUT generated from: Kodak Ultramax 400_FC
LUT_3D_SIZE 5
0.033265 0.035096 0.035828
0.207218 0.037873 0.039948
0.444953 0.057069 0.057801
0.642237 0.074922 0.076783
0.837461 0.081270 0.095491
0.105928 0.180240 0.021454
0.324407 0.230228 0.029145
0.566094 0.269596 0.050019
0.725307 0.287724 0.070497
0.883360 0.269657 0.089631
0.244175 0.405798 0.031067
0.410254 0.464057 0.046693
0.625177 0.499306 0.051179
0.770047 0.497078 0.068849
0.883940 0.452125 0.082948
0.284886 0.559625 0.036622
0.448280 0.604517 0.054810
0.646632 0.632380 0.063325
0.796841 0.643854 0.064393
0.883940 0.604212 0.077974
0.267430 0.711330 0.031281
0.453590 0.731472 0.055390
0.633417 0.753292 0.069276
0.764370 0.766079 0.069062
0.866514 0.752224 0.063813
0.031861 0.041108 0.251774
0.193759 0.033082 0.209598
0.414313 0.043763 0.215793
0.580011 0.059419 0.222904
0.761715 0.069978 0.205509
0.076661 0.222965 0.198856
0.251255 0.242649 0.219272
0.454383 0.266484 0.232517
0.611353 0.286351 0.248692
0.817594 0.262699 0.227878
0.150118 0.433936 0.192752
0.342199 0.440436 0.229404
0.544701 0.473060 0.251255
0.673396 0.479408 0.259861
0.841306 0.439246 0.233829
0.180697 0.583581 0.168521
0.379095 0.569970 0.223453
0.566644 0.598108 0.261540
0.710903 0.616114 0.263981
0.853666 0.600153 0.247440
0.178958 0.732448 0.122286
0.395392 0.737514 0.168673
0.566369 0.748867 0.224918
0.705013 0.773068 0.235142
0.852506 0.764492 0.221225
0.033021 0.058198 0.552514
0.141176 0.039948 0.426886
0.352239 0.042481 0.362463
0.520623 0.058595 0.358251
0.682124 0.070619 0.300938
0.073365 0.237766 0.420569
0.204807 0.239872 0.375067
0.377020 0.241489 0.380529
0.536004 0.256077 0.369268
0.735134 0.238346 0.303044
0.104768 0.431769 0.425208
0.268894 0.428779 0.418463
0.481605 0.459968 0.444038
0.614557 0.460212 0.425635
0.820310 0.403326 0.327794
0.125582 0.592950 0.382712
0.307958 0.570764 0.406317
0.506859 0.585809 0.439307
0.675074 0.612543 0.449805
0.867369 0.610193 0.387427
0.128298 0.752651 0.295964
0.337469 0.744625 0.342412
0.544366 0.800748 0.369375
0.704890 0.819821 0.413397
0.899504 0.840513 0.406378
0.028809 0.080537 0.750790
0.101289 0.051270 0.640375
0.290166 0.057313 0.578058
0.458717 0.060639 0.495613
0.631281 0.071290 0.438514
0.062104 0.268254 0.641596
0.177523 0.249699 0.510552
0.314488 0.243870 0.504784
0.473091 0.248692 0.503288
0.660792 0.234684 0.427741
0.087922 0.436683 0.609491
0.239414 0.425330 0.563256
0.406271 0.440650 0.563287
0.558740 0.443915 0.566583
0.749233 0.392737 0.461067
0.086549 0.582361 0.605310
0.254520 0.571221 0.595270
0.458351 0.585718 0.604913
0.648768 0.622980 0.630640
0.873350 0.598505 0.538048
0.075135 0.759152 0.527245
0.263371 0.774838 0.567254
0.493675 0.824277 0.606531
0.721126 0.881498 0.633631
0.932891 0.901396 0.644953
0.022827 0.099672 0.853208
0.060243 0.059022 0.782406
0.186557 0.063996 0.746914
0.352514 0.071534 0.708827
0.572290 0.073487 0.690242
0.027985 0.282658 0.849271
0.100404 0.232731 0.712398
0.193057 0.220218 0.706111
0.353155 0.227604 0.714199
0.584588 0.230625 0.688563
0.044190 0.443793 0.815702
0.152102 0.402716 0.755154
0.243290 0.380835 0.774685
0.417792 0.384009 0.785885
0.689143 0.391394 0.766659
0.050324 0.576806 0.821073
0.187839 0.552758 0.790646
0.357885 0.578882 0.830930
0.561944 0.591302 0.882506
0.854856 0.585473 0.874601
0.034455 0.737301 0.828428
0.172457 0.762173 0.843534
0.374197 0.830503 0.876616
0.664607 0.895415 0.908812
0.953887 0.953887 0.945678
