assets/luts/impulz-fuji-superior-200-fc-log-4cf71de8.cube
# (C) 2014 VisionColor & Patchflyer [www.vision-color.com]
# Generator: VC Patchmatch v.2.1.1 [64/53]
# All work and no play makes Jack a dull boy.
# LUT generated from: Fuji Superior 200_FC
LUT_3D_SIZE 17
0.025147 0.025147 0.025147
0.040406 0.027955 0.027955
0.075654 0.026062 0.026032
0.119417 0.025940 0.025910
0.174777 0.025422 0.025391
0.239750 0.026123 0.025940
0.323095 0.026673 0.026429
0.404623 0.026642 0.026459
0.475563 0.026825 0.026642
0.535241 0.027100 0.026825
0.587060 0.028351 0.027588
0.637873 0.028199 0.027558
0.687282 0.028290 0.027771
0.735378 0.028595 0.028229
0.777798 0.032380 0.031861
0.816159 0.039399 0.038453
0.842252 0.060914 0.058747
0.030274 0.036561 0.025574
0.041901 0.034607 0.025757
0.076234 0.032929 0.024201
0.123232 0.039338 0.023804
0.182376 0.045716 0.022919
0.248814 0.047364 0.023774
0.330358 0.046662 0.024323
0.412772 0.050752 0.024933
0.490135 0.055390 0.026246
0.553399 0.059998 0.027253
0.607416 0.060914 0.028290
0.655543 0.061311 0.028565
0.699550 0.064179 0.029511
0.740108 0.066346 0.030915
0.781125 0.070497 0.034943
0.815854 0.077028 0.042664
0.840970 0.103944 0.064210
0.032532 0.062379 0.019989
0.044739 0.060243 0.019989
0.078035 0.060456 0.021302
0.123049 0.063416 0.020905
0.183444 0.066438 0.020203
0.254917 0.077333 0.022705
0.337545 0.082612 0.024445
0.421317 0.085847 0.025360
0.500282 0.090669 0.026825
0.567895 0.098238 0.028901
0.622950 0.104555 0.030976
0.667689 0.105959 0.031891
0.708247 0.106874 0.032776
0.749447 0.111299 0.034882
0.786130 0.118776 0.040253
0.818631 0.129976 0.049134
0.845762 0.156954 0.070619
0.038453 0.096010 0.016907
0.058076 0.096345 0.017609
0.089021 0.096101 0.019348
0.130129 0.097993 0.021515
0.189975 0.109255 0.022400
0.260410 0.114565 0.023957
0.340108 0.119203 0.026246
0.424491 0.131960 0.029419
0.502724 0.143099 0.032013
0.573022 0.152132 0.034211
0.627588 0.152834 0.035615
0.677607 0.162020 0.038209
0.724208 0.169680 0.040894
0.766018 0.176242 0.043702
0.801541 0.182162 0.048981
0.832364 0.193698 0.057313
0.860044 0.223423 0.077638
0.049561 0.135500 0.015167
0.076905 0.141573 0.016693
0.104128 0.142916 0.018433
0.155917 0.145266 0.022309
0.204135 0.150179 0.025299
0.275090 0.163149 0.029053
0.349844 0.174746 0.032990
0.431144 0.183841 0.035584
0.507973 0.194430 0.038117
0.580407 0.211460 0.041444
0.639948 0.222385 0.044434
0.688624 0.227970 0.046662
0.735531 0.234104 0.049317
0.780880 0.247593 0.054078
0.818662 0.259281 0.060243
0.850156 0.272190 0.068635
0.875975 0.296910 0.086854
0.069825 0.186648 0.015564
0.103883 0.196567 0.018585
0.140414 0.203189 0.022187
0.187137 0.207523 0.028199
0.241245 0.212802 0.032654
0.301869 0.221378 0.036988
0.374197 0.236179 0.042267
0.449027 0.250446 0.046113
0.528115 0.269718 0.050172
0.597375 0.283299 0.052277
0.654047 0.292576 0.054108
0.704829 0.307744 0.058869
0.752102 0.318517 0.063203
0.797269 0.331365 0.067811
0.835477 0.341527 0.072908
0.864103 0.354406 0.079927
0.885588 0.374884 0.095674
0.104067 0.254215 0.019532
0.144381 0.264927 0.024872
0.192569 0.275898 0.031861
0.239185 0.282307 0.039033
0.297414 0.289113 0.046143
0.357259 0.297230 0.051057
0.414603 0.308278 0.055451
0.481804 0.316854 0.057771
0.549630 0.332753 0.061250
0.620844 0.353368 0.065827
0.679194 0.370062 0.068940
0.726589 0.383307 0.072480
0.772671 0.394202 0.076661
0.812161 0.409491 0.081025
0.849332 0.424414 0.085634
0.877440 0.436469 0.091707
0.895994 0.451606 0.105776
0.160861 0.335561 0.028534
0.201282 0.344137 0.034241
0.259571 0.359762 0.045533
0.313069 0.369314 0.054414
0.369375 0.377157 0.062470
0.425559 0.383993 0.069581
0.479667 0.393637 0.074495
0.533700 0.406302 0.078035
0.599954 0.424689 0.082429
0.653407 0.431464 0.083040
0.705806 0.445533 0.084779
0.753201 0.464240 0.088655
0.792813 0.476844 0.091524
0.831022 0.491524 0.095460
0.862760 0.504601 0.098909
0.885771 0.518318 0.104402
0.898711 0.528969 0.116518
0.234333 0.422049 0.041566
0.276722 0.429953 0.049165
0.328542 0.443259 0.060945
0.385672 0.454520 0.071199
0.441062 0.462760 0.079896
0.499535 0.471214 0.089204
0.549264 0.478691 0.095064
0.602548 0.491630 0.099641
0.644480 0.503029 0.101442
0.697292 0.514351 0.103914
0.735927 0.519722 0.103273
0.779477 0.533394 0.104585
0.817807 0.547311 0.106935
0.847440 0.563973 0.109560
0.873259 0.579171 0.112795
0.891234 0.593210 0.116854
0.902220 0.602274 0.127504
0.312612 0.508003 0.055970
0.351141 0.515908 0.066560
0.401007 0.528023 0.078737
0.456245 0.538552 0.090089
0.510613 0.547372 0.098634
0.568292 0.555764 0.108492
0.614893 0.563394 0.115511
0.663264 0.572427 0.122133
0.704707 0.583307 0.124086
0.743267 0.594919 0.125185
0.777173 0.600168 0.125063
0.805112 0.607553 0.124239
0.836851 0.617487 0.124178
0.867857 0.634272 0.125978
0.886442 0.647242 0.126528
0.898283 0.661219 0.129763
0.907286 0.669154 0.138766
0.395178 0.590234 0.072847
0.430121 0.598505 0.085389
0.470436 0.607691 0.097749
0.519188 0.617731 0.109468
0.567926 0.624781 0.118044
0.617151 0.630060 0.125521
0.664088 0.637812 0.133455
0.709865 0.645838 0.140352
0.751217 0.656123 0.144350
0.788220 0.667155 0.146365
0.818570 0.676966 0.147768
0.841550 0.682399 0.145907
0.856504 0.686091 0.143404
0.879057 0.697292 0.143160
0.893523 0.709773 0.142611
0.905150 0.723598 0.142855
0.913237 0.729915 0.150454
0.471656 0.663417 0.089082
0.499825 0.669459 0.102846
0.534783 0.677913 0.116670
0.575280 0.686946 0.128939
0.618891 0.691951 0.136385
0.665278 0.696925 0.143313
0.704707 0.700618 0.148684
0.748653 0.709102 0.155947
0.788174 0.717006 0.160983
0.819760 0.728542 0.164523
0.849821 0.739193 0.166415
0.863279 0.746426 0.167727
0.876158 0.749538 0.164248
0.891875 0.758877 0.161929
0.901335 0.765866 0.158694
0.908629 0.773587 0.155825
0.916442 0.777646 0.159579
0.534325 0.721553 0.101625
0.558434 0.728145 0.114687
0.590326 0.739254 0.131197
0.628443 0.748409 0.144991
0.667536 0.752712 0.153903
0.711147 0.756344 0.160128
0.750118 0.759915 0.165377
0.784878 0.764797 0.170321
0.822202 0.772305 0.176059
0.844053 0.780331 0.179019
0.867948 0.791074 0.182254
0.881163 0.797696 0.184146
0.891325 0.802701 0.183413
0.901762 0.808804 0.179782
0.909483 0.819303 0.175662
0.913725 0.823667 0.170169
0.917876 0.821530 0.169924
0.583520 0.771481 0.107790
0.607813 0.780392 0.121828
0.642084 0.794339 0.140017
0.677943 0.803433 0.157992
0.716060 0.807919 0.168185
0.756741 0.809110 0.175875
0.792874 0.811643 0.180728
0.825010 0.816007 0.185580
0.847532 0.821134 0.190249
0.868498 0.828977 0.193210
0.882597 0.835203 0.196109
0.895750 0.844511 0.198581
0.903990 0.848661 0.197391
0.910582 0.850950 0.195254
0.916381 0.854307 0.189609
0.918914 0.861387 0.183413
0.920104 0.858732 0.180941
0.625544 0.814420 0.110597
0.654017 0.826566 0.126680
0.687709 0.840177 0.145266
0.726406 0.849851 0.168978
0.762173 0.854948 0.181430
0.802090 0.856504 0.190249
0.831662 0.858122 0.195193
0.859800 0.860807 0.199100
0.873350 0.863462 0.202701
0.886168 0.868101 0.206119
0.894530 0.870390 0.209018
0.903502 0.874693 0.210758
0.911162 0.878050 0.211337
0.916960 0.880796 0.207218
0.921630 0.882780 0.201633
0.923461 0.888945 0.195499
0.923186 0.888548 0.193545
0.656916 0.851347 0.109804
0.689845 0.863005 0.125582
0.725978 0.875395 0.145846
0.767391 0.885191 0.172702
0.804898 0.889616 0.189029
0.842344 0.890776 0.199924
0.865141 0.891142 0.206607
0.883482 0.891203 0.211460
0.892180 0.891142 0.214633
0.900389 0.892943 0.217868
0.906126 0.894286 0.221042
0.911681 0.897154 0.223606
0.917571 0.900267 0.225437
0.921691 0.901396 0.221469
0.925170 0.903410 0.215000
0.926513 0.906493 0.206210
0.926085 0.907958 0.204440
0.674495 0.876341 0.108675
0.707942 0.884611 0.120760
0.745754 0.894224 0.138979
0.788907 0.905699 0.166506
0.827970 0.911131 0.185946
0.861540 0.913115 0.201968
0.880400 0.912077 0.212650
0.895842 0.911620 0.220188
0.905364 0.911345 0.224704
0.911437 0.911192 0.228580
0.916197 0.911528 0.231815
0.918822 0.911986 0.234745
0.921782 0.913756 0.237339
0.924468 0.915038 0.235904
0.926268 0.914885 0.231235
0.927337 0.916716 0.222904
0.927550 0.919310 0.215244
0.028687 0.027832 0.041413
0.035279 0.027375 0.038788
0.069215 0.025666 0.037293
0.109804 0.025269 0.042969
0.160769 0.025025 0.047303
0.223239 0.025818 0.046876
0.304448 0.026246 0.044678
0.384390 0.026215 0.047028
0.459693 0.026642 0.049256
0.522423 0.026917 0.051850
0.578302 0.028016 0.051575
0.630945 0.027771 0.051423
0.680934 0.027985 0.053529
0.729397 0.028595 0.055329
0.772274 0.032410 0.059266
0.811917 0.039185 0.065309
0.838987 0.058534 0.088136
0.026825 0.035737 0.035645
0.043702 0.039185 0.039185
0.084291 0.040192 0.039918
0.138735 0.037568 0.036347
0.207645 0.035859 0.034577
0.291386 0.032319 0.031189
0.381125 0.032990 0.031739
0.457786 0.034791 0.032807
0.526482 0.033112 0.030610
0.581872 0.032593 0.030396
0.634119 0.030793 0.029450
0.681422 0.031922 0.030610
0.728695 0.030793 0.029847
0.773556 0.031861 0.031220
0.813535 0.038911 0.037995
0.841917 0.060975 0.058595
0.860380 0.094057 0.088899
0.029480 0.062318 0.029084
0.046662 0.073487 0.033112
0.088899 0.073487 0.035920
0.144503 0.068544 0.032441
0.217014 0.069398 0.032593
0.302815 0.072877 0.031067
0.393149 0.073304 0.031830
0.469108 0.071290 0.032776
0.539712 0.073762 0.031434
0.599817 0.075715 0.032258
0.650904 0.077272 0.032105
0.695094 0.075715 0.033265
0.738521 0.074098 0.032837
0.779110 0.078218 0.035584
0.813626 0.088960 0.043793
0.841215 0.112123 0.064668
0.862303 0.145602 0.095277
0.037049 0.102663 0.031739
0.056367 0.117586 0.027161
0.096651 0.119356 0.029664
0.156558 0.122683 0.031312
0.226658 0.119600 0.031525
0.309163 0.116426 0.031250
0.406882 0.126467 0.033112
0.482017 0.129091 0.035523
0.554482 0.128969 0.035187
0.615045 0.129732 0.035889
0.669032 0.132418 0.036622
0.712215 0.135775 0.038972
0.751369 0.133333 0.039216
0.787717 0.134981 0.042298
0.821042 0.146761 0.050874
0.848966 0.174807 0.071687
0.874327 0.213169 0.101686
0.051270 0.151186 0.036683
0.074586 0.172732 0.024048
0.117922 0.180179 0.028443
0.176242 0.182132 0.033295
0.251331 0.189395 0.038453
0.330587 0.194003 0.040131
0.423056 0.197330 0.040497
0.494194 0.194888 0.042420
0.567483 0.201480 0.043885
0.628199 0.205997 0.044862
0.683803 0.209964 0.045655
0.727626 0.206424 0.047486
0.770565 0.211887 0.050050
0.810361 0.218967 0.054414
0.842222 0.230015 0.062593
0.868254 0.254307 0.082521
0.887907 0.285496 0.108248
0.073548 0.208255 0.042359
0.105531 0.237675 0.025055
0.159792 0.251560 0.032166
0.212421 0.256123 0.039063
0.290669 0.262287 0.045838
0.367147 0.273640 0.051484
0.457115 0.284947 0.055177
0.520363 0.283055 0.056184
0.589914 0.284047 0.056092
0.647395 0.284932 0.056001
0.701076 0.293980 0.057984
0.747890 0.300664 0.061799
0.789548 0.301091 0.063966
0.829160 0.305455 0.067750
0.859617 0.318517 0.075196
0.881437 0.338781 0.091585
0.898405 0.366461 0.116182
0.110292 0.274495 0.047333
0.154177 0.320790 0.029541
0.219928 0.338094 0.040192
0.286824 0.351064 0.050446
0.360616 0.360922 0.061158
0.434440 0.371450 0.068452
0.512306 0.387839 0.075196
0.565713 0.381155 0.075257
0.622141 0.380087 0.074159
0.678889 0.386923 0.074952
0.729030 0.393408 0.075593
0.770809 0.395651 0.077333
0.810086 0.403738 0.080903
0.843412 0.409354 0.083864
0.873045 0.418509 0.089906
0.895232 0.430274 0.101991
0.905180 0.445014 0.123232
0.163912 0.350607 0.055482
0.220295 0.405936 0.040894
0.286641 0.423911 0.054719
0.358297 0.440177 0.067292
0.427207 0.449851 0.078218
0.494377 0.457298 0.088014
0.564889 0.469932 0.095125
0.624125 0.484245 0.099336
0.672984 0.477470 0.096345
0.712184 0.472770 0.094087
0.759823 0.483177 0.094881
0.800473 0.490990 0.095857
0.830961 0.494316 0.096712
0.861845 0.499229 0.099214
0.881346 0.507149 0.104067
0.898650 0.515175 0.113405
0.907958 0.524025 0.132570
0.231708 0.431724 0.070893
0.301991 0.494560 0.056825
0.358755 0.508797 0.070283
0.422660 0.524330 0.084291
0.492699 0.535866 0.096040
0.556344 0.544717 0.106386
0.618082 0.553658 0.115969
0.674571 0.566445 0.121065
0.726696 0.581674 0.123842
0.761593 0.576852 0.121309
0.796109 0.577096 0.117678
0.829404 0.581643 0.115755
0.853391 0.586618 0.115999
0.871519 0.588998 0.115297
0.889586 0.596017 0.119448
0.901823 0.601144 0.126864
0.911101 0.601724 0.143954
0.300008 0.509896 0.088045
0.389670 0.582132 0.073884
0.436728 0.593088 0.087739
0.487831 0.605127 0.102480
0.548119 0.612940 0.113771
0.608850 0.620844 0.124269
0.668269 0.629450 0.134066
0.717433 0.637903 0.141085
0.768124 0.653132 0.144930
0.803464 0.664836 0.145724
0.829587 0.661753 0.141970
0.852079 0.661295 0.137270
0.873411 0.663767 0.134920
0.889281 0.666575 0.132967
0.898772 0.670298 0.133181
0.907866 0.674388 0.139559
0.915343 0.673777 0.154849
0.374792 0.590906 0.108278
0.468147 0.657679 0.090242
0.503044 0.667140 0.105837
0.546563 0.677546 0.120577
0.601312 0.685328 0.132418
0.654505 0.691402 0.140993
0.712428 0.700252 0.150423
0.758999 0.710079 0.157626
0.806271 0.722072 0.163851
0.837339 0.733547 0.165652
0.865324 0.744259 0.166720
0.877195 0.740108 0.161257
0.886290 0.736080 0.155825
0.897704 0.735531 0.150607
0.907134 0.740688 0.149325
0.914000 0.740688 0.151339
0.919493 0.735683 0.165255
0.441901 0.663325 0.124941
0.537346 0.721828 0.103578
0.568658 0.732479 0.121401
0.604486 0.742763 0.138155
0.653986 0.750210 0.150179
0.702571 0.755703 0.158511
0.752346 0.760464 0.165835
0.794095 0.769863 0.172549
0.833738 0.779660 0.178408
0.859403 0.789822 0.181918
0.881132 0.800412 0.183780
0.894682 0.809842 0.185031
0.901549 0.804715 0.178470
0.906157 0.798489 0.169741
0.912261 0.797818 0.164340
0.916777 0.797238 0.162509
0.923125 0.790829 0.174990
0.498573 0.720760 0.134920
0.588739 0.769406 0.110536
0.621057 0.785245 0.130587
0.658351 0.798886 0.149996
0.699428 0.808377 0.166354
0.745907 0.811368 0.174350
0.791379 0.814511 0.180789
0.826535 0.818479 0.185397
0.854612 0.825833 0.191135
0.874174 0.832792 0.194430
0.890227 0.839567 0.197726
0.903380 0.848325 0.199466
0.911406 0.852872 0.196750
0.915221 0.849271 0.187778
0.919646 0.852171 0.181491
0.920195 0.843442 0.175875
0.923491 0.834867 0.182834
0.542138 0.771511 0.141115
0.625879 0.813504 0.110628
0.660670 0.830625 0.131075
0.701991 0.844480 0.155154
0.744839 0.854002 0.175387
0.788388 0.855467 0.186801
0.826383 0.856657 0.194186
0.858793 0.859342 0.198520
0.873899 0.860929 0.203128
0.889830 0.867399 0.206607
0.898924 0.871214 0.209964
0.908934 0.876005 0.212192
0.916503 0.879271 0.210819
0.920653 0.883146 0.203372
0.922576 0.881132 0.195804
0.923552 0.879789 0.190463
0.924895 0.873442 0.193729
0.574334 0.818509 0.144015
0.648737 0.847013 0.109926
0.686244 0.863218 0.130159
0.730770 0.874418 0.151553
0.775235 0.883665 0.176181
0.817624 0.886137 0.188693
0.852567 0.887449 0.203677
0.878111 0.888762 0.208927
0.891569 0.890379 0.214725
0.900694 0.892241 0.218448
0.908721 0.895872 0.222110
0.914488 0.897581 0.224125
0.921508 0.900084 0.224582
0.923400 0.902617 0.216556
0.926390 0.904997 0.208072
0.926024 0.903075 0.202914
0.926024 0.898772 0.206790
0.598596 0.858396 0.142031
0.663050 0.873869 0.108797
0.702022 0.883665 0.122652
0.746426 0.894072 0.143923
0.795285 0.903593 0.171298
0.837095 0.907408 0.190188
0.872221 0.909361 0.208743
0.891112 0.910002 0.218540
0.904051 0.910857 0.224979
0.911070 0.911589 0.229038
0.916716 0.912902 0.232547
0.920165 0.914092 0.236118
0.923766 0.915373 0.237430
0.925444 0.914794 0.235660
0.927031 0.916960 0.226261
0.927459 0.919829 0.214755
0.926970 0.916045 0.218723
0.609277 0.882841 0.136294
0.660883 0.890379 0.107240
0.699214 0.896300 0.114382
0.742489 0.904326 0.130159
0.793240 0.914122 0.157717
0.837217 0.919615 0.183261
0.874052 0.922667 0.206699
0.892485 0.923278 0.221592
0.906279 0.923156 0.232029
0.914366 0.922301 0.237522
0.920378 0.922484 0.241856
0.924681 0.922759 0.245609
0.926177 0.924010 0.248814
0.927214 0.924254 0.249912
0.927489 0.923430 0.246586
0.927642 0.924834 0.237644
0.927642 0.926024 0.228855
0.026917 0.027008 0.086366
0.033051 0.026673 0.082887
0.056153 0.025696 0.075532
0.097169 0.024964 0.074037
0.146517 0.024506 0.072145
0.207645 0.024750 0.075502
0.281529 0.025605 0.076448
0.363180 0.025879 0.075776
0.439109 0.026398 0.077638
0.510338 0.026856 0.082002
0.569604 0.027741 0.085206
0.624170 0.027588 0.085145
0.674525 0.027863 0.085512
0.723751 0.028717 0.088075
0.768277 0.032136 0.093294
0.808835 0.037812 0.101625
0.836240 0.054749 0.123201
0.025086 0.035004 0.079255
0.040101 0.039399 0.094942
0.069673 0.038178 0.085725
0.124086 0.036164 0.076112
0.190158 0.034516 0.069520
0.268223 0.031464 0.068788
0.355016 0.032441 0.066804
0.434195 0.034424 0.062654
0.505531 0.032471 0.062806
0.570001 0.032136 0.063081
0.624567 0.030304 0.064271
0.673945 0.031678 0.062806
0.721950 0.030640 0.061463
0.768277 0.031586 0.064607
0.810208 0.037293 0.072633
0.839048 0.058625 0.093446
0.858244 0.088869 0.122988
0.026123 0.067842 0.061402
0.042115 0.081270 0.073060
0.072328 0.072236 0.071168
0.133394 0.070893 0.066468
0.214328 0.065003 0.060060
0.306401 0.060761 0.056245
0.400900 0.056519 0.052277
0.488579 0.055268 0.049622
0.559487 0.055207 0.048463
0.618372 0.050233 0.044312
0.668116 0.047150 0.042298
0.716854 0.042298 0.038605
0.763424 0.043427 0.040406
0.803006 0.046571 0.044251
0.831540 0.060182 0.057374
0.855283 0.090669 0.085542
0.875517 0.142641 0.130953
0.035798 0.112734 0.060670
0.053925 0.129885 0.063752
0.084443 0.125124 0.060945
0.147250 0.127962 0.062959
0.228458 0.119387 0.056916
0.320699 0.117281 0.056367
0.417166 0.118959 0.053986
0.504799 0.116579 0.052064
0.576608 0.110780 0.051301
0.637629 0.109865 0.047974
0.687648 0.106111 0.047028
0.734035 0.103914 0.044221
0.774350 0.099733 0.045869
0.809812 0.102510 0.050355
0.839567 0.122377 0.065064
0.865721 0.157717 0.092470
0.886809 0.209842 0.137179
0.051484 0.165682 0.063539
0.074952 0.193088 0.062074
0.106630 0.192172 0.051820
0.169711 0.197147 0.055726
0.254429 0.203372 0.059602
0.344137 0.195987 0.057984
0.433677 0.188022 0.055787
0.526650 0.192386 0.055787
0.595041 0.191745 0.057038
0.660273 0.187045 0.054719
0.709773 0.181643 0.053712
0.755093 0.177798 0.052369
0.791928 0.178531 0.054841
0.824887 0.180545 0.059724
0.854765 0.199069 0.075166
0.878202 0.231846 0.101411
0.894377 0.278904 0.142489
0.074891 0.225986 0.073487
0.106569 0.260563 0.066163
0.142611 0.267979 0.046540
0.210758 0.280735 0.055848
0.291493 0.285451 0.063874
0.384665 0.295857 0.071504
0.469047 0.291691 0.070680
0.557260 0.291600 0.068177
0.621042 0.284413 0.068147
0.683497 0.284138 0.067384
0.729915 0.282277 0.067292
0.775876 0.280095 0.066529
0.814786 0.272877 0.068177
0.847898 0.279850 0.073640
0.875090 0.296117 0.087373
0.892607 0.321050 0.110353
0.905241 0.360906 0.149233
0.111177 0.291234 0.083131
0.154025 0.343221 0.074861
0.198199 0.353872 0.050629
0.276112 0.374258 0.063355
0.349416 0.381918 0.074098
0.436057 0.387167 0.082856
0.522774 0.402243 0.090486
0.600259 0.401053 0.089448
0.658274 0.395651 0.087831
0.716030 0.391897 0.085084
0.758572 0.386313 0.083558
0.797238 0.386770 0.083223
0.836423 0.386282 0.084779
0.865263 0.386557 0.088136
0.891386 0.397391 0.100404
0.903838 0.411353 0.120058
0.908873 0.436194 0.154879
0.162905 0.366079 0.095491
0.217945 0.422934 0.084993
0.271565 0.450828 0.059602
0.352682 0.474113 0.074861
0.432944 0.489982 0.088563
0.512367 0.495964 0.100649
0.586557 0.505165 0.109041
0.661601 0.522438 0.116548
0.707713 0.509865 0.112734
0.754055 0.502815 0.108705
0.793088 0.501320 0.106508
0.829007 0.502449 0.104402
0.858427 0.500771 0.102449
0.879973 0.500984 0.105715
0.894652 0.500862 0.114076
0.906371 0.506081 0.131197
0.912383 0.517235 0.160372
0.223484 0.440299 0.110109
0.293172 0.504921 0.098665
0.357473 0.545205 0.076905
0.421988 0.563577 0.092683
0.496971 0.579019 0.106966
0.569406 0.585122 0.119173
0.637369 0.591348 0.130007
0.705303 0.603738 0.138125
0.760754 0.619821 0.141909
0.802823 0.609934 0.136568
0.827207 0.599405 0.130587
0.853025 0.599313 0.126497
0.876860 0.602121 0.122744
0.889555 0.598215 0.121798
0.902373 0.595712 0.129061
0.909453 0.592050 0.144808
0.915801 0.590036 0.170413
0.290364 0.518746 0.127352
0.370199 0.586465 0.117189
0.441215 0.631815 0.094759
0.491615 0.645350 0.110872
0.551080 0.655665 0.123507
0.621271 0.663844 0.135134
0.683650 0.671229 0.144930
0.745937 0.679988 0.156130
0.800137 0.695003 0.160952
0.838468 0.708843 0.165011
0.856748 0.696880 0.158083
0.875608 0.692576 0.151125
0.893614 0.694743 0.144472
0.901640 0.689830 0.140963
0.908721 0.681315 0.143862
0.915099 0.675883 0.158816
0.919463 0.667247 0.183200
0.356725 0.594751 0.150301
0.433387 0.657404 0.134768
0.516197 0.705653 0.107454
0.556939 0.716426 0.124331
0.610834 0.729274 0.140322
0.667659 0.733486 0.151247
0.726009 0.739528 0.160555
0.782895 0.747524 0.170748
0.827237 0.756222 0.177493
0.860533 0.768917 0.182315
0.882536 0.779110 0.183474
0.892607 0.769833 0.174929
0.902373 0.768185 0.166232
0.910399 0.764187 0.159579
0.916564 0.756130 0.159487
0.919890 0.742336 0.169986
0.923125 0.728420 0.193637
0.413977 0.665919 0.170535
0.490822 0.721736 0.150271
0.575158 0.761715 0.115175
0.613092 0.777249 0.137270
0.660792 0.789487 0.153536
0.716396 0.795804 0.167300
0.764828 0.798978 0.174960
0.817899 0.807065 0.184115
0.849485 0.814817 0.190219
0.877653 0.824277 0.195499
0.894530 0.833249 0.197665
0.908141 0.841917 0.198825
0.913390 0.832761 0.187686
0.916747 0.826871 0.178470
0.920378 0.815824 0.173892
0.922881 0.804746 0.180636
0.926299 0.785183 0.202029
0.459083 0.724727 0.182162
0.533593 0.772091 0.154849
0.624567 0.809934 0.114748
0.666651 0.829068 0.140200
0.711849 0.845121 0.164096
0.767300 0.853239 0.181247
0.812772 0.857206 0.190433
0.854398 0.858763 0.196323
0.872648 0.862516 0.202792
0.890837 0.866911 0.208286
0.903471 0.869291 0.211154
0.914611 0.875151 0.210819
0.921935 0.880369 0.206302
0.924376 0.876677 0.196780
0.924529 0.866270 0.190433
0.924285 0.851408 0.191196
0.926635 0.833188 0.209018
0.496345 0.776669 0.186313
0.569085 0.817319 0.151614
0.655482 0.850553 0.110750
0.702480 0.866819 0.138216
0.752712 0.879911 0.164126
0.805295 0.886992 0.188266
0.843809 0.887877 0.199741
0.876890 0.888914 0.208560
0.889586 0.889677 0.213596
0.901762 0.892576 0.219760
0.910399 0.894316 0.223026
0.918212 0.895689 0.225132
0.924926 0.899565 0.221866
0.926604 0.903197 0.211734
0.926787 0.896178 0.204898
0.927031 0.888884 0.205844
0.927123 0.870359 0.219425
0.526604 0.823545 0.187381
0.588617 0.852140 0.148867
0.663600 0.874083 0.108553
0.711208 0.887205 0.130648
0.763119 0.898650 0.153811
0.817441 0.906065 0.180972
0.858427 0.907958 0.200870
0.887266 0.908934 0.216281
0.900572 0.909697 0.222446
0.909972 0.909850 0.229252
0.916869 0.912474 0.233463
0.921813 0.912718 0.236362
0.925566 0.912657 0.236912
0.927001 0.914977 0.229679
0.927642 0.917266 0.218875
0.927092 0.909758 0.219821
0.927489 0.896635 0.233494
0.544854 0.863218 0.180697
0.598779 0.881376 0.141543
0.653132 0.888945 0.104921
0.700465 0.899321 0.122011
0.750301 0.905760 0.137575
0.808774 0.913939 0.169650
0.851164 0.916777 0.192111
0.885649 0.919524 0.220188
0.900999 0.920317 0.229709
0.912261 0.920958 0.238376
0.919341 0.921660 0.243534
0.923949 0.923247 0.247898
0.926146 0.923308 0.250889
0.927428 0.922545 0.250004
0.927581 0.923644 0.242283
0.927733 0.925750 0.231388
0.927855 0.914275 0.244419
0.551385 0.887541 0.171206
0.596338 0.898192 0.135348
0.634302 0.899351 0.099702
0.679652 0.903838 0.108248
0.729641 0.910369 0.124025
0.794919 0.918853 0.160616
0.841794 0.923278 0.191165
0.878630 0.926116 0.222538
0.895354 0.926452 0.237308
0.908568 0.926696 0.247349
0.917235 0.926879 0.254002
0.923186 0.927062 0.258732
0.925872 0.926818 0.264591
0.927214 0.926909 0.267247
0.927642 0.926879 0.267918
0.927855 0.927153 0.261570
0.928008 0.927672 0.254246
0.027314 0.027436 0.141787
0.035828 0.027070 0.135958
0.053498 0.026215 0.129000
0.091951 0.025147 0.119142
0.139834 0.024323 0.118349
0.201541 0.023865 0.111147
0.269780 0.024903 0.110597
0.349172 0.025544 0.115877
0.426505 0.026368 0.120821
0.500160 0.026825 0.125948
0.561639 0.027802 0.125399
0.619501 0.028077 0.129122
0.672816 0.028779 0.132174
0.722652 0.029969 0.135409
