assets/luts/impulz-kodak-ektar-100-fc-log-71592d73.cube
# (C) 2014 VisionColor & Patchflyer [www.vision-color.com]
# Generator: VC Patchmatch v.2.1.1 [64/53]
# All work and no play makes Jack a dull boy.
# LUT generated from: Kodak Ektar 100_FC
LUT_3D_SIZE 9
0.030304 0.014008 0.020722
0.084932 0.025635 0.031647
0.171237 0.034638 0.041016
0.292607 0.044038 0.050050
0.444144 0.050629 0.056703
0.577935 0.061067 0.063386
0.690089 0.081971 0.074647
0.772213 0.096498 0.087098
0.806790 0.107881 0.099062
0.045624 0.073701 0.040803
0.070436 0.073610 0.035859
0.143008 0.095247 0.041413
0.244633 0.116426 0.044800
0.384588 0.133700 0.049348
0.519677 0.155581 0.057282
0.641779 0.197482 0.073396
0.724605 0.246860 0.090761
0.765133 0.248295 0.102144
0.059052 0.183719 0.065736
0.074495 0.176333 0.053986
0.114534 0.170626 0.045045
0.185000 0.178653 0.042206
0.319295 0.209720 0.044831
0.475517 0.260716 0.057374
0.610834 0.327306 0.079011
0.705135 0.411902 0.106813
0.744533 0.411353 0.120577
0.058198 0.304143 0.074037
0.078981 0.303441 0.063508
0.104646 0.291020 0.056275
0.163333 0.285008 0.048035
0.255497 0.289326 0.047089
0.413291 0.353368 0.059083
0.568109 0.434150 0.085023
0.687892 0.521904 0.121431
0.739467 0.534356 0.142916
0.061952 0.428504 0.093477
0.079103 0.440238 0.088746
0.099062 0.440421 0.080690
0.145876 0.433158 0.073701
0.230838 0.423362 0.062654
0.351583 0.439918 0.065705
0.495415 0.485176 0.082460
0.632990 0.533501 0.111208
0.716640 0.540490 0.135592
0.072358 0.549737 0.129061
0.079255 0.566155 0.127535
0.091981 0.580041 0.123964
0.130556 0.589624 0.122927
0.198978 0.575814 0.112398
0.283055 0.538781 0.085267
0.414466 0.535119 0.086854
0.547448 0.539239 0.101289
0.676539 0.531823 0.124056
0.091005 0.665583 0.186007
0.093263 0.669062 0.180362
0.099825 0.677211 0.180941
0.126955 0.690394 0.200900
0.195071 0.698909 0.222019
0.279484 0.673823 0.185824
0.393011 0.633112 0.142947
0.528496 0.623621 0.138064
0.665278 0.621942 0.159365
0.118410 0.740719 0.257908
0.119661 0.738918 0.253697
0.132479 0.746883 0.258061
0.182712 0.762356 0.313298
0.269749 0.781155 0.378332
0.362371 0.781643 0.344091
0.468421 0.754940 0.277958
0.604547 0.739773 0.256596
0.723323 0.741848 0.261234
0.157290 0.773404 0.343725
0.161196 0.774075 0.345617
0.181155 0.782620 0.357336
0.259068 0.804288 0.415900
0.396262 0.833249 0.507622
0.525628 0.851347 0.531975
0.610224 0.839994 0.475471
0.707179 0.831144 0.442481
0.791684 0.829648 0.412390
0.037690 0.016938 0.045319
0.074678 0.020813 0.047059
0.146365 0.030976 0.060365
0.248295 0.038453 0.075074
0.402945 0.045380 0.081392
0.551354 0.055299 0.084321
0.679927 0.067384 0.088411
0.771389 0.078279 0.096559
0.808408 0.089021 0.105226
0.040406 0.056153 0.066224
0.075135 0.059571 0.065400
0.185122 0.066896 0.066682
0.338033 0.068849 0.065248
0.501320 0.074067 0.067750
0.646693 0.083864 0.073976
0.753353 0.099001 0.085298
0.800259 0.108278 0.097261
0.810880 0.117678 0.106600
0.050599 0.158206 0.101015
0.072633 0.196902 0.092348
0.142977 0.191287 0.073976
0.270726 0.186587 0.060914
0.433402 0.209262 0.064088
0.585931 0.235630 0.072786
0.702327 0.279362 0.090639
0.753017 0.292576 0.105196
0.779660 0.238132 0.110475
0.049653 0.276493 0.123873
0.068360 0.350866 0.103853
0.115541 0.354177 0.094697
0.212436 0.338491 0.076692
0.351736 0.334707 0.066499
0.535164 0.386755 0.078187
0.674800 0.451911 0.106203
0.737606 0.474067 0.130220
0.760006 0.370977 0.123415
0.052888 0.403845 0.144503
0.070314 0.504768 0.131838
0.099275 0.529915 0.130465
0.174624 0.525490 0.130861
0.287083 0.495750 0.101381
0.440574 0.488075 0.085603
0.602884 0.518761 0.104250
0.704524 0.523583 0.128756
0.737758 0.441535 0.124453
0.065126 0.534325 0.187076
0.086336 0.640192 0.185702
0.095308 0.653834 0.181003
0.135103 0.666438 0.195407
0.242725 0.662898 0.205600
0.376013 0.619501 0.151736
0.521233 0.581750 0.119539
0.657191 0.546075 0.128054
0.706966 0.476783 0.124941
0.086000 0.646204 0.249943
0.117922 0.737057 0.259190
0.122255 0.739864 0.252964
0.164614 0.752285 0.295384
0.273716 0.772183 0.355108
0.411566 0.761776 0.309850
0.581628 0.731502 0.254002
0.685969 0.689082 0.213687
0.725155 0.611902 0.188876
0.119417 0.723873 0.335851
0.165988 0.775479 0.353643
0.165377 0.776028 0.349981
0.224094 0.793606 0.394049
0.374777 0.826352 0.494636
0.540185 0.844053 0.506462
0.669795 0.831937 0.456580
0.784970 0.825040 0.411902
0.801358 0.784878 0.356878
0.182559 0.773404 0.440253
0.295171 0.813199 0.516472
0.247868 0.799893 0.478828
0.264134 0.805936 0.489601
0.407797 0.838224 0.571832
0.588479 0.868345 0.643671
0.710994 0.874937 0.639948
0.798306 0.868986 0.595666
0.860319 0.866148 0.536858
0.050141 0.022980 0.112490
0.079438 0.022827 0.099336
0.127016 0.025086 0.096834
0.217136 0.032593 0.114137
0.366323 0.041901 0.126040
0.520531 0.051942 0.133425
0.655543 0.062470 0.128878
0.758083 0.073457 0.127474
0.804013 0.083650 0.125429
0.047730 0.055879 0.146944
0.081697 0.046479 0.155306
0.159304 0.047700 0.138643
0.304006 0.051789 0.133608
0.475029 0.058015 0.128725
0.628992 0.065095 0.114260
0.749264 0.075257 0.108003
0.802731 0.086366 0.110842
0.815152 0.095644 0.115541
0.043122 0.131411 0.156405
0.063813 0.164157 0.189761
0.156558 0.153597 0.163790
0.315618 0.150881 0.146822
0.488640 0.140230 0.123140
0.638605 0.129305 0.103914
0.751583 0.118166 0.096254
0.807950 0.114412 0.105043
0.818906 0.131411 0.118288
0.040955 0.248692 0.181399
0.057771 0.317937 0.191409
0.127474 0.321233 0.177737
0.264073 0.320256 0.169345
0.428000 0.309331 0.129458
0.587121 0.318090 0.115236
0.703853 0.308293 0.107179
0.766720 0.277653 0.113466
0.788632 0.261448 0.128603
0.044739 0.381140 0.204471
0.063447 0.477806 0.221561
0.109010 0.483330 0.197848
0.214694 0.506569 0.212070
0.363027 0.484306 0.190860
0.513741 0.462882 0.132372
0.659022 0.451667 0.116274
0.737026 0.417273 0.122438
0.766140 0.393469 0.142672
0.059388 0.517235 0.255100
0.085878 0.620233 0.281834
0.107057 0.635035 0.254734
0.165682 0.656703 0.273167
0.333242 0.676860 0.321965
0.483955 0.650324 0.272099
0.600641 0.580591 0.166934
0.703883 0.505364 0.137575
0.743770 0.488319 0.153414
0.088228 0.637385 0.325780
0.126619 0.722133 0.365820
0.169589 0.750973 0.367498
0.177371 0.752590 0.366247
0.314290 0.779599 0.455909
0.520470 0.802701 0.475868
0.672175 0.784451 0.408453
0.734493 0.695308 0.268986
0.751766 0.621973 0.220279
0.135958 0.721492 0.417853
0.216709 0.779538 0.482521
0.289555 0.809995 0.516777
0.230411 0.795132 0.471534
0.363973 0.825010 0.552010
0.584085 0.863279 0.637659
0.737881 0.868833 0.619104
0.839292 0.859953 0.541711
0.823697 0.798825 0.431312
0.237980 0.784237 0.540185
0.378180 0.825803 0.621118
0.422339 0.841917 0.649226
0.350622 0.822049 0.602838
0.441642 0.843107 0.650950
0.614206 0.871672 0.724575
0.748226 0.888029 0.749203
0.834226 0.888182 0.724300
0.885161 0.886076 0.666010
0.056641 0.028412 0.218128
0.099184 0.026703 0.182803
0.141421 0.026520 0.167056
0.198184 0.028656 0.163394
0.348745 0.038697 0.178897
0.505638 0.050904 0.187015
0.640528 0.060395 0.186923
0.746914 0.070893 0.175570
0.798611 0.081392 0.153903
0.051728 0.056092 0.271565
0.079072 0.040620 0.317159
0.167452 0.038514 0.251316
0.291402 0.043732 0.225406
0.462333 0.051911 0.208560
0.613794 0.060182 0.189425
0.736721 0.070619 0.167758
0.795346 0.082094 0.146761
0.815000 0.092470 0.134035
0.044373 0.126131 0.271321
0.062043 0.119966 0.358297
0.157565 0.114839 0.310842
0.302296 0.115145 0.264042
0.477592 0.101717 0.233555
0.631464 0.089082 0.195773
0.752438 0.085420 0.147280
0.810910 0.092866 0.124788
0.822354 0.118990 0.138064
0.036988 0.227604 0.267369
0.053040 0.288396 0.329107
0.130190 0.295933 0.323522
0.288411 0.292836 0.304280
0.473655 0.284153 0.281163
0.626337 0.243427 0.223804
0.746578 0.179965 0.152316
0.808621 0.143282 0.125917
0.818204 0.206271 0.153628
0.037110 0.356420 0.279423
0.056306 0.451743 0.329030
0.120760 0.466728 0.325673
0.252903 0.467124 0.313069
0.433097 0.464622 0.316213
0.582971 0.447379 0.252186
0.707271 0.401724 0.188708
0.770565 0.342641 0.153506
0.800076 0.386160 0.193454
0.053620 0.498024 0.326696
0.091249 0.606531 0.385931
0.143954 0.627665 0.389044
0.219715 0.617670 0.365179
0.403250 0.647166 0.408148
0.569116 0.642710 0.398566
0.684016 0.585351 0.266606
0.747646 0.509239 0.181125
0.794553 0.536278 0.225925
0.092500 0.628504 0.400244
0.155337 0.723507 0.475441
0.249943 0.760372 0.516472
0.254398 0.744289 0.477485
0.378195 0.773098 0.530968
0.593256 0.804807 0.587823
0.739834 0.807034 0.555596
0.780880 0.713680 0.341222
0.808957 0.679042 0.311894
0.162295 0.725521 0.496345
0.278508 0.792569 0.589532
0.431830 0.838804 0.660029
0.396155 0.827512 0.628779
0.414542 0.831174 0.633906
0.617563 0.866239 0.716213
0.776547 0.880583 0.734066
0.869810 0.881041 0.688289
0.857633 0.826169 0.529961
0.278965 0.792538 0.612421
0.491554 0.850401 0.709041
0.536614 0.859861 0.729854
0.518761 0.857755 0.726101
0.560128 0.863981 0.737667
0.671382 0.879728 0.778195
0.788052 0.896178 0.815457
0.866941 0.903807 0.826139
0.903258 0.903349 0.793179
0.059388 0.033112 0.399161
0.115572 0.031403 0.336965
0.176150 0.030945 0.291234
0.254108 0.031403 0.257420
0.349020 0.037140 0.236912
0.503288 0.049500 0.242374
0.637049 0.060212 0.243198
0.742092 0.071412 0.225742
0.797513 0.081514 0.181857
0.055024 0.051362 0.478141
0.067353 0.039460 0.570809
0.176699 0.037751 0.438010
0.317388 0.039094 0.347494
0.473320 0.048341 0.300542
0.617334 0.059480 0.270008
0.736019 0.070649 0.239109
0.793332 0.081575 0.187106
0.813046 0.090974 0.159915
0.046815 0.104128 0.460929
0.059236 0.085969 0.607675
0.120699 0.074128 0.554849
0.302647 0.077363 0.424430
0.486992 0.087587 0.364843
0.633722 0.080659 0.300862
0.751797 0.082429 0.217670
0.808621 0.091218 0.162295
0.820066 0.116548 0.179110
0.037110 0.209476 0.404028
0.048035 0.226047 0.504616
0.108370 0.218112 0.518471
0.268254 0.226200 0.474540
0.464286 0.241154 0.423453
0.613184 0.197375 0.359854
0.740749 0.149020 0.255604
0.809903 0.129793 0.180850
0.833982 0.201114 0.225269
0.029480 0.334905 0.377111
0.046143 0.412650 0.454551
0.120272 0.436545 0.468711
0.263127 0.448447 0.466728
0.460960 0.461295 0.469627
0.612238 0.442618 0.439170
0.741909 0.371572 0.341512
0.812070 0.290669 0.224506
0.835935 0.392782 0.288685
0.044404 0.472953 0.400366
0.080262 0.582284 0.472786
0.137331 0.608835 0.490608
0.271214 0.614450 0.496803
0.430472 0.613092 0.481575
0.605798 0.621866 0.490974
0.735225 0.594293 0.409415
0.805508 0.537942 0.304692
0.850797 0.593378 0.378851
0.086946 0.614221 0.459724
0.157992 0.716091 0.549615
0.287953 0.762387 0.610101
0.370642 0.765347 0.613703
0.443290 0.758389 0.584100
0.621897 0.787533 0.618494
0.771054 0.796384 0.621759
0.830533 0.738277 0.454932
0.857420 0.732754 0.453346
0.166293 0.721645 0.551049
0.299260 0.792844 0.656977
0.496345 0.848905 0.731807
0.531640 0.852293 0.736507
0.529168 0.850004 0.715175
0.653864 0.867308 0.750088
0.802976 0.882506 0.780362
0.885374 0.889128 0.771695
0.885527 0.857267 0.640681
0.289738 0.792599 0.659968
0.502098 0.849485 0.742153
0.591791 0.867918 0.777768
0.599329 0.868162 0.785702
0.644221 0.876371 0.787076
0.722805 0.888090 0.805173
0.821073 0.902159 0.839048
0.888426 0.911986 0.856718
0.919615 0.915099 0.839139
0.061006 0.037354 0.624216
0.115633 0.035615 0.542428
0.207065 0.035187 0.445884
0.304753 0.035645 0.377188
0.408331 0.039734 0.328008
0.512566 0.050080 0.296818
0.637263 0.061677 0.303929
0.738399 0.072877 0.291814
0.793484 0.083375 0.246677
0.057954 0.049104 0.693645
0.061952 0.040681 0.789242
0.145144 0.039338 0.671733
0.319478 0.041260 0.522652
0.483665 0.048341 0.427726
0.621057 0.060273 0.377447
0.731533 0.074006 0.343847
0.786557 0.083375 0.276860
0.807675 0.092103 0.213321
0.051850 0.084993 0.669017
0.059998 0.061189 0.821073
0.083070 0.052125 0.806165
0.252705 0.054353 0.633921
0.474540 0.064424 0.499718
0.636408 0.075746 0.439429
0.747250 0.084108 0.343084
0.800809 0.092256 0.240848
0.810300 0.117617 0.247654
0.038788 0.178988 0.569406
0.050965 0.138506 0.737072
0.082521 0.122637 0.771008
0.183886 0.122057 0.683818
0.431754 0.148608 0.556283
0.608789 0.171679 0.498634
0.736202 0.144640 0.391241
0.800595 0.130983 0.278416
0.821073 0.198276 0.324224
0.028107 0.316732 0.505776
0.043885 0.334768 0.611307
0.099550 0.338231 0.639994
0.204913 0.337102 0.631327
0.419181 0.371435 0.605402
0.607752 0.411948 0.577478
0.737240 0.350515 0.495247
0.815122 0.279835 0.373358
0.852689 0.391257 0.440467
0.033478 0.442512 0.482826
0.060700 0.533135 0.577539
0.115846 0.561151 0.600366
0.244099 0.581018 0.604364
0.435325 0.602564 0.609491
0.619501 0.619501 0.620722
0.749386 0.597818 0.589334
0.841917 0.545174 0.487999
0.879301 0.613321 0.548470
0.073732 0.588006 0.518090
0.131289 0.686213 0.613031
0.206180 0.724971 0.650202
0.321401 0.744015 0.667964
0.482765 0.762417 0.680598
0.612222 0.761929 0.650752
0.761837 0.768063 0.656703
0.860288 0.753506 0.591196
0.900267 0.768307 0.635996
0.145357 0.705837 0.591028
0.234104 0.769528 0.684749
0.376852 0.813107 0.736843
0.490043 0.838529 0.767330
0.584710 0.855894 0.779141
0.659113 0.864317 0.761532
0.798154 0.878050 0.779202
0.885954 0.884764 0.785550
0.906035 0.864317 0.723873
0.246799 0.779232 0.683803
0.398733 0.821378 0.742458
0.519570 0.847410 0.782620
0.597925 0.866056 0.811460
0.672755 0.880400 0.825620
0.743832 0.893034 0.821836
0.820127 0.906920 0.833036
0.886900 0.918395 0.853239
0.929259 0.924620 0.851133
0.060670 0.039399 0.819089
0.098634 0.038300 0.751278
0.213474 0.038849 0.624674
0.356878 0.041718 0.529030
0.462318 0.044862 0.456428
0.547265 0.052613 0.415137
0.638178 0.063508 0.382666
0.729915 0.076326 0.381231
0.782162 0.085145 0.353826
0.059907 0.049531 0.849454
0.060914 0.041321 0.897673
0.125399 0.040345 0.825589
0.318929 0.044587 0.678752
0.500496 0.051362 0.575601
0.623774 0.061402 0.518608
0.724422 0.077729 0.484901
0.769009 0.086763 0.426032
0.791653 0.094484 0.332982
0.058564 0.065705 0.843198
0.061494 0.054597 0.914611
0.070283 0.047150 0.905150
0.201755 0.047272 0.793149
0.438407 0.056458 0.647532
0.621668 0.068940 0.566522
0.732052 0.089601 0.525048
0.777462 0.099092 0.423957
0.794736 0.127382 0.360937
0.049592 0.119326 0.772290
0.058747 0.088594 0.891234
0.069612 0.071260 0.912230
0.122866 0.066255 0.862013
0.345937 0.076753 0.714549
0.584848 0.109651 0.611200
0.721584 0.156832 0.572229
0.782681 0.151431 0.459113
0.804440 0.215671 0.462135
0.040864 0.262592 0.660288
0.056245 0.227161 0.786603
0.072908 0.165850 0.844984
0.127703 0.156115 0.838087
0.300832 0.180896 0.747692
0.568368 0.263020 0.676234
0.730037 0.357198 0.656611
0.798123 0.302480 0.555108
0.838834 0.412650 0.583856
0.040681 0.430335 0.599176
0.069520 0.478477 0.689723
0.098573 0.432853 0.732296
0.185641 0.429206 0.739590
0.364065 0.459663 0.740169
0.579416 0.515114 0.732784
0.747341 0.592721 0.728176
0.840330 0.550057 0.669779
0.879759 0.623392 0.690715
0.058503 0.548669 0.594842
0.102266 0.632837 0.680934
0.154940 0.674006 0.705989
0.239933 0.692531 0.717800
0.415976 0.726894 0.739498
0.602838 0.752041 0.753079
0.771176 0.771176 0.769406
0.870298 0.754391 0.744564
0.923339 0.797116 0.781277
0.129885 0.676387 0.642145
0.207553 0.743862 0.719448
0.275059 0.772763 0.748318
0.373587 0.802792 0.771511
0.534432 0.845029 0.805722
0.671260 0.867033 0.812924
0.779324 0.876921 0.799710
0.883543 0.882506 0.808011
0.930510 0.882078 0.818112
0.217105 0.761593 0.710170
0.297368 0.786648 0.744900
0.400946 0.815518 0.775723
0.538582 0.852842 0.816983
0.657389 0.877745 0.842039
0.755856 0.898528 0.850462
0.834134 0.920684 0.856352
0.893462 0.930907 0.859953
0.937346 0.937224 0.868772
0.060548 0.040558 0.899962
0.090730 0.039460 0.857481
0.196445 0.040162 0.757717
0.362051 0.044831 0.655695
0.490974 0.050019 0.587518
0.571862 0.056031 0.538231
0.658167 0.066316 0.508293
0.724208 0.078859 0.486915
0.767300 0.087678 0.466255
0.060426 0.049775 0.914366
0.062898 0.042573 0.931456
0.128420 0.041962 0.870726
0.274983 0.044739 0.761776
0.459953 0.053010 0.673579
0.597375 0.061982 0.615106
0.702815 0.077790 0.583093
0.754635 0.092470 0.564569
0.771328 0.104402 0.488106
0.060700 0.061707 0.915587
0.062959 0.054994 0.936553
0.069917 0.048768 0.929992
0.204593 0.049073 0.838499
0.406882 0.058320 0.733852
0.599084 0.071504 0.660304
0.704677 0.089326 0.619257
0.754849 0.113985 0.602045
0.778836 0.162051 0.526452
0.056794 0.088014 0.898772
0.061860 0.073579 0.938537
0.071443 0.064790 0.940948
0.100343 0.059846 0.928710
0.300404 0.065949 0.807950
0.554299 0.087800 0.700984
0.699672 0.136477 0.659388
0.764797 0.230411 0.666133
0.790463 0.277806 0.614893
0.052522 0.188342 0.812757
0.059754 0.143114 0.894255
0.072297 0.097871 0.929534
0.111757 0.085328 0.919554
0.228046 0.086854 0.854414
0.504952 0.144198 0.748257
0.703090 0.261769 0.721157
0.790188 0.409689 0.734798
0.825986 0.466758 0.711910
0.063661 0.380697 0.716213
0.072877 0.338643 0.786496
0.084779 0.240375 0.842924
0.137270 0.202396 0.851438
0.285420 0.219471 0.833402
0.506783 0.260945 0.786313
0.729976 0.457603 0.786374
0.823850 0.583535 0.795621
0.869718 0.663920 0.793606
0.073030 0.532403 0.681971
0.091646 0.556909 0.739681
0.122347 0.524025 0.773861
0.195193 0.515496 0.794644
0.358206 0.563256 0.822934
0.577157 0.604898 0.837980
0.749752 0.660807 0.839902
0.863310 0.756374 0.852995
0.913512 0.806882 0.860777
0.104738 0.637385 0.684352
0.167300 0.706722 0.734493
0.230411 0.747250 0.758755
0.280888 0.762661 0.771756
0.404990 0.800717 0.807370
0.610178 0.853361 0.853513
0.768460 0.875090 0.869718
0.888334 0.888334 0.882322
0.946227 0.904204 0.897154
0.207431 0.744808 0.733455
0.271122 0.770565 0.756497
0.332586 0.791623 0.773556
0.447654 0.833219 0.809537
0.613596 0.873930 0.850004
0.747341 0.901793 0.870085
0.836637 0.927459 0.885222
0.908904 0.946380 0.903258
0.946593 0.946593 0.905241
0.063386 0.043000 0.932342
0.097169 0.041474 0.899443
0.185458 0.041199 0.822446
0.320867 0.045594 0.740200
0.463844 0.053040 0.678981
0.567529 0.059266 0.631617
0.656947 0.068727 0.598901
0.727443 0.082277 0.584100
0.757382 0.092866 0.570794
0.061769 0.051087 0.936797
0.069673 0.048066 0.934264
0.157839 0.046815 0.869902
0.282841 0.050385 0.788785
0.448905 0.059388 0.721004
0.591241 0.069429 0.669581
0.673640 0.080171 0.633234
0.733761 0.098421 0.616419
0.756619 0.117983 0.609705
0.062684 0.061738 0.940185
0.070161 0.059419 0.940490
0.090883 0.057649 0.933745
0.217777 0.058442 0.860777
0.386404 0.067414 0.775113
0.578775 0.083894 0.705898
0.681788 0.112123 0.669795
0.735317 0.152041 0.659846
0.765133 0.212375 0.666590
0.060883 0.080568 0.940002
0.071229 0.071870 0.943999
0.094545 0.069245 0.938109
0.167987 0.070375 0.902434
0.339651 0.082399 0.811765
0.545769 0.120577 0.744900
0.692134 0.187045 0.717739
0.756619 0.273533 0.723201
0.790707 0.397650 0.747463
0.057496 0.134752 0.905791
0.071107 0.097658 0.934325
0.103487 0.090303 0.927062
0.190723 0.092378 0.880461
0.371786 0.113527 0.819028
0.575265 0.185275 0.768734
0.725063 0.318517 0.766201
0.790127 0.446433 0.782895
0.816922 0.534325 0.793088
0.066712 0.282124 0.811368
0.078492 0.194705 0.863157
0.116518 0.165682 0.876463
0.228367 0.194781 0.859098
0.419394 0.208377 0.820340
0.608438 0.262074 0.794003
0.745205 0.451133 0.816526
0.824521 0.609598 0.843320
0.854002 0.658503 0.839292
0.082490 0.466957 0.757229
0.099611 0.400961 0.792111
0.149905 0.371130 0.817258
0.268513 0.426429 0.834043
0.470848 0.470542 0.847349
0.652567 0.508186 0.853819
0.787991 0.629038 0.867735
0.865965 0.768429 0.890867
0.901732 0.796597 0.891966
0.095338 0.596246 0.735531
0.133913 0.599603 0.762722
0.195651 0.608026 0.789364
0.309041 0.666072 0.819303
0.497612 0.734524 0.860410
0.668330 0.783475 0.892790
0.803220 0.859556 0.915984
0.902647 0.892485 0.931884
0.942016 0.901488 0.933715
0.171511 0.717037 0.739376
0.233677 0.751064 0.760128
0.287694 0.772824 0.775143
0.353338 0.798428 0.802396
0.534066 0.855039 0.853788
0.714351 0.902556 0.896117
0.826658 0.929229 0.921721
0.907561 0.946319 0.938323
0.959930 0.959930 0.951598
