assets/luts/impulz-kodak-ultramax-400-fc-rec709-3d236fc2.cube
# (C) 2014 VisionColor & Patchflyer [www.vision-color.com]
# Generator: VC Patchmatch v.2.1.1 [64/53]
# All work and no play makes Jack a dull boy.
# LUT generated from: Kodak Ultramax 400_FC
LUT_3D_SIZE 9
0.033265 0.035096 0.035828
0.105104 0.036194 0.037049
0.207218 0.037873 0.039948
0.327428 0.047913 0.049287
0.444953 0.057069 0.057801
0.552270 0.065126 0.065705
0.642237 0.074922 0.076783
0.736507 0.081544 0.087312
0.837461 0.081270 0.095491
0.056306 0.089662 0.026734
0.145480 0.104463 0.027680
0.274296 0.119966 0.031312
0.402167 0.138674 0.041352
0.513817 0.154696 0.049866
0.604242 0.163394 0.060212
0.685847 0.173526 0.073243
0.772488 0.176150 0.085634
0.866087 0.167025 0.093080
0.105928 0.180240 0.021454
0.188907 0.210239 0.025116
0.324407 0.230228 0.029145
0.456397 0.252537 0.041749
0.566094 0.269596 0.050019
0.649989 0.281193 0.058961
0.725307 0.287724 0.070497
0.797604 0.284031 0.081086
0.883360 0.269657 0.089631
0.182956 0.295232 0.028779
0.253239 0.327337 0.034943
0.371374 0.357885 0.039918
0.494911 0.379187 0.042817
0.598016 0.388098 0.052003
0.683467 0.396735 0.059174
0.748379 0.399451 0.069337
0.810971 0.389654 0.079042
0.882811 0.360021 0.086091
0.244175 0.405798 0.031067
0.304417 0.440681 0.039673
0.410254 0.464057 0.046693
0.528038 0.487739 0.050599
0.625177 0.499306 0.051179
0.707271 0.499123 0.059876
0.770047 0.497078 0.068849
0.822599 0.482246 0.077455
0.883940 0.452125 0.082948
0.277653 0.488930 0.037171
0.339483 0.520653 0.047211
0.433051 0.542718 0.053223
0.542443 0.560906 0.056458
0.642451 0.575280 0.057282
0.726131 0.582177 0.057984
0.785916 0.574945 0.068147
0.830533 0.560967 0.077028
0.883452 0.530236 0.078645
0.284886 0.559625 0.036622
0.350896 0.586877 0.046754
0.448280 0.604517 0.054810
0.550988 0.620935 0.061036
0.646632 0.632380 0.063325
0.730404 0.641077 0.065003
0.796841 0.643854 0.064393
0.839506 0.628016 0.072633
0.883940 0.604212 0.077974
0.275212 0.626398 0.036011
0.361303 0.644373 0.049165
0.455543 0.659876 0.059266
0.554345 0.677211 0.067475
0.643915 0.687404 0.070069
0.721614 0.696284 0.071015
0.785885 0.699489 0.070130
0.837949 0.695979 0.068940
0.879484 0.679286 0.071992
0.267430 0.711330 0.031281
0.348455 0.723751 0.040620
0.453590 0.731472 0.055390
0.547082 0.745083 0.066102
0.633417 0.753292 0.069276
0.702602 0.760891 0.070985
0.764370 0.766079 0.069062
0.815915 0.759487 0.066072
0.866514 0.752224 0.063813
0.033906 0.037568 0.127993
0.098146 0.033539 0.123751
0.209506 0.033448 0.122194
0.325200 0.039368 0.127199
0.429755 0.045014 0.129000
0.521111 0.051667 0.135103
0.610559 0.059968 0.141726
0.699123 0.066468 0.146304
0.803189 0.067231 0.147433
0.048859 0.110872 0.100862
0.133608 0.121035 0.114473
0.244022 0.126375 0.117250
0.360418 0.135866 0.125429
0.458778 0.147097 0.133822
0.546044 0.161807 0.144625
0.623438 0.172183 0.156435
0.715633 0.179568 0.166171
0.827848 0.171023 0.166201
0.096681 0.218143 0.090974
0.184604 0.230808 0.109712
0.299229 0.252018 0.122560
0.417639 0.258976 0.128634
0.519402 0.275486 0.137575
0.596857 0.284306 0.146456
0.664607 0.291752 0.157534
0.744900 0.289952 0.165621
0.848844 0.267826 0.164645
0.151827 0.322026 0.096162
0.238132 0.340490 0.112093
0.344060 0.363897 0.126162
0.468544 0.385595 0.134524
0.560418 0.388403 0.142580
0.635004 0.397436 0.151278
0.692988 0.398322 0.158694
0.760189 0.389990 0.164248
0.857877 0.359503 0.162112
0.196109 0.422278 0.094759
0.279149 0.431403 0.114931
0.380499 0.452705 0.129641
0.495308 0.477455 0.139559
0.597436 0.492836 0.144106
0.663386 0.487343 0.155734
0.714900 0.487709 0.160525
0.773587 0.475715 0.166293
0.859495 0.445258 0.165011
0.217227 0.502403 0.094820
0.301976 0.504448 0.115572
0.400305 0.520500 0.131930
0.507897 0.541131 0.146029
0.607569 0.560418 0.152499
0.687526 0.569818 0.153140
0.730617 0.560113 0.160616
0.785550 0.550500 0.165652
0.857145 0.526238 0.163394
0.221622 0.572381 0.084565
0.312657 0.567864 0.111757
0.412970 0.580682 0.130953
0.515343 0.596521 0.145480
0.604852 0.609949 0.155734
0.682063 0.622095 0.157229
0.748257 0.628870 0.156497
0.799283 0.618433 0.163119
0.863310 0.600885 0.163882
0.218845 0.636225 0.078553
0.309606 0.635065 0.102449
0.420020 0.644190 0.125307
0.514794 0.655451 0.143862
0.600092 0.669520 0.154421
0.671351 0.680110 0.157473
0.738735 0.688197 0.157107
0.801297 0.685206 0.154116
0.863645 0.677180 0.154055
0.206607 0.719997 0.054505
0.308019 0.719326 0.082002
0.417151 0.726528 0.105440
0.514549 0.731960 0.127810
0.592157 0.744045 0.140719
0.661097 0.753811 0.148287
0.724422 0.763088 0.146426
0.787320 0.759487 0.142184
0.852659 0.749844 0.136995
0.031861 0.041108 0.251774
0.076326 0.034119 0.223423
0.193759 0.033082 0.209598
0.308080 0.038483 0.212406
0.414313 0.043763 0.215793
0.500511 0.050507 0.219760
0.580011 0.059419 0.222904
0.661555 0.066102 0.217472
0.761715 0.069978 0.205509
0.044526 0.116609 0.206149
0.111055 0.123781 0.209903
0.210727 0.117433 0.212314
0.319890 0.121675 0.206546
0.416724 0.131106 0.209049
0.502312 0.140078 0.212345
0.582574 0.150515 0.217990
0.672999 0.154849 0.215946
0.791623 0.152163 0.209262
0.076661 0.222965 0.198856
0.152224 0.232975 0.209354
0.251255 0.242649 0.219272
0.361089 0.254368 0.227024
0.454383 0.266484 0.232517
0.535058 0.278386 0.241062
0.611353 0.286351 0.248692
0.698787 0.280674 0.242649
0.817594 0.262699 0.227878
0.117311 0.331975 0.196445
0.201328 0.343206 0.207736
0.305730 0.352514 0.227268
0.418433 0.371069 0.239994
0.506188 0.381109 0.244053
0.582971 0.391608 0.249851
0.648157 0.392065 0.252689
0.726009 0.383459 0.243717
0.832334 0.354162 0.229374
0.150118 0.433936 0.192752
0.237919 0.434272 0.210727
0.342199 0.440436 0.229404
0.447425 0.457191 0.243931
0.544701 0.473060 0.251255
0.612726 0.476265 0.258885
0.673396 0.479408 0.259861
0.741665 0.467933 0.250919
0.841306 0.439246 0.233829
0.173068 0.516045 0.180667
0.258976 0.507408 0.201968
0.365362 0.507927 0.228000
0.464424 0.523430 0.247990
0.559533 0.540948 0.258366
0.639460 0.551965 0.261234
0.691035 0.546471 0.265995
0.754757 0.541466 0.256596
0.843809 0.520989 0.241123
0.180697 0.583581 0.168521
0.273442 0.570855 0.196597
0.379095 0.569970 0.223453
0.475166 0.581262 0.244572
0.566644 0.598108 0.261540
0.642695 0.610925 0.263493
0.710903 0.616114 0.263981
0.766140 0.609735 0.260838
0.853666 0.600153 0.247440
0.183352 0.647700 0.148257
0.276890 0.640314 0.175662
0.390051 0.641871 0.203281
0.483070 0.648646 0.231296
0.566979 0.663630 0.247868
0.639338 0.676478 0.253422
0.709224 0.685084 0.254520
0.779141 0.684688 0.253025
0.858183 0.685420 0.246433
0.178958 0.732448 0.122286
0.277958 0.725826 0.144015
0.395392 0.737514 0.168673
0.491463 0.739559 0.196628
0.566369 0.748867 0.224918
0.635554 0.759823 0.235142
0.705013 0.773068 0.235142
0.778897 0.776364 0.230045
0.852506 0.764492 0.221225
0.034058 0.050263 0.400427
0.062379 0.037934 0.339361
0.167758 0.037293 0.311254
0.276402 0.037659 0.290135
0.385718 0.043061 0.296178
0.474678 0.049897 0.297734
0.548486 0.058534 0.291203
0.624933 0.065309 0.278508
0.715450 0.070802 0.255253
0.048707 0.131838 0.319860
0.099153 0.126925 0.303746
0.173922 0.114595 0.290318
0.284794 0.118410 0.291356
0.381750 0.128359 0.290959
0.466560 0.137270 0.289403
0.544457 0.146212 0.286748
0.630457 0.150454 0.274723
0.742733 0.150607 0.252903
0.075380 0.224918 0.303716
0.137575 0.231022 0.302556
0.226780 0.241306 0.304021
0.321660 0.239811 0.308110
0.413184 0.247868 0.307195
0.495064 0.257267 0.306828
0.571466 0.263645 0.303777
0.659327 0.256992 0.288884
0.777523 0.241032 0.261479
0.098695 0.330968 0.312749
0.167330 0.336736 0.318090
0.266667 0.343755 0.321477
0.381170 0.363043 0.338994
0.465675 0.372015 0.340581
0.537255 0.379095 0.341924
0.610590 0.381659 0.338903
0.698756 0.369177 0.318120
0.816861 0.334813 0.277073
0.120516 0.436439 0.310735
0.200870 0.434730 0.315038
0.302220 0.434943 0.323827
0.410864 0.447791 0.343938
0.503471 0.460060 0.353552
0.573419 0.466072 0.353582
0.643549 0.469123 0.348669
0.723568 0.457282 0.326787
0.832639 0.421759 0.286442
0.139406 0.517693 0.292271
0.219394 0.510155 0.304875
0.327550 0.508446 0.323827
0.428717 0.514458 0.346349
0.516258 0.525963 0.356603
0.600763 0.537224 0.364019
0.667689 0.540002 0.360906
0.745571 0.536614 0.343755
0.846708 0.512322 0.305913
0.149874 0.590967 0.269505
0.237430 0.573877 0.289860
0.344854 0.568902 0.315526
0.444465 0.576867 0.337438
0.528008 0.590356 0.354650
0.612696 0.606622 0.362402
0.684565 0.610071 0.365209
0.759091 0.610285 0.354040
0.859464 0.603601 0.322271
0.155184 0.657954 0.238804
0.246433 0.644984 0.263035
0.358953 0.642664 0.295964
0.461677 0.654994 0.316381
0.538811 0.664057 0.337987
0.618250 0.684291 0.350317
0.694270 0.696834 0.352270
0.775265 0.694209 0.352453
0.867521 0.699886 0.331212
0.153628 0.745510 0.200717
0.251621 0.728267 0.225803
0.367712 0.739376 0.245457
0.478065 0.764126 0.264012
0.552789 0.767758 0.295689
0.624445 0.777157 0.320775
0.699886 0.794095 0.323827
0.783993 0.805173 0.320317
0.873167 0.799130 0.310430
0.033021 0.058198 0.552514
0.055329 0.040101 0.483040
0.141176 0.039948 0.426886
0.254673 0.042237 0.400732
0.352239 0.042481 0.362463
0.444129 0.049256 0.364782
0.520623 0.058595 0.358251
0.593927 0.065309 0.333623
0.682124 0.070619 0.300938
0.047730 0.145815 0.442054
0.090730 0.131960 0.389807
0.150210 0.117220 0.371130
0.254154 0.122530 0.366949
0.349432 0.126497 0.360784
0.433692 0.136202 0.360662
0.511467 0.146120 0.349889
0.592798 0.148592 0.327245
0.698634 0.150057 0.297520
0.073365 0.237766 0.420569
0.129397 0.240574 0.394293
0.204807 0.239872 0.375067
0.285710 0.235080 0.375311
0.377020 0.241489 0.380529
0.457618 0.249973 0.379095
0.536004 0.256077 0.369268
0.618585 0.251286 0.343877
0.735134 0.238346 0.303044
0.090791 0.330266 0.417182
0.156374 0.334203 0.405676
0.243931 0.340826 0.400854
0.347417 0.358404 0.406653
0.429938 0.361273 0.412879
0.502281 0.364508 0.407324
0.575647 0.363897 0.394842
0.661799 0.351873 0.358953
0.780850 0.319036 0.306981
0.104768 0.431769 0.425208
0.175601 0.429572 0.421698
0.268894 0.428779 0.418463
0.378759 0.438300 0.425605
0.481605 0.459968 0.444038
0.547662 0.461158 0.439033
0.614557 0.460212 0.425635
0.700191 0.442756 0.383246
0.820310 0.403326 0.327794
0.118929 0.516808 0.407904
0.187686 0.509636 0.407324
0.293797 0.505272 0.414771
0.397650 0.506676 0.424781
0.493782 0.523156 0.443153
0.577905 0.534661 0.451575
0.645960 0.537224 0.438270
0.731929 0.530022 0.407080
0.845945 0.503563 0.354284
0.125582 0.592950 0.382712
0.199924 0.577783 0.391089
0.307958 0.570764 0.406317
0.414191 0.576288 0.424933
0.506859 0.585809 0.439307
0.588251 0.599481 0.446143
0.675074 0.612543 0.449805
0.758389 0.617426 0.431159
0.867369 0.610193 0.387427
0.130098 0.663081 0.344884
0.211917 0.650813 0.356512
0.324590 0.646784 0.384588
0.433997 0.655299 0.407538
0.525048 0.675990 0.419867
0.599817 0.689998 0.433814
0.689387 0.710658 0.441718
0.786038 0.714412 0.444251
0.884550 0.724453 0.414771
0.128298 0.752651 0.295964
0.223362 0.739040 0.314336
0.337469 0.744625 0.342412
0.450965 0.766445 0.361273
0.544366 0.800748 0.369375
0.617761 0.801572 0.400519
0.704890 0.819821 0.413397
0.804593 0.838315 0.416327
0.899504 0.840513 0.406378
0.032837 0.068360 0.655543
0.049744 0.047395 0.594202
0.119966 0.046693 0.532525
0.223270 0.047852 0.510338
0.325933 0.049866 0.477104
0.411566 0.050141 0.427375
0.490517 0.059236 0.418250
0.568811 0.066011 0.399695
0.654505 0.069795 0.358770
0.047333 0.160098 0.559106
0.083497 0.142184 0.472389
0.131472 0.120546 0.443091
0.224399 0.125460 0.434974
0.320562 0.132631 0.433448
0.403662 0.134890 0.424475
0.481880 0.145480 0.417060
0.564508 0.149935 0.394568
0.664057 0.148257 0.349523
0.070893 0.254215 0.530724
0.117922 0.246860 0.471931
0.190951 0.244999 0.439490
0.256016 0.233280 0.433875
0.347494 0.242466 0.441444
0.424994 0.245701 0.442878
0.501884 0.251469 0.432959
0.583337 0.249393 0.402533
0.695491 0.235660 0.354314
0.086519 0.338354 0.518334
0.146273 0.340795 0.488563
0.230564 0.345464 0.473487
0.320287 0.356176 0.467842
0.392020 0.353765 0.470283
0.471351 0.358495 0.474037
0.542657 0.357061 0.461616
0.627283 0.345190 0.424445
0.741756 0.316930 0.366125
0.098299 0.427161 0.516320
0.164523 0.423743 0.502037
0.254795 0.424262 0.491341
0.351263 0.434852 0.487739
0.444999 0.451270 0.500053
0.517449 0.452613 0.503899
0.585718 0.448798 0.489113
0.666865 0.428717 0.441718
0.786892 0.391119 0.374884
0.102480 0.510399 0.516533
0.168460 0.505913 0.509544
0.267918 0.503319 0.508476
0.373388 0.503349 0.505211
0.471412 0.518334 0.517479
0.559625 0.536309 0.532525
0.624353 0.534417 0.512505
0.707362 0.518151 0.464088
0.839261 0.485267 0.406378
0.105257 0.589532 0.494087
0.176699 0.577539 0.491676
0.277287 0.574395 0.498543
0.388312 0.575006 0.502678
0.484108 0.584253 0.515618
0.573205 0.604883 0.528923
0.664210 0.620020 0.532189
0.754147 0.622675 0.502556
0.871672 0.613825 0.458289
0.108339 0.664027 0.457191
0.180697 0.656886 0.466499
0.286687 0.656428 0.484535
0.403296 0.661433 0.495521
0.502739 0.681422 0.512474
0.594690 0.706142 0.519371
0.683192 0.720913 0.528161
0.796628 0.736599 0.528191
0.897185 0.743557 0.499733
0.103334 0.755581 0.405371
0.192355 0.749172 0.419013
0.304570 0.757504 0.441505
0.425147 0.778561 0.467170
0.522820 0.808927 0.483925
0.617517 0.843473 0.491585
0.710140 0.849577 0.511467
0.821408 0.866300 0.520684
0.918425 0.876554 0.512840
0.028809 0.080537 0.750790
0.046448 0.051972 0.686336
0.101289 0.051270 0.640375
0.191592 0.053407 0.608576
0.290166 0.057313 0.578058
0.377234 0.059693 0.527794
0.458717 0.060639 0.495613
0.539605 0.067597 0.475227
0.631281 0.071290 0.438514
0.039948 0.172824 0.669490
0.075868 0.152804 0.545830
0.116030 0.129183 0.522484
0.199191 0.134554 0.508385
0.286351 0.139132 0.508965
0.373510 0.143893 0.500969
0.451545 0.145541 0.488350
0.536004 0.150301 0.469673
0.634546 0.148836 0.427314
0.062104 0.268254 0.641596
0.108888 0.254154 0.553674
0.177523 0.249699 0.510552
0.230320 0.235172 0.499062
0.314488 0.243870 0.504784
0.395575 0.247776 0.509239
0.473091 0.248692 0.503288
0.553277 0.247288 0.478859
0.660792 0.234684 0.427741
0.076326 0.355962 0.619471
0.132967 0.343786 0.563470
0.211948 0.344823 0.541161
0.292699 0.349859 0.530877
0.352560 0.343572 0.529778
0.434394 0.350683 0.538445
0.513359 0.352300 0.531975
0.593622 0.341588 0.497993
0.705806 0.314733 0.438666
0.087922 0.436683 0.609491
0.152560 0.425513 0.580163
0.239414 0.425330 0.563256
0.325048 0.433021 0.562036
0.406271 0.440650 0.563287
0.472755 0.438392 0.565423
0.558740 0.443915 0.566583
0.634089 0.424689 0.528679
0.749233 0.392737 0.461067
0.089631 0.511406 0.607507
0.157748 0.498817 0.585382
0.250553 0.495766 0.579522
0.348211 0.498482 0.578119
0.434272 0.511009 0.583429
0.517784 0.524590 0.598138
0.603052 0.528069 0.599878
0.675380 0.508659 0.550072
0.801816 0.476844 0.487098
0.086549 0.582361 0.605310
0.155764 0.571588 0.595178
0.254520 0.571221 0.595270
0.357977 0.579248 0.601404
0.458351 0.585718 0.604913
0.548180 0.603693 0.619043
0.648768 0.622980 0.630640
0.724147 0.618647 0.585199
0.873350 0.598505 0.538048
0.084138 0.659510 0.574701
0.157168 0.655024 0.569787
0.252506 0.659419 0.588952
0.364233 0.674342 0.605463
0.473152 0.688960 0.613214
0.571862 0.712215 0.625757
0.675227 0.737362 0.632044
0.799527 0.749355 0.635096
0.913481 0.754879 0.607294
0.075135 0.759152 0.527245
0.160800 0.758389 0.544121
0.263371 0.774838 0.567254
0.380407 0.796262 0.592157
0.493675 0.824277 0.606531
0.601740 0.854276 0.620722
0.721126 0.881498 0.633631
0.839200 0.889952 0.649287
0.932891 0.901396 0.644953
0.027680 0.090303 0.785550
0.038148 0.059388 0.736873
0.083528 0.059266 0.710842
0.159304 0.061158 0.693507
0.244572 0.063905 0.652796
0.331182 0.066712 0.621881
0.414160 0.067994 0.600092
0.509606 0.068605 0.580804
0.607019 0.072633 0.546685
0.036255 0.185183 0.761379
0.066072 0.159152 0.629786
0.096254 0.132876 0.612268
0.165225 0.136385 0.597223
0.243473 0.140871 0.588525
0.326085 0.146212 0.587457
0.410590 0.150912 0.581933
0.503532 0.152346 0.568597
0.606744 0.150423 0.533532
0.048554 0.279149 0.742397
0.089082 0.256138 0.639155
0.146792 0.248600 0.588495
0.192691 0.230350 0.574914
0.267002 0.238682 0.576135
0.343389 0.241215 0.586816
0.431189 0.243870 0.587793
0.523461 0.244633 0.574609
0.627619 0.233433 0.533165
0.062379 0.363867 0.712398
0.110231 0.344549 0.649195
0.177920 0.339910 0.621820
0.245335 0.336583 0.612665
0.294774 0.326238 0.607477
0.374792 0.334874 0.619532
0.465919 0.337682 0.622705
0.562249 0.338506 0.606256
0.671962 0.313481 0.550958
0.073701 0.445777 0.708614
0.129732 0.423346 0.664393
0.200900 0.417517 0.644984
0.278080 0.420569 0.645594
0.347906 0.422095 0.656123
0.411994 0.416968 0.655421
0.509056 0.424231 0.660853
0.611048 0.425666 0.644129
0.720882 0.392187 0.580224
0.080110 0.515831 0.703883
0.138369 0.492012 0.673945
0.217227 0.489052 0.663294
0.306523 0.493751 0.669612
0.383612 0.500999 0.684565
0.461769 0.507805 0.701961
0.554101 0.506615 0.702571
0.669276 0.510552 0.691798
0.775479 0.477607 0.620569
0.074372 0.582818 0.704402
0.138705 0.562554 0.685939
0.224460 0.564050 0.682765
0.320348 0.571405 0.692195
0.413184 0.583001 0.709163
0.505730 0.600824 0.727138
0.607660 0.612909 0.744503
0.729030 0.613275 0.737697
0.851774 0.587579 0.672877
0.065827 0.650690 0.701167
0.129061 0.643397 0.697688
0.222171 0.652277 0.708095
0.324590 0.673030 0.723964
0.432074 0.695308 0.742214
0.534417 0.712612 0.752987
0.639185 0.730800 0.759701
0.778378 0.756710 0.771206
0.921965 0.758572 0.753964
0.054475 0.750362 0.669551
0.127382 0.756374 0.686122
0.221042 0.780301 0.709438
0.326513 0.806455 0.740871
0.440299 0.839963 0.761074
0.562310 0.867094 0.770993
0.703426 0.889403 0.776059
0.837919 0.914733 0.795560
0.937530 0.915068 0.807553
0.022827 0.099672 0.853208
0.034211 0.059205 0.814817
0.060243 0.059022 0.782406
0.113649 0.061982 0.781918
0.186557 0.063996 0.746914
0.264378 0.067872 0.720546
0.352514 0.071534 0.708827
0.452461 0.072328 0.700008
0.572290 0.073487 0.690242
0.022126 0.189425 0.866880
0.045319 0.156527 0.743862
0.066560 0.127871 0.726741
0.119234 0.134279 0.714168
0.185489 0.139620 0.708705
0.257542 0.144472 0.699794
0.345220 0.148562 0.702907
0.445106 0.149264 0.694820
0.567620 0.150515 0.680690
0.027985 0.282658 0.849271
0.061280 0.248386 0.754055
0.100404 0.232731 0.712398
0.131930 0.212100 0.701350
0.193057 0.220218 0.706111
0.262974 0.224369 0.708370
0.353155 0.227604 0.714199
0.465400 0.230442 0.709010
0.584588 0.230625 0.688563
0.035004 0.362982 0.831754
0.072847 0.332799 0.759731
0.121859 0.319097 0.731868
0.164889 0.306920 0.729946
0.202274 0.292882 0.726650
0.283330 0.304234 0.738491
0.378088 0.307713 0.746029
0.503777 0.309880 0.746761
0.628260 0.309819 0.723110
0.044190 0.443793 0.815702
0.093751 0.412421 0.773098
0.152102 0.402716 0.755154
0.200473 0.393469 0.758602
0.243290 0.380835 0.774685
0.301335 0.372015 0.771237
0.417792 0.384009 0.785885
0.562158 0.390997 0.792752
0.689143 0.391394 0.766659
0.047364 0.513268 0.818753
0.104128 0.485359 0.780606
0.176638 0.480354 0.772702
0.248814 0.480842 0.780301
0.302495 0.480354 0.806210
0.365698 0.470680 0.830961
0.464393 0.466712 0.834867
0.630274 0.478065 0.843931
0.764340 0.478950 0.818204
0.050324 0.576806 0.821073
0.109895 0.552514 0.791287
0.187839 0.552758 0.790646
0.272312 0.563317 0.803769
0.357885 0.578882 0.830930
0.456245 0.593103 0.860899
0.561944 0.591302 0.882506
0.702785 0.584649 0.888151
0.854856 0.585473 0.874601
0.044129 0.652491 0.825376
0.103243 0.634607 0.803372
0.185519 0.642084 0.815854
0.280552 0.660731 0.831083
0.387396 0.688624 0.854368
0.498329 0.721828 0.876921
0.631678 0.740230 0.897215
0.797879 0.752651 0.915160
0.919097 0.741421 0.917327
0.034455 0.737301 0.828428
0.091341 0.740475 0.821225
0.172457 0.762173 0.843534
0.268223 0.793515 0.856687
0.374197 0.830503 0.876616
0.501274 0.865721 0.890959
0.664607 0.895415 0.908812
0.800046 0.913390 0.917479
0.953887 0.953887 0.945678
