assets/luts/impulz-kodak-gold-gen-6-200-fpe-rec709-06167b89.cube
# (C) 2014 VisionColor & Patchflyer [www.vision-color.com]
# Generator: VC Patchmatch v.2.1.1 [64/53]
# All work and no play makes Jack a dull boy.
# LUT generated from: Kodak Gold Gen.6 200_FPE
LUT_3D_SIZE 5
0.036072 0.040314 0.040894
0.193271 0.059419 0.042786
0.313115 0.067292 0.047761
0.416602 0.076448 0.057099
0.511955 0.080354 0.066163
0.076509 0.136690 0.044862
0.334783 0.218601 0.044434
0.533715 0.280980 0.058381
0.641901 0.318822 0.072602
0.706477 0.307622 0.081788
0.235843 0.342779 0.047761
0.516350 0.431952 0.067018
0.692653 0.479561 0.089570
0.778256 0.500908 0.104097
0.820127 0.479500 0.109834
0.384253 0.473213 0.063813
0.599451 0.532708 0.089174
0.769924 0.582605 0.116915
0.856352 0.597253 0.130068
0.881376 0.578363 0.133791
0.425727 0.533684 0.073304
0.645106 0.592401 0.104463
0.795987 0.637415 0.133394
0.889677 0.669398 0.152102
0.928801 0.673793 0.159060
0.031037 0.041413 0.108278
0.117250 0.048829 0.148653
0.281346 0.056153 0.163638
0.391028 0.060182 0.166598
0.481147 0.063996 0.167666
0.041413 0.164858 0.183932
0.240482 0.240543 0.231693
0.424140 0.280644 0.246799
0.548150 0.309880 0.260258
0.660456 0.298528 0.248081
0.118624 0.354223 0.220249
0.391028 0.434699 0.269322
0.580774 0.494270 0.305150
0.681270 0.511070 0.311009
0.766293 0.489784 0.291051
0.234928 0.471901 0.218082
0.482673 0.536400 0.281315
0.646204 0.591882 0.328771
0.761624 0.615534 0.334386
0.831144 0.599786 0.304082
0.284611 0.531334 0.171115
0.502281 0.595605 0.203006
0.675807 0.653193 0.271336
0.801266 0.703151 0.321904
0.905241 0.732815 0.337011
0.032898 0.044800 0.180789
0.076692 0.045777 0.203647
0.225925 0.052369 0.225742
0.367987 0.058381 0.260014
0.478798 0.063966 0.270695
0.042420 0.171145 0.296117
0.161257 0.229191 0.321447
0.361242 0.259983 0.354345
0.501060 0.285374 0.367407
0.634913 0.275639 0.345129
0.058381 0.342077 0.398535
0.257572 0.425757 0.417060
0.492531 0.485206 0.456428
0.604608 0.495460 0.452674
0.752712 0.483772 0.419165
0.092409 0.452888 0.404395
0.345403 0.529961 0.441627
0.559075 0.585046 0.484352
0.696986 0.625422 0.510796
0.823362 0.624109 0.465461
0.149752 0.528588 0.359716
0.367102 0.600336 0.386969
0.573236 0.668910 0.420783
0.751949 0.734707 0.501488
0.906676 0.784024 0.533135
0.037110 0.053895 0.252872
0.055238 0.046754 0.238468
0.176364 0.054871 0.270176
0.334447 0.056855 0.320897
0.458808 0.061402 0.337591
0.043824 0.187716 0.377356
0.112245 0.225223 0.371557
0.273701 0.243595 0.389349
0.447608 0.275212 0.429023
0.594873 0.256016 0.407019
0.053925 0.333104 0.467231
0.193851 0.409583 0.475685
0.391135 0.455085 0.499092
0.548974 0.482551 0.523308
0.704829 0.452216 0.478401
0.061219 0.429511 0.516533
0.228031 0.517601 0.530083
0.468376 0.576226 0.560113
0.640925 0.628443 0.605158
0.803494 0.623529 0.564782
0.068330 0.485237 0.482612
0.178531 0.571191 0.505486
0.420096 0.668940 0.565118
0.699580 0.767330 0.636408
0.910948 0.833371 0.695827
0.040894 0.065675 0.313359
0.041688 0.046754 0.271489
0.111360 0.055512 0.308965
0.267277 0.062654 0.365332
0.422553 0.060243 0.400061
0.046113 0.195773 0.437629
0.053864 0.190585 0.410895
0.117739 0.197452 0.412543
0.306554 0.236881 0.467964
0.521691 0.250797 0.506493
0.050813 0.314611 0.515801
0.077485 0.337774 0.511406
0.120424 0.359350 0.529381
0.329900 0.396094 0.556725
0.607202 0.436927 0.605798
0.054871 0.388495 0.560998
0.101625 0.449104 0.575158
0.214054 0.514916 0.619165
0.450141 0.573510 0.673335
0.721187 0.609766 0.713588
0.056580 0.434699 0.576959
0.086824 0.510521 0.611292
0.178058 0.615534 0.676295
0.547265 0.762142 0.770321
0.916259 0.880339 0.872343
