assets/luts/impulz-kodak-gold-gen-6-200-fc-rec709-b754de51.cube
# (C) 2014 VisionColor & Patchflyer [www.vision-color.com]
# Generator: VC Patchmatch v.2.1.1 [64/53]
# All work and no play makes Jack a dull boy.
# LUT generated from: Kodak Gold Gen.6 200_FC
LUT_3D_SIZE 17
0.033845 0.031281 0.031525
0.074067 0.031952 0.031861
0.129549 0.035309 0.034119
0.195285 0.039277 0.037263
0.266514 0.039643 0.035859
0.314702 0.043946 0.038758
0.359564 0.045136 0.039246
0.400061 0.046662 0.040345
0.440375 0.052735 0.043549
0.476905 0.057557 0.048127
0.521080 0.060243 0.050355
0.561028 0.067445 0.053620
0.597498 0.071382 0.061250
0.635706 0.077241 0.068696
0.684169 0.078126 0.071962
0.734493 0.083589 0.074525
0.783200 0.083375 0.080629
0.038636 0.050843 0.027832
0.071595 0.053498 0.027741
0.123964 0.057557 0.029664
0.180819 0.062654 0.031952
0.251835 0.069703 0.029999
0.306981 0.072755 0.034485
0.362768 0.079896 0.035737
0.413764 0.089235 0.037110
0.456641 0.091829 0.041321
0.494545 0.096803 0.046937
0.536034 0.106416 0.049531
0.574914 0.114595 0.052918
0.610437 0.116091 0.060548
0.644984 0.122805 0.068025
0.687526 0.123537 0.070466
0.737697 0.127657 0.073091
0.786068 0.125856 0.079164
0.046235 0.079957 0.023041
0.080018 0.083131 0.023560
0.123049 0.087373 0.024872
0.178256 0.093874 0.027558
0.241306 0.099214 0.026062
0.303532 0.111879 0.030884
0.366888 0.120546 0.032715
0.423774 0.128420 0.034424
0.471504 0.142153 0.039124
0.511193 0.151644 0.045319
0.550469 0.155947 0.048371
0.587762 0.162783 0.052125
0.620691 0.170504 0.059998
0.654322 0.178256 0.067597
0.696193 0.176699 0.070039
0.742031 0.173373 0.072084
0.789792 0.176333 0.079133
0.059358 0.112825 0.023499
0.089265 0.116426 0.023743
0.136568 0.124544 0.024720
0.185092 0.132570 0.025452
0.254337 0.147127 0.023743
0.304692 0.150301 0.029419
0.368170 0.163546 0.031922
0.434302 0.183627 0.033509
0.481453 0.193362 0.038209
0.520867 0.201266 0.044526
0.562585 0.214817 0.048066
0.602838 0.226108 0.051057
0.633143 0.228794 0.058534
0.663508 0.229831 0.065675
0.704890 0.231693 0.068269
0.750301 0.231571 0.070466
0.794888 0.227512 0.076905
0.075410 0.161868 0.017182
0.112612 0.164431 0.018341
0.154452 0.172213 0.019104
0.216037 0.186831 0.019989
0.268772 0.195377 0.021057
0.324102 0.207401 0.029236
0.382757 0.219760 0.032074
0.443946 0.234501 0.032624
0.491981 0.248325 0.038758
0.536950 0.264897 0.045319
0.575463 0.273869 0.048249
0.614527 0.283513 0.051301
0.644953 0.287358 0.059022
0.676112 0.292576 0.066529
0.714656 0.288548 0.067018
0.758083 0.286168 0.068910
0.802579 0.281468 0.075380
0.098329 0.216373 0.019532
0.136355 0.219821 0.020539
0.180728 0.228489 0.023163
0.234531 0.239811 0.024598
0.295750 0.254398 0.027588
0.346990 0.264561 0.028870
0.403143 0.273716 0.032319
0.460700 0.290929 0.033326
0.505058 0.306279 0.039399
0.548638 0.322148 0.047120
0.588525 0.330236 0.049195
0.627466 0.341283 0.052277
0.656764 0.346838 0.059754
0.687526 0.351141 0.067384
0.725643 0.346746 0.068208
0.763546 0.338811 0.070222
0.800412 0.332067 0.075959
0.122255 0.274327 0.022156
0.160708 0.278599 0.023163
0.207584 0.287999 0.026093
0.258793 0.299687 0.027131
0.320348 0.315618 0.030030
0.374212 0.329229 0.031678
0.426123 0.338598 0.032959
0.482734 0.353491 0.033997
0.521813 0.362432 0.041505
0.560357 0.374731 0.047913
0.602655 0.386236 0.049928
0.639094 0.396033 0.055451
0.669398 0.400977 0.060761
0.697963 0.405035 0.068147
0.733913 0.399420 0.068635
0.769955 0.390417 0.071107
0.805570 0.378729 0.074098
0.145571 0.340581 0.020966
0.189761 0.346197 0.023133
0.235569 0.353918 0.025727
0.289647 0.366461 0.027832
0.346227 0.379522 0.030243
0.403449 0.394873 0.032105
0.455817 0.405554 0.033417
0.504112 0.414191 0.034638
0.542412 0.420356 0.041932
0.577905 0.426947 0.049073
0.616938 0.438575 0.050874
0.651759 0.447944 0.056977
0.681788 0.451087 0.061677
0.713039 0.451850 0.067201
0.742184 0.448188 0.068910
0.775814 0.439246 0.072175
0.811612 0.427253 0.074647
0.171633 0.398932 0.023926
0.216190 0.405493 0.026612
0.260929 0.411719 0.029541
0.313146 0.422522 0.032685
0.366613 0.433997 0.035615
0.419196 0.445106 0.038422
0.472816 0.458808 0.040406
0.519249 0.465614 0.041382
0.559747 0.471473 0.041962
0.595575 0.477913 0.049195
0.632776 0.486793 0.052064
0.664973 0.493141 0.058503
0.694331 0.495583 0.062074
0.725338 0.496162 0.067659
0.754055 0.491798 0.069642
0.785580 0.485084 0.070802
0.816526 0.470588 0.074434
0.199313 0.450935 0.029816
0.240391 0.457984 0.032471
0.287297 0.464851 0.036866
0.334661 0.472969 0.039521
0.385809 0.483589 0.042451
0.436896 0.494362 0.045533
0.485603 0.504021 0.047059
0.533532 0.512993 0.047944
0.574121 0.518456 0.048585
0.610925 0.523888 0.049042
0.647852 0.530602 0.051331
0.679622 0.534905 0.057649
0.705623 0.535058 0.062562
0.735378 0.536431 0.068299
0.764279 0.532097 0.070527
0.795377 0.523033 0.071565
0.820279 0.508995 0.073396
0.222354 0.498878 0.032441
0.263401 0.505516 0.035645
0.308843 0.512139 0.040223
0.353674 0.518700 0.042512
0.400916 0.527306 0.044343
0.449958 0.537408 0.046967
0.498085 0.547143 0.047913
0.545861 0.557275 0.048829
0.588678 0.564599 0.049592
0.625940 0.568872 0.050019
0.662470 0.572686 0.050416
0.693965 0.576165 0.056733
0.719600 0.575250 0.061707
0.745541 0.572931 0.068879
0.772610 0.566308 0.070924
0.802976 0.557244 0.072755
0.829709 0.543420 0.072175
0.242435 0.543633 0.033204
0.285405 0.549432 0.037293
0.327489 0.555230 0.041352
0.371893 0.561181 0.044221
0.416785 0.568444 0.046448
0.462013 0.576715 0.049256
0.509178 0.586236 0.051209
0.555077 0.595422 0.052857
0.599603 0.604028 0.054505
0.637446 0.608637 0.055116
0.673243 0.612360 0.055512
0.707790 0.615961 0.055879
0.733211 0.613123 0.060700
0.758907 0.609339 0.067811
0.784604 0.600885 0.069795
0.810300 0.590570 0.073884
0.837674 0.577295 0.072755
0.256931 0.580011 0.035737
0.298802 0.585626 0.039734
0.340429 0.590784 0.043977
0.384771 0.595148 0.047791
0.427527 0.601862 0.049104
0.472053 0.610101 0.052338
0.517479 0.619165 0.054170
0.561730 0.627863 0.055146
0.605402 0.636500 0.057527
0.645899 0.644007 0.059205
0.680934 0.647669 0.059602
0.714321 0.649042 0.059693
0.746242 0.649165 0.059693
0.772091 0.645289 0.066743
0.797848 0.636957 0.068727
0.822263 0.626184 0.072663
0.844816 0.613275 0.074403
0.265599 0.614496 0.035615
0.305150 0.619043 0.039277
0.351385 0.623346 0.044892
0.394446 0.627008 0.048920
0.436316 0.633143 0.050874
0.481544 0.642329 0.055848
0.525261 0.650690 0.058595
0.568811 0.659358 0.060365
0.611170 0.667750 0.063111
0.652003 0.675441 0.065339
0.689082 0.680537 0.066133
0.721492 0.680629 0.066102
0.753506 0.680720 0.066041
0.783688 0.680781 0.066224
0.809354 0.674189 0.068086
0.834897 0.665217 0.072969
0.856077 0.653895 0.073701
0.276677 0.649683 0.036988
0.316655 0.651850 0.041016
0.363684 0.655756 0.047028
0.405585 0.659449 0.051270
0.446967 0.666255 0.054505
0.490822 0.675837 0.058503
0.532921 0.684627 0.060945
0.576288 0.692256 0.062989
0.617670 0.700801 0.064942
0.658137 0.709255 0.066804
0.696284 0.715633 0.068360
0.730739 0.718349 0.069032
0.762875 0.718441 0.069001
0.792721 0.718044 0.068879
0.816648 0.715877 0.068269
0.842405 0.708064 0.073152
0.863951 0.697780 0.073884
0.275517 0.693874 0.033082
0.320714 0.694545 0.036683
0.366064 0.697688 0.041993
0.410407 0.700954 0.047150
0.455055 0.704372 0.051057
0.497383 0.713008 0.055146
0.539300 0.721401 0.059724
0.582025 0.727810 0.062684
0.623224 0.734951 0.065370
0.661524 0.743252 0.068360
0.698054 0.749844 0.071321
0.734707 0.755978 0.073701
0.768826 0.758053 0.074769
0.799924 0.757504 0.074678
0.824521 0.755306 0.074037
0.850278 0.752956 0.073365
0.871489 0.744717 0.074342
0.277836 0.736690 0.031434
0.321843 0.737362 0.034943
0.363989 0.738186 0.038453
0.413855 0.741146 0.045747
0.457038 0.743526 0.049592
0.499702 0.750057 0.053101
0.542138 0.757717 0.060426
0.583246 0.764462 0.062104
0.623011 0.770962 0.063813
0.659937 0.777798 0.068727
0.695064 0.785153 0.071565
0.730770 0.791440 0.073121
0.768124 0.798337 0.075563
0.804471 0.801511 0.078676
0.829923 0.799283 0.078004
0.855558 0.797238 0.077333
0.874479 0.797940 0.076844
0.033906 0.032227 0.059510
0.057465 0.030579 0.070710
0.109163 0.032471 0.072633
0.166476 0.034943 0.070161
0.234195 0.034180 0.073762
0.285069 0.037720 0.070649
0.332464 0.038117 0.069551
0.379919 0.038972 0.072847
0.427497 0.041962 0.071717
0.464057 0.045869 0.074372
0.507958 0.047395 0.076173
0.548852 0.049012 0.080751
0.586145 0.055024 0.084230
0.624628 0.060243 0.089387
0.672938 0.060426 0.091463
0.721736 0.059815 0.096101
0.772000 0.063142 0.098512
0.035889 0.054200 0.052369
0.065431 0.054719 0.060578
0.121187 0.060914 0.062806
0.175509 0.063630 0.065339
0.237247 0.065736 0.066529
0.295384 0.070588 0.067414
0.344640 0.074525 0.071046
0.389929 0.078035 0.073518
0.436622 0.082338 0.074189
0.477943 0.088228 0.079225
0.514122 0.094789 0.086152
0.551965 0.100099 0.091585
0.590387 0.108248 0.095888
0.628290 0.115450 0.102907
0.669459 0.114992 0.108309
0.718929 0.117189 0.112978
0.775723 0.116548 0.113649
0.043580 0.085023 0.048615
0.075532 0.090455 0.055146
0.120729 0.094667 0.056733
0.176547 0.100404 0.059358
0.237095 0.108217 0.061372
0.298100 0.114809 0.061952
0.350408 0.116762 0.066438
0.405859 0.127962 0.071199
0.454566 0.137240 0.072663
0.495369 0.141543 0.077729
0.529931 0.147066 0.085298
0.563806 0.155886 0.091371
0.599695 0.163821 0.095644
0.637385 0.169619 0.102663
0.678218 0.168399 0.108186
0.723537 0.169131 0.113069
0.779660 0.169436 0.114137
0.058625 0.125734 0.043977
0.091432 0.136385 0.048951
0.135378 0.141573 0.050446
0.187686 0.150027 0.054627
0.246220 0.156161 0.057801
0.304692 0.163210 0.060792
0.363470 0.174472 0.064515
0.420081 0.185122 0.068818
0.470771 0.190646 0.070466
0.512444 0.201694 0.077394
0.547051 0.212680 0.085725
0.580407 0.219486 0.091798
0.613458 0.222873 0.095857
0.646326 0.227176 0.103273
0.685817 0.230411 0.109590
0.730892 0.229313 0.114443
0.784146 0.221683 0.114809
0.074281 0.177188 0.045106
0.112398 0.185367 0.047913
0.156008 0.191348 0.050477
0.208682 0.203433 0.054383
0.267216 0.215091 0.057099
0.325170 0.223514 0.062593
0.378454 0.230045 0.064973
0.430060 0.240391 0.069490
0.485664 0.255833 0.072511
0.528618 0.264866 0.078431
0.560327 0.272465 0.086213
0.592798 0.279789 0.092439
0.628779 0.286687 0.095430
0.661830 0.291905 0.103151
0.695918 0.288975 0.108949
0.738460 0.284367 0.113558
0.788357 0.276097 0.114107
0.098604 0.232303 0.043000
0.138033 0.241794 0.047272
0.181765 0.247013 0.050263
0.230503 0.258244 0.054536
0.293706 0.274571 0.059144
0.349584 0.284916 0.062257
0.401770 0.291966 0.067292
0.451850 0.303380 0.072480
0.499062 0.316350 0.075044
0.542382 0.324529 0.080934
0.578576 0.333989 0.088045
0.609796 0.341497 0.094179
0.640497 0.345678 0.096681
0.673060 0.349920 0.104829
0.706203 0.346532 0.110506
0.743740 0.336461 0.112520
0.789059 0.327459 0.112795
0.123323 0.289494 0.042817
0.167666 0.301335 0.048981
0.210330 0.306462 0.051850
0.258610 0.318669 0.057221
0.316258 0.334142 0.061555
0.375769 0.348486 0.065736
0.428199 0.357214 0.068666
0.475715 0.364263 0.074769
0.519707 0.373449 0.079103
0.561669 0.384741 0.083345
0.595850 0.393500 0.091279
0.628321 0.399939 0.096376
0.657984 0.403449 0.099245
0.683528 0.403113 0.106538
0.713527 0.398322 0.111940
0.750790 0.387793 0.114260
0.786954 0.376165 0.114046
0.145449 0.352514 0.048371
0.193210 0.359808 0.054322
0.237949 0.366186 0.057710
0.285466 0.377142 0.063325
0.337682 0.389868 0.066835
0.395789 0.404181 0.070771
0.449897 0.415656 0.074220
0.496376 0.422431 0.075196
0.539330 0.428229 0.079316
0.576074 0.434241 0.086702
0.610407 0.444739 0.092531
0.641993 0.450996 0.097627
0.670161 0.451240 0.102541
0.697810 0.450324 0.108156
0.721645 0.446387 0.113130
0.757229 0.436255 0.115602
0.792630 0.423377 0.115480
0.171603 0.408515 0.051545
0.219821 0.416846 0.055726
0.267277 0.423896 0.060426
0.313115 0.432715 0.065522
0.363622 0.445136 0.069581
0.415137 0.456489 0.073182
0.469886 0.469947 0.077790
0.515740 0.476417 0.078798
0.558434 0.481483 0.079561
0.594629 0.486061 0.086915
0.625940 0.489662 0.093935
0.656214 0.494087 0.098604
0.682704 0.495460 0.103609
0.710170 0.494179 0.109438
0.735714 0.489479 0.112184
0.762997 0.479927 0.115785
0.796567 0.462959 0.114809
0.200198 0.458900 0.053193
0.244297 0.466957 0.062013
0.291051 0.473945 0.066835
0.335790 0.480751 0.071656
0.384649 0.491554 0.076967
0.434058 0.501610 0.079805
0.482246 0.512352 0.083619
0.530510 0.522362 0.085389
0.572137 0.527306 0.086122
0.612634 0.531609 0.086885
0.643580 0.533104 0.093843
0.670985 0.534112 0.100038
0.695796 0.534966 0.105287
0.721798 0.535668 0.110750
0.746822 0.528313 0.112245
0.774014 0.517754 0.115785
0.803586 0.500755 0.111757
0.219883 0.504479 0.056062
0.266484 0.507439 0.063996
0.311498 0.514153 0.068605
0.356023 0.520775 0.074647
0.402075 0.529747 0.079866
0.448920 0.539300 0.083162
0.493904 0.549645 0.088014
0.539025 0.559167 0.090730
0.582513 0.566705 0.092073
0.622248 0.570794 0.092836
0.659358 0.574639 0.093416
0.687190 0.575067 0.099825
0.711116 0.573480 0.105135
0.732662 0.569940 0.112062
0.757595 0.564843 0.112154
0.784604 0.554223 0.115816
0.811368 0.538201 0.111696
0.234348 0.546593 0.059541
0.286870 0.545678 0.069276
0.329015 0.551629 0.074098
0.372808 0.558160 0.080659
0.415656 0.565454 0.085573
0.459510 0.574426 0.089082
0.503044 0.584283 0.093080
0.546197 0.593591 0.095613
0.589929 0.601984 0.097139
0.630335 0.607721 0.098054
0.667445 0.611536 0.098695
0.700801 0.612879 0.098817
0.724575 0.610040 0.104097
0.745907 0.605707 0.111238
0.768093 0.599268 0.113130
0.794400 0.589746 0.116152
0.821225 0.575463 0.112703
0.248936 0.582849 0.061463
0.292882 0.581079 0.066957
0.340154 0.585199 0.072877
0.383185 0.591363 0.079225
0.425055 0.598199 0.084596
0.469795 0.607385 0.088991
0.511742 0.616724 0.093233
0.553002 0.625727 0.097475
0.595117 0.633967 0.100252
0.636133 0.641657 0.102205
0.673060 0.645563 0.103059
0.705776 0.645808 0.103090
0.737758 0.645930 0.103029
0.759182 0.641871 0.110170
0.781460 0.635676 0.112062
0.806058 0.626062 0.115602
0.828733 0.613214 0.114717
0.255039 0.616693 0.058259
0.298985 0.613855 0.068116
0.345769 0.617761 0.074098
0.389502 0.622431 0.080018
0.433112 0.629053 0.087495
0.476295 0.637842 0.092103
0.517968 0.646632 0.096529
0.557244 0.656062 0.102876
0.598047 0.664271 0.105531
0.638209 0.672267 0.107729
0.675258 0.678157 0.109377
0.707912 0.678798 0.109560
0.740108 0.678920 0.109529
0.772732 0.678950 0.109499
0.795407 0.674281 0.112490
0.820401 0.665919 0.116304
0.839689 0.654658 0.113771
0.260319 0.650141 0.056733
0.299657 0.648554 0.064576
0.345281 0.652369 0.070405
0.392645 0.655787 0.077211
0.438392 0.661402 0.085359
0.479713 0.669459 0.088960
0.521233 0.677638 0.094423
0.562097 0.685878 0.101869
0.601984 0.694118 0.104128
0.640284 0.702174 0.106661
0.675807 0.710384 0.111238
0.710353 0.715206 0.113100
0.742794 0.715328 0.113069
0.775662 0.715145 0.113130
0.810056 0.714961 0.113191
0.835386 0.707485 0.117006
0.855192 0.697658 0.114504
0.254307 0.693721 0.048493
0.295201 0.687190 0.055909
0.339788 0.690700 0.061494
0.391516 0.693721 0.069947
0.441108 0.696590 0.077913
0.481117 0.703761 0.081758
0.523980 0.711696 0.090486
0.565484 0.719387 0.099092
0.605798 0.726925 0.103212
0.641810 0.735500 0.107546
0.676814 0.744167 0.112398
0.712276 0.752468 0.116609
0.747463 0.755795 0.117952
0.781186 0.755581 0.118013
0.816342 0.755367 0.118074
0.845212 0.753994 0.117647
0.862791 0.747738 0.116762
0.257237 0.736538 0.046448
0.292027 0.732692 0.050843
0.339666 0.733547 0.055879
0.390478 0.736507 0.064179
0.438819 0.739345 0.072084
0.483040 0.741543 0.077699
0.524773 0.749050 0.085176
0.564721 0.757015 0.092409
0.602991 0.764309 0.097932
0.638758 0.771206 0.103914
0.672908 0.779904 0.107942
0.707637 0.788815 0.112215
0.745937 0.797269 0.116243
0.784298 0.802029 0.119966
0.820676 0.801816 0.120058
0.846189 0.802548 0.119875
0.865904 0.803281 0.119356
0.032319 0.033875 0.100862
0.054414 0.031220 0.114565
0.088563 0.030152 0.122866
0.139742 0.031678 0.122866
0.195865 0.031067 0.120211
0.250523 0.034424 0.121431
0.305638 0.035859 0.119020
0.355261 0.037171 0.118685
0.404944 0.040070 0.116182
0.449866 0.043702 0.117494
0.496742 0.044984 0.118837
0.537865 0.046662 0.122530
0.575433 0.052735 0.124819
0.610315 0.057679 0.130190
0.651057 0.058930 0.132540
0.700374 0.058350 0.136233
0.750729 0.061860 0.136995
0.034180 0.057069 0.092470
0.062684 0.058473 0.106264
0.098512 0.055421 0.115084
0.153536 0.057710 0.114778
0.209018 0.059754 0.112795
0.269841 0.061585 0.113527
0.320989 0.065583 0.110872
0.369268 0.068147 0.110262
0.417151 0.067384 0.112398
0.460487 0.072175 0.114199
0.501976 0.079225 0.115450
0.539971 0.083406 0.119173
0.576715 0.084810 0.124514
0.615167 0.090700 0.129488
0.656947 0.094850 0.131746
0.706569 0.096559 0.134127
0.764187 0.091737 0.133639
0.039734 0.089570 0.083803
0.070436 0.095857 0.094514
0.108553 0.096223 0.099886
0.164370 0.103914 0.105501
0.215793 0.105104 0.107424
0.270207 0.107332 0.109010
0.325658 0.116640 0.113313
0.372625 0.121462 0.116457
0.416724 0.127504 0.121157
0.460395 0.132113 0.123751
0.502647 0.142184 0.130007
0.539971 0.147890 0.135195
0.574884 0.153567 0.142336
0.614954 0.157015 0.146883
0.659083 0.163760 0.151156
0.709438 0.163546 0.154116
0.769711 0.161929 0.156649
0.054139 0.132326 0.082277
0.086641 0.141756 0.086397
0.126101 0.145266 0.096925
0.175357 0.153170 0.100984
0.231052 0.160342 0.104494
0.288914 0.169314 0.106966
0.342229 0.175631 0.109957
0.388769 0.178805 0.113161
0.438025 0.189700 0.120638
0.477546 0.197757 0.124208
0.519341 0.206149 0.130434
0.556176 0.209995 0.135622
0.589807 0.216434 0.143343
0.623835 0.220096 0.148409
0.666468 0.224308 0.152560
0.716640 0.222446 0.155459
0.773648 0.212100 0.157229
0.072419 0.192538 0.073854
0.106600 0.197208 0.085237
0.148898 0.202335 0.093141
0.198001 0.211337 0.097719
0.253086 0.222385 0.104829
0.308293 0.229068 0.108431
0.359808 0.234562 0.112123
0.409216 0.245121 0.115206
0.460121 0.256748 0.122011
0.500481 0.263462 0.124605
0.538018 0.270146 0.131655
0.573144 0.277897 0.137453
0.606653 0.284459 0.145449
0.640284 0.286473 0.150454
0.676509 0.284337 0.154116
0.722866 0.281285 0.157839
0.778714 0.273625 0.161135
0.093843 0.248203 0.076905
0.130678 0.254795 0.086946
0.174899 0.259495 0.092439
0.223575 0.268406 0.098116
0.279088 0.282933 0.105043
0.333989 0.293156 0.109804
0.383185 0.297337 0.117006
0.432319 0.307164 0.118990
0.475410 0.316625 0.124147
0.518364 0.325689 0.127504
0.558129 0.333654 0.134829
0.590967 0.340795 0.140475
0.619440 0.345586 0.147494
0.654322 0.346014 0.150973
0.689387 0.343145 0.154940
0.728573 0.338231 0.159213
0.781613 0.328984 0.162478
0.117586 0.303075 0.079652
0.161257 0.313664 0.086458
0.204623 0.317632 0.095613
0.249577 0.325231 0.100984
0.300664 0.338567 0.108003
0.359014 0.353155 0.115023
0.410864 0.361486 0.118685
0.454994 0.365698 0.122988
0.497963 0.374151 0.128664
0.536797 0.384955 0.131075
0.574762 0.392523 0.138796
0.609033 0.398596 0.143099
0.637354 0.400092 0.149569
0.663813 0.397894 0.152377
0.697139 0.394415 0.156741
0.736141 0.389563 0.161166
0.782254 0.376471 0.161257
0.144289 0.362890 0.078309
0.188724 0.368475 0.088746
0.234348 0.372381 0.099184
0.277989 0.379736 0.104402
0.324590 0.391394 0.111452
0.379370 0.405463 0.118105
0.433722 0.418036 0.122072
0.481788 0.426307 0.125795
0.521294 0.430274 0.132296
0.556848 0.437476 0.136355
0.593713 0.446021 0.141726
0.623682 0.448920 0.146853
0.654017 0.449470 0.151400
0.680354 0.447150 0.154391
0.705959 0.442908 0.158663
0.742580 0.437354 0.162875
0.783780 0.419593 0.161593
0.169558 0.417517 0.081910
0.211612 0.421820 0.093812
0.262394 0.425238 0.103120
0.305791 0.432288 0.108644
0.350408 0.442115 0.116548
0.397528 0.453925 0.122896
0.450721 0.467506 0.127504
0.499702 0.478157 0.131624
0.542809 0.484352 0.133608
0.578363 0.487312 0.137850
0.609827 0.488655 0.146426
0.640436 0.493385 0.149599
0.669429 0.496132 0.153079
0.693812 0.493141 0.158206
0.720150 0.487221 0.160891
0.744198 0.476875 0.162753
0.785092 0.459419 0.161685
0.193088 0.464546 0.089906
0.235538 0.471321 0.100191
0.284916 0.470649 0.106020
0.329320 0.477363 0.112428
0.371679 0.485328 0.119661
0.416297 0.496193 0.125826
0.463050 0.507256 0.130159
0.512657 0.519524 0.134401
0.556207 0.526726 0.136995
0.596002 0.530816 0.137758
0.627039 0.531060 0.146365
0.654566 0.532250 0.151400
0.682734 0.535363 0.154452
0.705806 0.532158 0.158206
0.731838 0.524987 0.161135
0.757412 0.514366 0.160678
0.788540 0.498451 0.161379
0.211337 0.508415 0.090547
0.258061 0.511589 0.100038
0.304967 0.510674 0.110567
0.348608 0.517174 0.117098
0.389746 0.523705 0.123690
0.433997 0.533928 0.132326
0.478065 0.544091 0.137209
0.522881 0.554772 0.141817
0.567254 0.564233 0.144808
0.606134 0.568231 0.145571
0.643671 0.572106 0.146273
0.670192 0.571557 0.151217
0.694179 0.569787 0.155856
0.716701 0.566064 0.159243
0.743038 0.561517 0.161257
0.768795 0.551537 0.161166
0.795407 0.536736 0.161288
0.226352 0.549706 0.087312
0.276432 0.547875 0.101869
0.320806 0.546441 0.113466
0.363256 0.552758 0.119814
0.405493 0.559106 0.126833
0.448920 0.567834 0.135622
0.490883 0.577173 0.139223
0.531731 0.586603 0.144289
0.573083 0.596155 0.148653
0.613581 0.602655 0.149599
0.649836 0.605859 0.150271
0.683772 0.607538 0.150851
0.707576 0.605280 0.155489
0.729824 0.600855 0.158907
0.753841 0.596063 0.162570
0.780636 0.588586 0.161624
0.808103 0.574334 0.161776
0.241184 0.585260 0.087190
0.284794 0.582177 0.096956
0.330846 0.577142 0.110292
0.372290 0.583307 0.116487
0.416785 0.590143 0.125246
0.460639 0.598505 0.133761
0.501457 0.607630 0.137270
0.540703 0.617212 0.143801
0.578851 0.626703 0.150546
0.618372 0.634577 0.153017
0.654169 0.638056 0.153933
0.687678 0.639704 0.154513
0.720974 0.641016 0.154971
0.743343 0.636683 0.158511
0.767178 0.631983 0.162448
0.793210 0.625330 0.162844
0.821195 0.612909 0.162264
0.247044 0.618036 0.087495
0.291051 0.614771 0.097902
0.337133 0.609888 0.109926
0.381628 0.615320 0.117372
0.425788 0.622126 0.126192
0.468238 0.629633 0.134493
0.508171 0.638422 0.139590
0.546258 0.647791 0.145632
0.583307 0.656977 0.151461
0.620356 0.665431 0.155734
0.656580 0.671626 0.157687
0.690608 0.673976 0.158358
0.724361 0.675593 0.158907
0.757351 0.675441 0.158968
0.781430 0.671504 0.163027
0.807706 0.665370 0.163394
0.833982 0.654139 0.160800
0.252384 0.651057 0.086671
0.291936 0.649439 0.093599
0.332555 0.646845 0.101686
0.384283 0.649866 0.110140
0.428229 0.655879 0.118624
0.469520 0.662379 0.127077
0.511833 0.670192 0.136294
0.551049 0.678645 0.143587
0.586938 0.687953 0.149538
0.622614 0.697230 0.155703
0.658045 0.705715 0.160342
0.693812 0.712489 0.162997
0.727413 0.713527 0.163546
0.761196 0.713405 0.163668
0.796475 0.713191 0.163760
0.823209 0.708431 0.164126
0.848539 0.700801 0.162631
0.243687 0.694392 0.074464
0.286778 0.688014 0.083375
0.328862 0.686549 0.095399
0.379309 0.689479 0.103639
0.427588 0.692287 0.111513
0.470192 0.698543 0.123232
0.511284 0.706050 0.132387
0.551232 0.713893 0.140139
0.589105 0.721981 0.147463
0.623987 0.731411 0.153506
0.658045 0.739559 0.157229
0.693141 0.748043 0.161196
0.730312 0.756039 0.166506
0.764858 0.756008 0.166690
0.801297 0.755795 0.166781
0.837461 0.757992 0.167422
0.862547 0.753445 0.166903
0.238285 0.736477 0.061616
0.278660 0.733364 0.070344
0.318517 0.731594 0.077394
0.367926 0.734493 0.085451
0.416144 0.736782 0.094514
0.465675 0.737881 0.106630
0.506340 0.743923 0.114839
0.545007 0.751980 0.121218
0.582452 0.759182 0.133516
0.619348 0.766384 0.145357
0.653651 0.774929 0.149874
0.689723 0.785428 0.155703
0.728969 0.797330 0.163272
0.768917 0.804746 0.168673
0.805753 0.806210 0.169467
0.842374 0.809323 0.170321
0.870451 0.811093 0.170352
0.033814 0.036805 0.147829
0.048066 0.033509 0.162295
0.083467 0.031952 0.176425
0.122652 0.031464 0.174624
0.177188 0.030549 0.179263
0.230564 0.033448 0.176516
0.285893 0.034699 0.173556
0.337804 0.036103 0.173068
0.390509 0.038697 0.169223
0.435035 0.042084 0.168673
0.482856 0.043305 0.167025
0.525231 0.045014 0.167361
0.561212 0.050050 0.170840
0.596094 0.054719 0.174319
