assets/luts/impulz-kodak-ektar-100-fpe-rec709-df3ce9a2.cube
# (C) 2014 VisionColor & Patchflyer [www.vision-color.com]
# Generator: VC Patchmatch v.2.1.1 [64/53]
# All work and no play makes Jack a dull boy.
# LUT generated from: Kodak Ektar 100_FPE
LUT_3D_SIZE 5
0.037781 0.037263 0.038025
0.188602 0.070100 0.052430
0.367864 0.095735 0.059113
0.488807 0.125856 0.067292
0.566186 0.150668 0.077516
0.044648 0.184512 0.106966
0.185733 0.236789 0.073854
0.440925 0.312016 0.073060
0.618799 0.381567 0.088533
0.713893 0.408667 0.109957
0.045441 0.303349 0.167178
0.124575 0.373724 0.160464
0.378698 0.438972 0.122621
0.603021 0.486824 0.122286
0.724544 0.487434 0.125978
0.051484 0.388830 0.254093
0.087556 0.440558 0.266056
0.318074 0.546777 0.318700
0.536431 0.575830 0.262669
0.716487 0.566400 0.190707
0.075380 0.476661 0.360754
0.109133 0.506584 0.376684
0.307271 0.610712 0.467323
0.582269 0.691432 0.516503
0.753079 0.712367 0.479530
0.045258 0.044160 0.108125
0.137423 0.053285 0.112459
0.331121 0.067842 0.137697
0.442878 0.070344 0.131167
0.510155 0.076020 0.102296
0.038117 0.159091 0.211398
0.243809 0.251621 0.252659
0.470954 0.287449 0.250034
0.576867 0.284916 0.219638
0.599512 0.187778 0.117128
0.041321 0.298680 0.287724
0.218540 0.406958 0.321172
0.491035 0.475105 0.344793
0.636072 0.488746 0.308370
0.721889 0.423102 0.183810
0.056153 0.410529 0.372137
0.212345 0.496254 0.390448
0.479484 0.583520 0.451179
0.642481 0.618830 0.466316
0.770535 0.580621 0.316747
0.129458 0.536156 0.468208
0.263066 0.597375 0.503044
0.425315 0.653925 0.551354
0.660334 0.731868 0.633387
0.814725 0.770687 0.653773
0.046540 0.045350 0.217044
0.181765 0.051820 0.213687
0.340154 0.058900 0.214115
0.452796 0.067018 0.219760
0.517998 0.075288 0.169284
0.040986 0.139437 0.299596
0.226261 0.222049 0.348547
0.451057 0.247013 0.357885
0.547051 0.234195 0.329015
0.571313 0.137881 0.183658
0.043885 0.284825 0.372259
0.208743 0.413275 0.424689
0.520714 0.497444 0.476570
0.644221 0.498451 0.460060
0.712612 0.365057 0.261448
0.053498 0.403082 0.434669
0.249729 0.520623 0.472175
0.520043 0.591852 0.515373
0.676661 0.634119 0.545434
0.808011 0.611048 0.433814
0.133944 0.548699 0.519310
0.404578 0.651820 0.583032
0.551049 0.706111 0.630243
0.704158 0.755306 0.680232
0.855100 0.804166 0.730159
0.045197 0.045350 0.276982
0.172213 0.049683 0.288426
0.369787 0.056672 0.291051
0.466041 0.063996 0.289128
0.531975 0.078157 0.260563
0.042969 0.107240 0.338506
0.164981 0.155428 0.374029
0.409079 0.189303 0.396704
0.542535 0.214420 0.402930
0.593164 0.160586 0.307225
0.046845 0.265354 0.421027
0.191043 0.376440 0.477089
0.483421 0.459190 0.524651
0.639704 0.495903 0.545220
0.702907 0.358618 0.409155
0.051698 0.377691 0.474647
0.215030 0.507927 0.525231
0.503471 0.596582 0.576318
0.693324 0.660060 0.634699
0.824063 0.627375 0.564416
0.092103 0.509148 0.538537
0.347539 0.641535 0.606775
0.584131 0.721340 0.674189
0.735378 0.781369 0.726009
0.880858 0.830198 0.776913
0.044556 0.045960 0.305669
0.122438 0.047822 0.323644
0.345434 0.055451 0.351415
0.474098 0.064240 0.361120
0.545159 0.080934 0.365759
0.044617 0.067720 0.340215
0.094942 0.071046 0.352544
0.256657 0.078553 0.379034
0.481697 0.112123 0.415961
0.629908 0.229282 0.467140
0.046235 0.170687 0.411749
0.096071 0.167849 0.418280
0.265675 0.145632 0.434882
0.523796 0.234348 0.498848
0.729824 0.478096 0.603235
0.053803 0.340276 0.498085
0.146242 0.380133 0.525017
0.366766 0.408606 0.567834
0.613153 0.436988 0.609949
0.806607 0.671016 0.722591
0.067506 0.468605 0.556329
0.195651 0.578271 0.607965
0.442802 0.682979 0.679255
0.704463 0.782650 0.770016
0.922637 0.887480 0.880308
