assets/luts/impulz-kodak-gold-gen-6-200-fpe-log-d81b5c47.cube
# (C) 2014 VisionColor & Patchflyer [www.vision-color.com]
# Generator: VC Patchmatch v.2.1.1 [64/53]
# All work and no play makes Jack a dull boy.
# LUT generated from: Kodak Gold Gen.6 200_FPE
LUT_3D_SIZE 9
0.033173 0.035981 0.036316
0.054841 0.039673 0.036683
0.135012 0.049378 0.039094
0.215274 0.051331 0.039094
0.259983 0.048157 0.039643
0.305821 0.045655 0.041230
0.373907 0.045136 0.043824
0.439429 0.047028 0.047761
0.498390 0.052308 0.056153
0.035126 0.047211 0.037934
0.062867 0.054627 0.037964
0.144381 0.068330 0.037995
0.257176 0.085023 0.039979
0.344091 0.086519 0.042420
0.414649 0.091188 0.046052
0.473823 0.084291 0.049500
0.527398 0.081697 0.052461
0.579461 0.097383 0.059022
0.043977 0.080568 0.040528
0.093202 0.097688 0.040040
0.180270 0.118898 0.039368
0.293126 0.141726 0.041321
0.417227 0.165316 0.046265
0.517601 0.196414 0.051698
0.578149 0.193179 0.054536
0.635279 0.193820 0.058747
0.683589 0.215763 0.064729
0.074769 0.157870 0.041016
0.172641 0.194491 0.039948
0.287648 0.221805 0.042512
0.391104 0.246464 0.045899
0.501747 0.278218 0.052216
0.614435 0.326299 0.063783
0.678614 0.330236 0.068391
0.735836 0.328222 0.073793
0.774716 0.340887 0.078340
0.150942 0.282002 0.041321
0.269703 0.322499 0.043977
0.402029 0.355673 0.050416
0.520638 0.384268 0.060426
0.608103 0.404318 0.069947
0.694148 0.437537 0.081270
0.766812 0.453162 0.090974
0.818631 0.449561 0.097017
0.839597 0.443214 0.098268
0.269871 0.403449 0.048554
0.379736 0.436957 0.055604
0.495491 0.464332 0.065583
0.605066 0.488014 0.079133
0.696925 0.508019 0.092836
0.768307 0.523400 0.103456
0.825437 0.533593 0.112032
0.865873 0.530236 0.116732
0.883818 0.522271 0.117617
0.388708 0.488014 0.062409
0.480629 0.511223 0.071107
0.574212 0.533074 0.082033
0.670344 0.554986 0.095949
0.760189 0.574243 0.111543
0.822110 0.586664 0.122866
0.868955 0.594476 0.130465
0.896361 0.587671 0.132723
0.906065 0.579767 0.132784
0.420600 0.533410 0.070039
0.546258 0.563470 0.084016
0.642054 0.586877 0.097230
0.735042 0.610986 0.113039
0.816922 0.629572 0.128573
0.871855 0.640131 0.139742
0.905303 0.643610 0.146487
0.920958 0.643030 0.148775
0.924254 0.633906 0.147646
0.366064 0.543603 0.069123
0.562737 0.592004 0.090272
0.672541 0.620508 0.106447
0.763577 0.643641 0.122194
0.839719 0.662013 0.137087
0.896666 0.674861 0.149447
0.922210 0.682338 0.156954
0.934112 0.683223 0.159884
0.935546 0.682734 0.160250
0.030640 0.036439 0.047761
0.042420 0.038514 0.054139
0.100038 0.044984 0.061128
0.179751 0.050660 0.068299
0.250370 0.050141 0.063905
0.315618 0.047822 0.064027
0.379339 0.046784 0.064271
0.438605 0.047761 0.070558
0.496529 0.053010 0.090761
0.031373 0.050263 0.054047
0.056977 0.060273 0.063844
0.148104 0.071931 0.062837
0.243473 0.068544 0.053742
0.307958 0.060578 0.049836
0.371221 0.051698 0.047395
0.437629 0.049714 0.050172
0.493782 0.052094 0.055756
0.572351 0.097841 0.103365
0.038239 0.094148 0.058717
0.087800 0.130159 0.060731
0.224155 0.165133 0.064088
0.346334 0.164462 0.054383
0.456596 0.173922 0.054658
0.518334 0.155581 0.054261
0.566522 0.134310 0.056641
0.611353 0.132509 0.060487
0.676875 0.221683 0.116548
0.066926 0.182010 0.067079
0.161135 0.249577 0.049653
0.333455 0.298878 0.053895
0.491081 0.337881 0.061402
0.594095 0.344350 0.065858
0.662287 0.335470 0.068360
0.706691 0.306752 0.070954
0.742916 0.301549 0.073243
0.767880 0.356023 0.119448
0.147555 0.298131 0.060548
0.266102 0.382147 0.048981
0.443381 0.433753 0.061158
0.597757 0.468498 0.078950
0.713939 0.492622 0.093507
0.775937 0.490013 0.098268
0.823453 0.466423 0.100679
0.836881 0.443824 0.098360
0.830381 0.453193 0.115023
0.245823 0.405554 0.058473
0.375708 0.477058 0.060670
0.516289 0.513298 0.074067
0.652216 0.544671 0.092683
0.774350 0.572625 0.113863
0.852720 0.585077 0.126314
0.882506 0.564782 0.125978
0.890806 0.541802 0.122621
0.880980 0.534447 0.126925
0.305547 0.472663 0.060456
0.426673 0.533776 0.070344
0.581659 0.571069 0.088716
0.713527 0.604700 0.109316
0.822232 0.628962 0.129549
0.891325 0.641840 0.143923
0.921477 0.641505 0.148653
0.918547 0.615930 0.142763
0.912749 0.606348 0.142123
0.283055 0.500938 0.060914
0.376501 0.544701 0.069734
0.594537 0.598779 0.094636
0.730709 0.634546 0.116335
0.835203 0.660700 0.136324
0.901640 0.677028 0.151217
0.931273 0.683101 0.159030
0.935576 0.683589 0.160372
0.933440 0.674678 0.158968
0.230564 0.508293 0.060914
0.376593 0.554833 0.071626
0.576135 0.606989 0.095033
0.714015 0.645167 0.117861
0.805295 0.671199 0.135836
0.880278 0.695583 0.152438
0.924498 0.711360 0.163424
0.937743 0.718715 0.169284
0.938415 0.719051 0.169680
0.029725 0.036744 0.076783
0.037476 0.038636 0.091310
0.074342 0.042939 0.104829
0.150179 0.047700 0.117311
0.235996 0.047730 0.120943
0.318578 0.046235 0.122774
0.383917 0.045991 0.124361
0.436591 0.047211 0.130587
0.493294 0.052674 0.152712
0.030426 0.050843 0.087709
0.039002 0.052918 0.107301
0.105440 0.062013 0.131441
0.209506 0.064820 0.127871
0.302159 0.059907 0.117983
0.375769 0.052003 0.104982
0.436774 0.050202 0.101869
0.491859 0.052949 0.110414
0.577295 0.106752 0.179141
0.033509 0.104341 0.117067
0.053101 0.143099 0.153780
0.153414 0.155764 0.153475
0.273014 0.159762 0.146975
0.374273 0.144289 0.126406
0.452522 0.125429 0.110384
0.510613 0.096376 0.094484
0.567559 0.099123 0.105837
0.686641 0.250919 0.231540
0.046204 0.193545 0.136446
0.107729 0.267887 0.146090
0.250309 0.299046 0.145968
0.426291 0.347250 0.168368
0.543862 0.346197 0.138399
0.618372 0.329061 0.123873
0.671016 0.296315 0.110658
0.711025 0.284138 0.124727
0.782956 0.408789 0.268254
0.105409 0.306432 0.135409
0.200778 0.389532 0.126040
0.371481 0.431769 0.113008
0.537820 0.478889 0.143099
0.677836 0.510430 0.159091
0.749111 0.496178 0.133761
0.790494 0.464652 0.121462
0.809873 0.435172 0.122408
0.827634 0.501427 0.260349
0.178073 0.406134 0.136538
0.269352 0.464454 0.086488
0.425452 0.505333 0.082673
0.610376 0.557397 0.112795
0.744808 0.591852 0.145022
0.838560 0.604059 0.153811
0.869749 0.578424 0.140291
0.880369 0.547997 0.130129
0.866056 0.564355 0.234348
0.227787 0.468666 0.105165
0.258152 0.497597 0.064057
0.415686 0.541497 0.071901
0.628016 0.597986 0.100343
0.783627 0.639063 0.133028
0.877073 0.666712 0.158358
0.920470 0.669856 0.162753
0.920806 0.644373 0.152224
0.902983 0.634333 0.224887
0.205325 0.493660 0.079622
0.220706 0.508415 0.061738
0.378485 0.553765 0.071412
0.625269 0.619196 0.102602
0.782681 0.664851 0.131441
0.877836 0.696620 0.153262
0.926848 0.717037 0.168185
0.936645 0.719905 0.170901
0.929808 0.712032 0.235966
0.184054 0.507897 0.069795
0.271733 0.537591 0.069825
0.433448 0.584100 0.087007
0.610590 0.637140 0.123049
0.728603 0.676722 0.162020
0.824643 0.715908 0.209964
0.894224 0.746731 0.247807
0.929442 0.763363 0.259159
0.935363 0.765560 0.258701
0.029969 0.036378 0.110414
0.035950 0.037079 0.129915
0.063661 0.040101 0.147280
0.123751 0.043824 0.155734
0.219120 0.045045 0.169589
0.313298 0.044862 0.178592
0.378851 0.045655 0.184176
0.431434 0.047517 0.190280
0.490578 0.052857 0.209720
0.032319 0.055360 0.138094
0.032593 0.043946 0.145235
0.065187 0.048920 0.172152
0.169711 0.057221 0.189059
0.285649 0.052369 0.191104
0.371984 0.048402 0.187320
0.431952 0.048524 0.183139
0.488838 0.053101 0.191318
0.581170 0.106081 0.247501
0.035615 0.108309 0.180697
0.038849 0.112795 0.209628
0.086152 0.120150 0.207095
0.225376 0.144594 0.238773
0.346288 0.134585 0.229953
0.435340 0.116335 0.215854
0.503258 0.096071 0.202914
0.576074 0.109987 0.210330
0.701259 0.270787 0.318303
0.040070 0.198245 0.229068
0.053559 0.264012 0.296574
0.142733 0.294377 0.297612
0.328298 0.323232 0.307012
0.442618 0.322927 0.292851
0.540856 0.307546 0.272145
0.611292 0.275898 0.245136
0.694148 0.292378 0.260990
0.786343 0.431250 0.376928
0.056367 0.301610 0.255528
0.089998 0.380743 0.299077
0.227604 0.426459 0.302129
0.422812 0.462760 0.304662
0.580514 0.505013 0.342931
0.674586 0.500557 0.308797
0.733547 0.476341 0.285145
0.792447 0.478187 0.304631
0.825833 0.532189 0.406256
0.093446 0.397894 0.270665
0.161593 0.466346 0.245594
0.298192 0.507378 0.233906
0.485451 0.543999 0.247181
0.651789 0.596521 0.310811
0.765057 0.615198 0.325673
0.819303 0.595697 0.280049
0.848722 0.570977 0.273152
0.855833 0.598657 0.398444
0.162966 0.476356 0.238056
0.195315 0.514275 0.170947
0.283085 0.534966 0.126452
0.480934 0.579309 0.141558
0.684657 0.644312 0.217151
0.804547 0.686458 0.292195
0.885801 0.700954 0.299886
0.905089 0.673426 0.276875
0.895750 0.670588 0.398230
0.196841 0.521843 0.192248
0.194858 0.531487 0.120195
0.263279 0.546471 0.094209
0.450904 0.590997 0.101106
0.667445 0.660517 0.159472
0.803479 0.715938 0.250584
0.896452 0.754757 0.308186
0.931029 0.766079 0.309834
0.925902 0.746365 0.410040
0.192050 0.542748 0.160342
0.234684 0.561059 0.148180
0.337041 0.594171 0.171588
0.493629 0.640040 0.199603
0.637903 0.693996 0.284108
0.762570 0.742611 0.366430
0.860929 0.780728 0.421637
0.919554 0.801724 0.431342
0.933623 0.806149 0.430182
0.031098 0.035584 0.143526
0.034607 0.036316 0.158846
0.053651 0.039216 0.177188
0.099428 0.041413 0.187564
0.181186 0.043244 0.188968
0.284337 0.043336 0.208896
0.362432 0.044434 0.228641
0.424628 0.047333 0.241001
0.485237 0.051972 0.258762
0.033692 0.052918 0.182437
0.033051 0.039338 0.181399
0.048737 0.042390 0.197726
0.110750 0.046754 0.214664
0.234958 0.049104 0.231113
0.347082 0.045380 0.244785
0.420569 0.047242 0.249638
0.484291 0.052644 0.257053
0.568200 0.090669 0.293889
0.037690 0.104677 0.233158
0.038697 0.098756 0.259464
0.050080 0.088838 0.237522
0.136751 0.106447 0.261601
0.299443 0.122347 0.293950
0.409644 0.098390 0.289342
0.492683 0.083314 0.283238
0.569635 0.099092 0.285039
0.683864 0.251743 0.352819
0.040589 0.192355 0.293400
0.045655 0.226322 0.351080
0.076020 0.242679 0.346807
0.202945 0.262791 0.347448
0.390066 0.300664 0.378790
0.503716 0.287953 0.367971
0.589044 0.266896 0.348257
0.694606 0.301183 0.357122
0.766995 0.415198 0.411078
0.047120 0.298405 0.358068
0.059602 0.369726 0.437446
0.121859 0.411322 0.438636
0.298222 0.451041 0.438987
0.488823 0.481544 0.452766
0.583124 0.475090 0.436088
0.675074 0.468681 0.418204
0.763058 0.469245 0.410651
0.804349 0.531090 0.467018
0.059815 0.387549 0.380682
0.080201 0.451057 0.413748
0.143862 0.489601 0.415549
0.335485 0.537957 0.436576
0.544671 0.576867 0.456168
0.685130 0.612207 0.490242
0.762798 0.601038 0.457710
0.820890 0.591791 0.444923
0.838346 0.618585 0.499763
0.092805 0.465461 0.371801
0.113191 0.513329 0.362264
0.166110 0.544213 0.344625
0.327214 0.587182 0.358450
0.561913 0.638819 0.398520
0.723674 0.689815 0.476020
0.833799 0.713893 0.493706
0.876341 0.694209 0.465675
0.879759 0.699306 0.528679
0.122713 0.521141 0.345159
0.127443 0.546929 0.315022
0.181277 0.570459 0.281025
0.312078 0.612024 0.290822
0.533013 0.663661 0.309926
0.724376 0.731075 0.424109
0.851255 0.774044 0.493568
0.915801 0.790677 0.503120
0.918578 0.773220 0.555932
0.124636 0.549889 0.314961
0.163455 0.575067 0.314534
0.234134 0.607172 0.340902
0.392035 0.659510 0.386221
0.586603 0.718624 0.446525
0.732158 0.767758 0.519066
0.843778 0.804990 0.562524
0.910979 0.829374 0.575235
0.934661 0.836912 0.583291
0.032898 0.035737 0.183322
0.034241 0.036133 0.187137
0.047181 0.038361 0.201633
0.078279 0.040223 0.210910
0.146242 0.041535 0.210971
0.243046 0.041810 0.235447
0.340520 0.042756 0.267948
0.411414 0.045960 0.283299
0.471382 0.050324 0.297551
0.036347 0.054231 0.233005
0.034974 0.037751 0.224247
0.038361 0.038392 0.222751
0.068818 0.041444 0.235447
0.164202 0.043000 0.254124
0.313298 0.043519 0.302495
0.404089 0.045411 0.310887
0.467811 0.050568 0.310002
0.546990 0.080812 0.332738
0.039643 0.111360 0.293034
0.040345 0.084932 0.307591
0.039948 0.066804 0.272343
0.080903 0.077974 0.278782
0.206897 0.087221 0.308995
0.375341 0.094331 0.356573
0.467048 0.069917 0.345525
0.541070 0.076631 0.339544
0.647364 0.216800 0.377234
0.042786 0.198856 0.357153
0.044038 0.198749 0.398871
0.048310 0.193988 0.380163
0.099321 0.200977 0.360754
0.268849 0.238788 0.390631
0.446845 0.267597 0.428199
0.550256 0.233417 0.405676
0.649378 0.250507 0.390539
0.734676 0.387808 0.432807
0.048219 0.297215 0.420447
0.051118 0.328786 0.481941
0.066133 0.351034 0.479957
0.169787 0.394064 0.475380
0.351263 0.419608 0.477333
0.530144 0.458671 0.505699
0.634791 0.445304 0.482582
0.725551 0.442039 0.457710
0.771939 0.517174 0.501427
0.055238 0.385718 0.471962
0.056367 0.421576 0.531945
0.075654 0.454994 0.529717
0.199542 0.517571 0.539208
0.435935 0.565393 0.551446
0.604608 0.593561 0.568200
0.694026 0.586297 0.546593
0.768887 0.578088 0.523003
0.817899 0.621118 0.559533
0.062867 0.447730 0.464851
0.061097 0.473579 0.494148
0.066865 0.489418 0.491493
0.142901 0.547051 0.503838
0.405463 0.631891 0.546471
0.637232 0.671748 0.572747
0.768002 0.702083 0.601801
0.834562 0.696376 0.576623
0.859190 0.706813 0.610010
0.068574 0.490578 0.448341
0.062318 0.499397 0.458167
0.077821 0.524773 0.452644
0.139788 0.581415 0.472023
0.371557 0.670649 0.512627
0.644007 0.732326 0.558145
0.805966 0.779782 0.612696
0.893034 0.802396 0.633051
0.897612 0.783505 0.653407
0.067597 0.512840 0.430671
0.078492 0.537499 0.442145
0.117128 0.580835 0.468055
0.250568 0.654719 0.513512
0.501717 0.732418 0.581872
0.690089 0.783322 0.627192
0.811307 0.819333 0.660578
0.892943 0.843565 0.684260
0.927977 0.853147 0.695644
0.034638 0.036469 0.224948
0.034668 0.036469 0.219821
0.041077 0.037812 0.227237
0.060731 0.039796 0.233371
0.114260 0.040620 0.244511
0.209506 0.040986 0.270573
0.316075 0.041657 0.308598
0.399664 0.044709 0.327977
0.458991 0.049165 0.333684
0.039429 0.056825 0.282689
0.036988 0.038209 0.261387
0.036255 0.037598 0.246281
0.048463 0.039216 0.252934
0.110811 0.041596 0.279515
0.241428 0.042298 0.324590
0.377264 0.043580 0.363653
0.452461 0.049439 0.362097
0.518395 0.073457 0.366552
0.041871 0.112917 0.344945
0.042908 0.079927 0.347875
0.040833 0.055665 0.304723
0.046845 0.057099 0.295201
0.117540 0.067964 0.326085
0.281773 0.073365 0.375433
0.430518 0.069551 0.406195
0.509209 0.071809 0.394659
0.604181 0.184909 0.416602
0.044404 0.198062 0.409277
0.046571 0.190707 0.441474
0.045106 0.160922 0.412757
0.049561 0.149889 0.376654
0.143389 0.184771 0.401099
0.333745 0.217243 0.447395
0.496956 0.225269 0.474861
0.593561 0.212573 0.448798
0.690425 0.363119 0.480507
0.048798 0.293065 0.470985
0.050233 0.305699 0.516594
0.050080 0.299153 0.510002
0.067933 0.311330 0.492042
0.186770 0.351308 0.491859
0.400885 0.398611 0.525170
0.567864 0.423301 0.550561
0.673854 0.413474 0.521630
0.734340 0.506966 0.549554
0.053040 0.367071 0.520195
0.054475 0.379187 0.565209
0.055329 0.392859 0.569238
0.088090 0.442390 0.570733
0.266133 0.513207 0.586297
0.482933 0.543023 0.590417
0.638666 0.571588 0.612085
0.724971 0.565301 0.583978
0.789120 0.617029 0.612604
0.055879 0.420325 0.548180
0.056184 0.423011 0.581598
0.057008 0.436286 0.584619
0.079469 0.496376 0.601129
0.249210 0.595728 0.635767
0.539147 0.660914 0.658564
0.713130 0.695705 0.676997
0.791836 0.681514 0.642481
0.856443 0.711574 0.675258
0.056886 0.459510 0.526360
0.055665 0.455512 0.545007
0.057130 0.466346 0.557336
0.069520 0.515221 0.577783
0.186282 0.631022 0.623621
0.528817 0.735958 0.676234
0.733577 0.767025 0.684443
0.855894 0.795102 0.714229
0.895750 0.792630 0.725246
0.056153 0.473762 0.505333
0.058045 0.485237 0.520165
0.066773 0.520439 0.541772
0.126726 0.606241 0.589837
0.378882 0.723491 0.665400
0.641123 0.798001 0.714260
0.773831 0.825833 0.733516
0.870146 0.850828 0.755795
0.920409 0.862913 0.772671
0.036805 0.037842 0.260105
0.036103 0.037385 0.248112
0.037720 0.037720 0.244480
0.047333 0.039155 0.253056
0.089570 0.041321 0.272129
0.173190 0.041749 0.301885
0.276463 0.042176 0.335576
0.375647 0.043458 0.362890
0.446326 0.048280 0.372961
0.041779 0.059083 0.320348
0.039094 0.041321 0.293614
0.037873 0.039979 0.270787
0.039460 0.040681 0.271855
0.072938 0.044190 0.302007
0.178622 0.045472 0.339544
0.297917 0.045594 0.373358
0.417975 0.047059 0.402625
0.500328 0.073579 0.408423
0.044465 0.119509 0.391028
0.044282 0.087739 0.376837
0.042664 0.060304 0.337987
0.042695 0.061158 0.326696
0.078279 0.076600 0.356725
0.204685 0.083680 0.397162
0.340032 0.080293 0.427100
0.467140 0.074891 0.446052
0.568231 0.181674 0.469459
0.047333 0.211582 0.458473
0.048341 0.194125 0.468666
0.046937 0.155276 0.437995
0.045197 0.135653 0.407874
0.066407 0.167254 0.430213
0.213931 0.207462 0.475074
0.398260 0.225940 0.513115
0.536400 0.222522 0.530816
0.642725 0.355474 0.549249
0.049866 0.298009 0.513146
0.050752 0.303166 0.538811
0.050355 0.274907 0.523400
0.049897 0.266102 0.509300
0.070817 0.286122 0.507408
0.226200 0.349157 0.544427
0.444373 0.383902 0.579065
0.604273 0.405356 0.609094
0.698909 0.498100 0.609033
0.053223 0.356725 0.552728
0.054536 0.362127 0.580011
0.054017 0.356634 0.577630
0.056794 0.381506 0.585534
0.116106 0.439796 0.600946
0.308003 0.487968 0.614618
0.531014 0.530663 0.642084
0.667048 0.548730 0.662165
0.760128 0.613550 0.663355
0.055299 0.392126 0.577447
0.056611 0.397253 0.600702
0.057252 0.406806 0.607477
0.063905 0.457130 0.627558
0.145190 0.548180 0.658869
0.418906 0.627344 0.696956
0.617670 0.654658 0.705226
0.756283 0.677485 0.725032
0.840543 0.713283 0.729366
0.056123 0.421851 0.583093
0.056245 0.417945 0.600214
0.057343 0.428290 0.612879
0.062531 0.474952 0.636835
0.106798 0.576913 0.679438
0.401480 0.713619 0.735958
0.678676 0.764523 0.763088
0.824186 0.786374 0.772702
0.893248 0.801541 0.785702
0.055726 0.446265 0.562829
0.057252 0.455848 0.580713
0.061982 0.487343 0.608728
0.082200 0.555261 0.653956
0.283284 0.693584 0.719966
0.587045 0.799191 0.772366
0.745480 0.832914 0.797604
0.845731 0.851804 0.804562
0.915251 0.868864 0.820249
0.038788 0.040101 0.291997
0.037873 0.039124 0.272801
0.037232 0.038819 0.264378
0.040986 0.039429 0.272709
0.069673 0.042267 0.299901
0.146578 0.043488 0.327947
0.235233 0.044221 0.354406
0.325658 0.044251 0.380529
0.417456 0.045899 0.402686
0.043275 0.067811 0.352850
0.042267 0.060731 0.337407
0.041535 0.058503 0.321294
0.043763 0.065980 0.331182
0.083192 0.080751 0.360418
0.179843 0.084749 0.390753
0.281834 0.083986 0.414252
0.374609 0.080690 0.433875
0.465797 0.078096 0.447486
0.046357 0.133913 0.426490
0.045655 0.120577 0.411658
0.045014 0.120607 0.402136
0.046632 0.131075 0.407965
0.081239 0.163424 0.435615
0.203738 0.187625 0.469551
0.337774 0.198978 0.496406
0.441321 0.201114 0.516869
0.530266 0.191745 0.525231
0.049104 0.227115 0.492683
0.049165 0.213596 0.484688
0.048310 0.207675 0.475135
0.049836 0.224796 0.483497
0.079240 0.263966 0.506340
0.211185 0.307958 0.538048
0.374578 0.333684 0.567926
0.498482 0.351354 0.596002
0.597650 0.358953 0.612757
0.050965 0.309392 0.543786
0.050599 0.295628 0.538567
0.051087 0.293584 0.536278
0.060182 0.330159 0.555413
0.139132 0.383291 0.578973
0.282963 0.431617 0.608087
0.448646 0.457527 0.630701
0.557824 0.472358 0.648676
0.658564 0.489509 0.670497
0.053925 0.352087 0.574975
0.053834 0.350988 0.576989
0.055177 0.368200 0.584283
0.076051 0.424903 0.610071
0.204837 0.495705 0.645441
0.390311 0.549310 0.674525
0.540139 0.577844 0.694881
0.639246 0.590967 0.709377
0.721462 0.601709 0.722560
0.055818 0.379705 0.593744
0.056428 0.389776 0.601251
0.060151 0.425727 0.617914
0.091157 0.500603 0.649897
0.263935 0.588922 0.695186
0.485893 0.647028 0.730220
0.642054 0.683253 0.755489
0.744686 0.700404 0.772457
0.814969 0.711696 0.783749
0.056703 0.401892 0.602350
0.057740 0.415534 0.613947
0.061250 0.452338 0.632685
0.086519 0.534447 0.668910
0.259388 0.641962 0.716304
0.520729 0.722469 0.763180
0.696895 0.765682 0.795895
0.811856 0.792569 0.818601
0.885100 0.803525 0.831296
0.056062 0.416358 0.600946
0.057313 0.427527 0.614404
0.061311 0.463935 0.637079
0.073426 0.532036 0.668513
0.230915 0.669932 0.726711
0.525765 0.789151 0.787625
0.724544 0.832425 0.825467
0.834806 0.854551 0.846708
0.916259 0.880339 0.872343
