assets/luts/impulz-kodak-ultramax-400-fpe-rec709-84770bce.cube
# (C) 2014 VisionColor & Patchflyer [www.vision-color.com]
# Generator: VC Patchmatch v.2.1.1 [64/53]
# All work and no play makes Jack a dull boy.
# LUT generated from: Kodak Ultramax 400_FPE
LUT_3D_SIZE 5
0.036164 0.042237 0.043580
0.152590 0.056519 0.044800
0.323125 0.071778 0.055085
0.443427 0.077852 0.065187
0.530419 0.074250 0.073518
0.121279 0.165225 0.046326
0.402991 0.259037 0.049165
0.589410 0.302342 0.065827
0.678676 0.316899 0.079255
0.727626 0.289433 0.085420
0.353002 0.379126 0.053132
0.561090 0.458412 0.076387
0.742550 0.501976 0.099306
0.813474 0.501732 0.109560
0.836423 0.461067 0.110323
0.424567 0.473945 0.066194
0.618524 0.538811 0.093782
0.795285 0.584558 0.121157
0.876249 0.596094 0.132784
0.893065 0.572168 0.134981
0.409064 0.522332 0.071107
0.636835 0.588586 0.105592
0.799619 0.633875 0.135012
0.885710 0.654353 0.147494
0.923156 0.650507 0.151583
0.030854 0.042267 0.130251
0.147494 0.052918 0.145998
0.311223 0.060700 0.163241
0.418524 0.068055 0.174472
0.507042 0.069856 0.162509
0.050172 0.196170 0.208286
0.290410 0.275151 0.244968
0.476661 0.310552 0.257237
0.587854 0.328923 0.264134
0.678676 0.290379 0.225193
0.124819 0.361486 0.231601
0.418952 0.445624 0.280278
0.616754 0.496864 0.304692
0.705959 0.503441 0.305943
0.786465 0.464820 0.257939
0.174716 0.447761 0.209415
0.469276 0.527581 0.279362
0.663355 0.584710 0.326299
0.771878 0.603571 0.325902
0.848722 0.589075 0.292363
0.181796 0.487617 0.156924
0.513756 0.597772 0.209659
0.686458 0.652064 0.279973
0.807767 0.689296 0.298375
0.896147 0.690700 0.274693
0.035370 0.051514 0.224399
0.101442 0.050324 0.217746
0.277897 0.058167 0.239689
0.398199 0.067140 0.257694
0.487343 0.073335 0.232914
0.046571 0.207614 0.323796
0.203494 0.263218 0.333532
0.411841 0.294499 0.362127
0.530694 0.307317 0.355810
0.631739 0.275456 0.295567
0.060212 0.353368 0.401038
0.278965 0.431006 0.418097
0.536187 0.492561 0.457649
0.634577 0.492622 0.439918
0.746242 0.436957 0.345129
0.069856 0.436713 0.397650
0.327611 0.520653 0.431647
0.570916 0.577203 0.476692
0.713130 0.611902 0.495277
0.839384 0.609308 0.441566
0.078584 0.475715 0.341558
0.369512 0.597467 0.390997
0.630426 0.686702 0.437934
0.768673 0.729000 0.492348
0.905791 0.758144 0.493050
0.039124 0.063508 0.286168
0.069337 0.051453 0.265476
0.235294 0.063935 0.311620
0.366155 0.068421 0.314122
0.474678 0.073762 0.309422
0.045777 0.219760 0.405341
0.149386 0.261234 0.385931
0.328695 0.283146 0.405737
0.487831 0.305699 0.431098
0.600488 0.282506 0.385016
0.053681 0.343084 0.469856
0.216495 0.419104 0.480751
0.440543 0.467781 0.502770
0.591699 0.492836 0.525353
0.697383 0.437354 0.442206
0.055177 0.412970 0.504997
0.220066 0.512413 0.530175
0.494377 0.575586 0.561425
0.670253 0.622553 0.598962
0.818235 0.602747 0.538048
0.054871 0.448218 0.482185
0.209506 0.591424 0.530694
0.522713 0.697536 0.591913
0.751797 0.777859 0.646754
0.916899 0.821469 0.679622
0.041505 0.076265 0.323003
0.045472 0.051087 0.283879
0.140627 0.062806 0.334936
0.290593 0.072847 0.373114
0.449897 0.072267 0.401679
0.046693 0.209903 0.449317
0.062928 0.209873 0.416907
0.152499 0.228397 0.432044
0.347784 0.261143 0.479072
0.554437 0.278141 0.506554
0.050446 0.312718 0.512718
0.096895 0.354681 0.518029
0.187884 0.382605 0.540368
0.417060 0.411353 0.568963
0.662104 0.448951 0.604242
0.053895 0.376837 0.553552
0.118044 0.458930 0.580560
0.324224 0.544427 0.636164
0.559045 0.583947 0.686336
0.792752 0.609979 0.720363
0.055909 0.416938 0.580041
0.102296 0.530846 0.636347
0.308797 0.673396 0.706233
0.665675 0.786862 0.787533
0.916259 0.880339 0.872343
