assets/luts/impulz-fuji-pro-400-fc-log-6485de85.cube
# (C) 2014 VisionColor & Patchflyer [www.vision-color.com]
# Generator: VC Patchmatch v.2.1.1 [64/53]
# All work and no play makes Jack a dull boy.
# LUT generated from: Fuji Pro 400_FC
LUT_3D_SIZE 17
0.025147 0.025147 0.025147
0.041016 0.029572 0.029236
0.080964 0.028046 0.029725
0.132601 0.027985 0.030945
0.197482 0.028199 0.031403
0.272145 0.033967 0.036133
0.368307 0.043030 0.044526
0.454948 0.048707 0.051698
0.518639 0.053498 0.058228
0.556268 0.056703 0.062623
0.575372 0.064546 0.066987
0.592706 0.081483 0.073915
0.611353 0.102541 0.082429
0.632288 0.122896 0.090822
0.657008 0.137148 0.098909
0.683894 0.146487 0.106447
0.706477 0.151949 0.118410
0.028077 0.045533 0.025055
0.042847 0.045655 0.026764
0.081239 0.045533 0.027070
0.132052 0.056641 0.030945
0.193576 0.064302 0.035096
0.261448 0.068605 0.040375
0.347845 0.073823 0.047913
0.429206 0.083650 0.057252
0.493080 0.093202 0.067750
0.535515 0.101472 0.075257
0.561578 0.108278 0.080354
0.586419 0.124208 0.087770
0.613031 0.144015 0.096681
0.640497 0.160983 0.104524
0.666163 0.174929 0.112490
0.692470 0.185000 0.119966
0.717311 0.194125 0.130861
0.033814 0.084382 0.022858
0.049439 0.084047 0.024201
0.085573 0.084901 0.028748
0.131868 0.093751 0.032746
0.189273 0.100465 0.038209
0.254093 0.111727 0.047730
0.327489 0.121401 0.057984
0.403922 0.130709 0.068910
0.468147 0.140658 0.079774
0.521263 0.157504 0.091920
0.558404 0.169986 0.100252
0.589563 0.180941 0.106996
0.619196 0.195712 0.114473
0.648951 0.207889 0.120668
0.676936 0.220340 0.127199
0.703883 0.233127 0.134279
0.729274 0.240909 0.143191
0.046876 0.134463 0.027497
0.071077 0.135470 0.030365
0.104952 0.134218 0.035004
0.142336 0.138857 0.042176
0.197818 0.156497 0.051575
0.259251 0.163180 0.060822
0.325170 0.169589 0.071138
0.400168 0.195010 0.087373
0.467964 0.222049 0.104433
0.526085 0.244144 0.119020
0.564233 0.250523 0.126436
0.600702 0.265171 0.134432
0.632410 0.271244 0.138552
0.663233 0.274174 0.141665
0.690639 0.279393 0.145907
0.715419 0.283574 0.149722
0.739925 0.291814 0.157015
0.064942 0.191409 0.037018
0.096376 0.195193 0.042298
0.127474 0.195621 0.047242
0.172000 0.201144 0.056458
0.213291 0.208774 0.064912
0.272801 0.225467 0.077913
0.333776 0.243687 0.092134
0.404746 0.267445 0.108339
0.471855 0.295094 0.125948
0.538231 0.334295 0.146395
0.587488 0.357671 0.159701
0.621637 0.362158 0.164920
0.651484 0.360906 0.166537
0.680781 0.353521 0.166812
0.707973 0.347112 0.167239
0.731380 0.345190 0.169009
0.753506 0.346288 0.172885
0.090089 0.261967 0.055299
0.128176 0.267430 0.063050
0.165560 0.271580 0.070466
0.205722 0.279210 0.079774
0.249393 0.287022 0.089052
0.296513 0.298146 0.099306
0.352422 0.318135 0.113466
0.418143 0.348837 0.131838
0.490562 0.392355 0.154665
0.558221 0.433509 0.175784
0.613581 0.461372 0.191287
0.651881 0.467109 0.197787
0.680018 0.457496 0.198032
0.706691 0.444099 0.196292
0.729244 0.427222 0.193057
0.747616 0.413947 0.190890
0.767452 0.410681 0.191714
0.120912 0.340200 0.080262
0.163699 0.347219 0.088869
0.211978 0.355764 0.099184
0.252903 0.363302 0.108797
0.295048 0.373648 0.117678
0.338659 0.385275 0.127565
0.378927 0.400473 0.136812
0.440452 0.426352 0.153658
0.502907 0.459770 0.172671
0.575799 0.502861 0.196384
0.637324 0.533104 0.213993
0.680201 0.544030 0.222416
0.708675 0.535409 0.223148
0.733181 0.523873 0.221744
0.753017 0.504646 0.217288
0.768154 0.489235 0.214603
0.784726 0.480293 0.213230
0.159121 0.424521 0.107637
0.203128 0.430808 0.115969
0.266636 0.445121 0.129366
0.312917 0.455192 0.140322
0.354849 0.465721 0.149599
0.391318 0.477165 0.157565
0.428428 0.490684 0.165805
0.468894 0.507301 0.177035
0.530800 0.538918 0.195926
0.594659 0.568933 0.215549
0.657893 0.597101 0.233402
0.705226 0.608179 0.242557
0.737087 0.604974 0.244968
0.761318 0.594934 0.244114
0.779171 0.579980 0.240696
0.791897 0.565393 0.237736
0.805142 0.558556 0.236027
0.206271 0.502907 0.134401
0.256977 0.511238 0.143832
0.320760 0.527840 0.157473
0.372946 0.540230 0.169009
0.414511 0.551431 0.178470
0.450614 0.564309 0.186526
0.481010 0.575357 0.194400
0.520333 0.591623 0.205631
0.556161 0.603464 0.215152
0.620783 0.628565 0.232242
0.677882 0.645869 0.246769
0.724117 0.654871 0.256382
0.758968 0.654963 0.260594
0.787778 0.653284 0.262638
0.806943 0.644175 0.260471
0.818235 0.632151 0.257115
0.827970 0.624887 0.255161
0.257908 0.577127 0.159945
0.314824 0.590402 0.171237
0.378241 0.606668 0.184665
0.430396 0.618982 0.195651
0.471412 0.629633 0.204227
0.506493 0.642237 0.212009
0.536370 0.652583 0.219577
0.568658 0.664668 0.228275
0.607843 0.675715 0.238651
0.647074 0.686015 0.248569
0.704692 0.699062 0.261509
0.747860 0.705104 0.269932
0.781308 0.705837 0.275090
0.811826 0.705959 0.278355
0.832059 0.700862 0.277928
0.841398 0.692897 0.274846
0.847807 0.684169 0.272557
0.315740 0.646845 0.183261
0.375738 0.662593 0.195895
0.434028 0.678035 0.208011
0.484077 0.689387 0.218112
0.520806 0.697871 0.225345
0.551781 0.704799 0.230930
0.582757 0.713802 0.238834
0.614130 0.723110 0.247044
0.648615 0.731441 0.256229
0.689433 0.740322 0.265934
0.731701 0.747738 0.274693
0.773617 0.752682 0.282780
0.802518 0.753445 0.287755
0.829831 0.757198 0.292393
0.849851 0.757778 0.294011
0.861875 0.749020 0.291020
0.866178 0.739467 0.288487
0.362646 0.710597 0.201785
0.419928 0.724758 0.213352
0.477150 0.738186 0.224674
0.526360 0.747707 0.233951
0.561700 0.753048 0.241733
0.594110 0.758785 0.248722
0.622614 0.763577 0.255680
0.655116 0.771054 0.263584
0.686610 0.777798 0.271366
0.722438 0.784634 0.279179
0.762081 0.791440 0.287449
0.795285 0.796078 0.293462
0.824186 0.799130 0.299107
0.849363 0.804562 0.304143
0.863462 0.803494 0.306065
0.872190 0.801572 0.305303
0.876249 0.791714 0.303258
0.386206 0.760861 0.211429
0.440467 0.774227 0.222690
0.501823 0.785763 0.235843
0.556420 0.795285 0.247135
0.596429 0.799619 0.256107
0.633448 0.804227 0.264439
0.662409 0.808438 0.271397
0.691981 0.810880 0.277989
0.723079 0.817624 0.285161
0.753475 0.820249 0.291142
0.785122 0.825223 0.297734
0.818051 0.830045 0.303716
0.837339 0.833432 0.307530
0.857084 0.837400 0.312261
0.870512 0.844114 0.316014
0.880003 0.848417 0.317388
0.883696 0.839658 0.316472
0.404730 0.806607 0.219303
0.460517 0.817899 0.231327
0.526329 0.824521 0.246372
0.585626 0.831052 0.259556
0.627039 0.834928 0.268864
0.671199 0.838254 0.278660
0.701442 0.842252 0.285710
0.731441 0.845243 0.292424
0.757473 0.848539 0.297673
0.786557 0.852201 0.303197
0.811948 0.855680 0.307866
0.841428 0.859617 0.313542
0.852384 0.862211 0.316625
0.867552 0.865324 0.318822
0.877165 0.869505 0.322087
0.883818 0.872282 0.323400
0.888273 0.870878 0.324590
0.423896 0.846372 0.228092
0.488594 0.849424 0.242588
0.555535 0.854795 0.258061
0.616449 0.858701 0.271550
0.664302 0.863462 0.281926
0.708827 0.866514 0.291722
0.739590 0.868589 0.298955
0.768368 0.870481 0.305425
0.792508 0.872404 0.309606
0.816342 0.874388 0.313817
0.836179 0.875822 0.316838
0.854948 0.878355 0.320775
0.865690 0.881468 0.325139
0.875792 0.884550 0.326390
0.881285 0.887877 0.326543
0.887724 0.891417 0.328008
0.890806 0.890318 0.329778
0.448798 0.878202 0.238987
0.522515 0.875517 0.255619
0.594263 0.875395 0.271824
0.655360 0.878050 0.284886
0.703212 0.881834 0.294865
0.745571 0.884825 0.303746
0.775570 0.885863 0.310826
0.801938 0.886931 0.316747
0.822538 0.888182 0.319890
0.841245 0.890318 0.322576
0.856718 0.892882 0.324407
0.867948 0.894316 0.327337
0.876890 0.896574 0.330907
0.882200 0.898314 0.334234
0.887144 0.901915 0.334417
0.891569 0.907988 0.331609
0.894163 0.906615 0.333440
0.478584 0.895872 0.251713
0.558129 0.890532 0.269566
0.631434 0.888487 0.285466
0.694423 0.891203 0.298314
0.738766 0.895445 0.307469
0.773922 0.898650 0.314702
0.797574 0.899138 0.320012
0.821317 0.899290 0.325292
0.840787 0.899535 0.328893
0.854734 0.901579 0.330755
0.867735 0.904051 0.332372
0.874998 0.906310 0.334173
0.881529 0.907256 0.336858
0.886290 0.908476 0.340215
0.890593 0.909789 0.343297
0.894652 0.914458 0.342107
0.897795 0.922423 0.337560
0.028840 0.029175 0.037201
0.036774 0.028656 0.040406
0.074678 0.027497 0.041169
0.118410 0.027161 0.046265
0.172671 0.026917 0.050019
0.239384 0.032136 0.053559
0.330846 0.039734 0.058259
0.415396 0.045197 0.065126
0.493385 0.051789 0.070558
0.543542 0.056062 0.075593
0.576776 0.064118 0.078737
0.605035 0.078584 0.083619
0.633570 0.094667 0.090150
0.657160 0.108492 0.097230
0.680171 0.121309 0.105684
0.697200 0.129091 0.115877
0.712947 0.131197 0.129183
0.026062 0.041321 0.034394
0.044587 0.046479 0.043549
0.091188 0.045228 0.044404
0.146273 0.045319 0.044190
0.219333 0.047059 0.045319
0.311391 0.050080 0.048157
0.414923 0.056794 0.055634
0.487373 0.063600 0.062928
0.541466 0.064057 0.065553
0.569238 0.069734 0.069734
0.590997 0.080385 0.074434
0.610590 0.101167 0.083131
0.632715 0.121309 0.090944
0.657069 0.135470 0.097871
0.682124 0.145937 0.106416
0.705806 0.152346 0.118593
0.727687 0.158846 0.133120
0.031220 0.079469 0.032380
0.052491 0.093355 0.039338
0.097719 0.093416 0.045869
0.151492 0.092164 0.046357
0.217807 0.096895 0.052705
0.298405 0.103456 0.058381
0.389075 0.109590 0.066438
0.457069 0.112825 0.074220
0.516167 0.119326 0.080171
0.559075 0.126864 0.087495
0.589166 0.139254 0.093812
0.612634 0.152193 0.100679
0.638880 0.167452 0.107088
0.666133 0.181308 0.113680
0.693294 0.193668 0.120943
0.717525 0.200870 0.132631
0.741299 0.206332 0.145052
0.041260 0.126894 0.039796
0.066011 0.149111 0.040589
0.109651 0.150118 0.046876
0.162387 0.153292 0.054780
0.223453 0.156863 0.061769
0.294316 0.160189 0.069551
0.380774 0.178164 0.082094
0.448127 0.188693 0.093843
0.508873 0.196719 0.103578
0.553124 0.203677 0.111269
0.593042 0.211704 0.117311
0.623774 0.222446 0.123659
0.650874 0.226719 0.126741
0.678035 0.238346 0.132479
0.704982 0.245396 0.137819
0.730739 0.253330 0.146304
0.755520 0.260014 0.156924
0.056672 0.182925 0.047791
0.089570 0.224582 0.054505
0.135378 0.230076 0.062531
0.187015 0.229221 0.070649
0.243839 0.240574 0.083070
0.309117 0.253391 0.093843
0.394232 0.274968 0.109743
0.456687 0.282948 0.120943
0.522408 0.304952 0.135286
0.575280 0.322576 0.148074
0.617914 0.332616 0.155489
0.643244 0.321141 0.155520
0.670497 0.315953 0.155489
0.696223 0.311131 0.156069
0.721523 0.309911 0.157809
0.745541 0.312657 0.163851
0.767300 0.315587 0.170443
0.078767 0.252995 0.061860
0.118868 0.308461 0.076417
0.175692 0.318624 0.087404
0.224216 0.321065 0.095247
0.280201 0.330129 0.106569
0.335195 0.346059 0.119509
0.412741 0.374319 0.137606
0.476677 0.390829 0.151675
0.544686 0.417166 0.168460
0.598688 0.434852 0.181399
0.646662 0.444068 0.190646
0.675227 0.431601 0.190402
0.696162 0.410483 0.186282
0.719875 0.398077 0.184360
0.739590 0.385260 0.181796
0.761196 0.382025 0.183291
0.782284 0.381353 0.187564
0.108492 0.333730 0.080262
0.154543 0.408377 0.104585
0.224704 0.422629 0.118624
0.288182 0.434562 0.131258
0.342550 0.446677 0.142397
0.392447 0.461204 0.154574
0.442954 0.484184 0.169375
0.502113 0.494316 0.181216
0.569039 0.511757 0.196139
0.630884 0.534386 0.211643
0.681270 0.547906 0.222934
0.711574 0.539269 0.225132
0.730892 0.517159 0.219913
0.746365 0.493187 0.214298
0.762356 0.473472 0.209354
0.778286 0.460517 0.207156
0.797848 0.455634 0.207462
0.145449 0.418631 0.105287
0.197665 0.491447 0.130709
0.274128 0.508156 0.146181
0.343496 0.523293 0.160800
0.396872 0.533974 0.172091
0.440940 0.546731 0.181125
0.487663 0.564462 0.193362
0.533181 0.582681 0.206332
0.597391 0.594827 0.220096
0.652552 0.604425 0.232059
0.709743 0.618830 0.244663
0.743374 0.612955 0.248081
0.762387 0.596384 0.244694
0.776730 0.572702 0.238987
0.788785 0.556588 0.234379
0.801114 0.542916 0.230838
0.817716 0.537270 0.230350
0.188235 0.499443 0.129244
0.251957 0.568826 0.156832
0.325154 0.586007 0.171542
0.397696 0.604288 0.186618
0.452201 0.616922 0.198642
0.493553 0.629129 0.207462
0.535927 0.642130 0.217197
0.578531 0.658763 0.229129
0.630198 0.669413 0.241520
0.686061 0.675593 0.252720
0.738888 0.683162 0.263554
0.772732 0.679866 0.268132
0.794064 0.670054 0.267369
0.807584 0.653239 0.262974
0.818814 0.637217 0.258366
0.826841 0.623117 0.254368
0.837705 0.617899 0.254276
0.226932 0.579873 0.151369
0.306889 0.641108 0.180819
0.379248 0.659052 0.195102
0.449928 0.677394 0.209384
0.501640 0.685756 0.219974
0.540825 0.696681 0.228244
0.582971 0.707118 0.238407
0.618311 0.717311 0.247044
0.669795 0.726894 0.258976
0.715312 0.734859 0.268742
0.766842 0.739712 0.278569
0.799741 0.737697 0.283391
0.820676 0.728695 0.284184
0.834134 0.716091 0.281773
0.843748 0.704036 0.278172
0.848905 0.691035 0.274083
0.857114 0.683711 0.273686
0.271061 0.652613 0.172763
0.355200 0.704890 0.199710
0.423255 0.722103 0.213474
0.491005 0.738888 0.226627
0.546197 0.747066 0.238468
0.585565 0.754025 0.246616
0.626429 0.763546 0.256962
0.663447 0.772213 0.265965
0.706355 0.782101 0.276188
0.750301 0.788022 0.284581
0.794675 0.793637 0.292760
0.825010 0.791043 0.297307
0.841184 0.787564 0.299687
0.853208 0.777401 0.298680
0.864408 0.769314 0.296788
0.868254 0.752712 0.291600
0.871122 0.743404 0.291142
0.300145 0.717891 0.190188
0.387854 0.761135 0.212467
0.456703 0.776883 0.226291
0.522911 0.790799 0.239689
0.581994 0.799222 0.253056
0.625666 0.805508 0.263188
0.664881 0.810605 0.272435
0.699794 0.815579 0.280522
0.736843 0.821530 0.288823
0.776272 0.828428 0.296178
0.814450 0.833402 0.303166
0.844083 0.836637 0.308873
0.859983 0.835050 0.311864
0.867979 0.828275 0.312016
0.875731 0.823178 0.311559
0.879515 0.815152 0.308476
0.881773 0.798886 0.306828
0.318425 0.771511 0.202029
0.403296 0.807706 0.218662
0.472358 0.819547 0.233982
0.543572 0.830014 0.249851
0.608148 0.837430 0.264805
0.657984 0.841917 0.276036
0.700130 0.846067 0.285618
0.731472 0.847532 0.292393
0.765011 0.850614 0.299443
0.797787 0.853605 0.305486
0.828000 0.858457 0.311711
0.856962 0.861875 0.317296
0.867460 0.864439 0.319615
0.875669 0.862974 0.320928
0.882994 0.865782 0.322301
0.886778 0.859495 0.320439
0.889006 0.846036 0.320500
0.335515 0.818479 0.212070
0.423835 0.847074 0.226688
0.495827 0.853697 0.243381
0.575372 0.856352 0.262333
0.640864 0.861936 0.277256
0.692439 0.864988 0.288426
0.734798 0.868559 0.297856
0.766049 0.870512 0.304662
0.793149 0.871977 0.309514
0.821591 0.874113 0.314885
0.842618 0.876951 0.318761
0.864103 0.880430 0.324102
0.874357 0.882902 0.327306
0.880949 0.887266 0.326390
0.886870 0.888457 0.327520
0.890227 0.884947 0.327550
0.894041 0.881285 0.330968
0.365423 0.855467 0.225559
0.449653 0.873655 0.238346
0.526665 0.876249 0.256291
0.609674 0.874846 0.275212
0.671809 0.878752 0.289250
0.721370 0.881865 0.300145
0.762081 0.884459 0.308934
0.793118 0.885832 0.315343
0.820249 0.887114 0.319951
0.840299 0.889555 0.322972
0.859525 0.892241 0.326146
0.871214 0.894682 0.329778
0.881529 0.897673 0.334325
0.886107 0.902068 0.333440
0.890806 0.906676 0.331914
0.893675 0.904509 0.332341
0.895659 0.899229 0.336522
0.403723 0.883482 0.240177
0.474800 0.892546 0.250980
0.556176 0.889006 0.268681
0.636652 0.887388 0.286503
0.697353 0.891112 0.299809
0.744137 0.894835 0.309911
0.783719 0.897520 0.318639
0.813169 0.898314 0.324895
0.839414 0.899290 0.329168
0.856321 0.901884 0.331456
0.870970 0.904723 0.333196
0.878202 0.906645 0.335454
0.885100 0.908507 0.338720
0.889860 0.910002 0.342809
0.893675 0.915282 0.340826
0.897093 0.922301 0.336522
0.898375 0.916533 0.341253
0.448524 0.898070 0.256565
0.495644 0.902281 0.263554
0.573266 0.898009 0.279332
0.647608 0.896361 0.294682
0.707973 0.899962 0.307958
0.751247 0.903075 0.317571
0.787381 0.905760 0.325780
0.815885 0.906279 0.331975
0.839689 0.906737 0.336919
0.856992 0.908568 0.340185
0.870420 0.911650 0.342596
0.879667 0.915190 0.344701
0.885893 0.916167 0.346624
0.891112 0.917144 0.349615
0.895689 0.918090 0.352605
0.899016 0.923735 0.350164
0.901274 0.931792 0.345983
0.026795 0.026825 0.057893
0.033661 0.026429 0.061158
0.061128 0.025452 0.066682
0.102571 0.025360 0.067872
0.151369 0.025971 0.069490
0.208133 0.028809 0.072267
0.284581 0.035157 0.076234
0.374746 0.042237 0.080720
0.454185 0.048981 0.086030
0.524208 0.056062 0.091279
0.574487 0.063264 0.094514
0.615869 0.073487 0.096284
0.648157 0.086763 0.100801
0.673091 0.097749 0.106844
0.687221 0.104952 0.116152
0.697017 0.109255 0.128023
0.712703 0.110933 0.141360
0.024262 0.038117 0.057557
0.042267 0.041718 0.069001
0.076509 0.040314 0.076051
0.129183 0.041291 0.072267
0.190158 0.043000 0.069276
0.268406 0.044739 0.070832
0.362493 0.051240 0.075257
0.443153 0.060029 0.079500
0.508095 0.061555 0.082704
0.568475 0.067903 0.084901
0.603326 0.076387 0.088594
0.632380 0.093629 0.093599
0.657923 0.109529 0.099580
0.677058 0.118105 0.107393
0.690303 0.123262 0.117830
0.711177 0.128634 0.130526
0.732021 0.134585 0.145205
0.025208 0.067994 0.059937
0.044007 0.078370 0.073548
0.081971 0.076783 0.070588
0.139864 0.075441 0.071412
0.207675 0.074922 0.069032
0.294286 0.077028 0.070100
0.387594 0.081727 0.073640
0.481605 0.087129 0.079622
0.539544 0.089296 0.082490
0.582238 0.092470 0.084413
0.606744 0.106020 0.089815
0.631891 0.122469 0.095369
0.657984 0.137850 0.102449
0.681056 0.146242 0.109102
0.702235 0.151644 0.118166
0.725368 0.158267 0.132082
0.753902 0.172488 0.153658
0.034485 0.116945 0.061036
0.056794 0.135653 0.068482
0.094209 0.136141 0.068727
0.150515 0.137301 0.076875
0.215854 0.136690 0.076020
0.295171 0.144137 0.083162
0.382239 0.154482 0.090089
0.470680 0.162509 0.098787
0.528222 0.163088 0.104219
0.576471 0.169680 0.107790
0.613031 0.171603 0.110872
0.642786 0.184939 0.115663
0.668849 0.190829 0.120455
0.692409 0.197971 0.126040
0.715877 0.206424 0.134157
0.740810 0.213230 0.144259
0.769375 0.226810 0.165011
0.048676 0.173648 0.064637
0.076844 0.210666 0.073091
0.113436 0.215305 0.074220
0.170626 0.216953 0.082124
0.232792 0.222965 0.091615
0.309514 0.228977 0.099031
0.390555 0.236500 0.108400
0.475944 0.255406 0.121187
0.538338 0.265599 0.131685
0.588586 0.268986 0.137209
0.625696 0.268742 0.140383
0.657649 0.259037 0.139223
0.685481 0.261326 0.141726
0.708736 0.262364 0.144625
0.732784 0.269963 0.152041
0.756741 0.274235 0.159945
0.783352 0.286229 0.178164
0.068910 0.242069 0.074922
0.102388 0.296620 0.084535
0.144778 0.315465 0.091341
0.206973 0.324666 0.102602
0.267979 0.325856 0.113405
0.335256 0.342031 0.126711
0.411795 0.354910 0.137026
0.501656 0.382284 0.155154
0.566079 0.396963 0.168856
0.620508 0.401480 0.175479
0.657038 0.392386 0.177493
0.687556 0.378470 0.175631
0.708888 0.355245 0.172091
0.730282 0.347967 0.171206
0.751095 0.343877 0.172793
0.773098 0.343664 0.177218
0.798428 0.352087 0.193484
0.095644 0.323720 0.089052
0.134676 0.400168 0.106264
0.183444 0.417319 0.115480
0.261082 0.435111 0.131716
0.318990 0.439658 0.142489
0.380850 0.450004 0.153140
0.442802 0.471061 0.167422
0.526101 0.492027 0.183993
0.597086 0.505989 0.199161
0.656580 0.517174 0.209567
0.694331 0.509682 0.212650
0.720913 0.491753 0.210452
0.740017 0.464439 0.205081
0.753933 0.440604 0.199191
0.773007 0.430228 0.198428
0.790921 0.424140 0.199039
0.815671 0.433173 0.211978
0.128145 0.417319 0.106600
0.174411 0.491569 0.126528
0.231449 0.521553 0.142275
0.317433 0.543648 0.160922
0.390982 0.560067 0.176303
0.447471 0.571450 0.187228
0.502541 0.582712 0.199039
0.561257 0.601389 0.213779
0.628183 0.607675 0.227085
0.687434 0.610285 0.236881
0.730404 0.609583 0.242863
0.759335 0.596506 0.242588
0.776669 0.574319 0.238499
0.787655 0.549966 0.232395
0.798459 0.531044 0.227268
0.813504 0.520058 0.225589
0.833860 0.520516 0.232456
0.166018 0.500435 0.127718
0.224765 0.570748 0.150149
0.290837 0.608530 0.171542
0.375937 0.631052 0.189120
0.447654 0.646830 0.203708
0.498680 0.654795 0.213443
0.549752 0.664866 0.224033
0.604929 0.677928 0.236759
0.662730 0.686717 0.249577
0.720241 0.685588 0.258671
0.760159 0.680400 0.263767
0.791684 0.675059 0.266178
0.812039 0.661204 0.264866
0.820005 0.638712 0.258671
0.828397 0.618448 0.252995
0.836393 0.608438 0.252201
0.850828 0.607523 0.257328
0.202548 0.582620 0.148104
0.267063 0.645747 0.172732
0.341466 0.684413 0.194858
0.422736 0.705226 0.210910
0.495766 0.718013 0.224613
0.548119 0.726284 0.235355
0.594446 0.734340 0.245914
0.644923 0.744717 0.256870
0.699123 0.753841 0.269078
0.754467 0.761120 0.279637
0.794400 0.757382 0.285344
0.822721 0.750515 0.287907
0.842069 0.739773 0.287938
0.848722 0.723400 0.283757
0.852384 0.703105 0.278660
0.859281 0.692821 0.277806
0.869871 0.691630 0.283391
0.230808 0.656855 0.171328
0.288579 0.713893 0.191073
0.377142 0.748409 0.210575
0.457984 0.766629 0.226078
0.534051 0.779110 0.241215
0.592126 0.782620 0.253666
0.635615 0.788663 0.263828
0.683284 0.794614 0.273777
0.726131 0.801968 0.283085
0.778958 0.809659 0.292912
0.819364 0.814237 0.300572
0.844480 0.807645 0.303716
0.859159 0.806149 0.305486
0.868650 0.792355 0.302922
0.872862 0.775174 0.299260
0.874113 0.757778 0.297856
0.879911 0.753902 0.304417
0.245609 0.723964 0.190555
0.306065 0.773068 0.205234
0.400671 0.798642 0.219577
0.483040 0.811185 0.237034
0.561212 0.823178 0.253117
0.628534 0.827878 0.268315
0.674464 0.831601 0.278782
0.718898 0.835996 0.287968
0.756344 0.841062 0.295567
0.800015 0.849180 0.303899
0.833310 0.854307 0.311101
0.863127 0.858213 0.317449
0.873472 0.854459 0.319005
0.879149 0.847745 0.318364
0.882902 0.833982 0.315740
0.885771 0.823941 0.315587
0.888884 0.808164 0.321111
0.254246 0.780819 0.202945
0.319829 0.821561 0.214481
0.419562 0.843595 0.226108
0.508812 0.850553 0.246586
0.591485 0.857786 0.265232
0.663783 0.862669 0.281529
0.714382 0.866239 0.292790
0.757015 0.867857 0.302037
0.790280 0.869383 0.308415
0.824094 0.872496 0.314977
0.848600 0.876188 0.320928
0.870146 0.880034 0.325750
0.880461 0.883055 0.327642
0.886320 0.881529 0.328099
0.889403 0.875486 0.327794
0.892058 0.866667 0.328984
0.894499 0.851621 0.335882
0.277104 0.827573 0.215976
0.351659 0.859129 0.224704
0.447791 0.875822 0.236118
0.544854 0.874266 0.260014
0.631556 0.876432 0.279850
0.699763 0.881041 0.294377
0.746822 0.883330 0.304662
0.787808 0.885344 0.313573
0.814878 0.886320 0.318364
0.841825 0.888823 0.323674
0.860716 0.891447 0.327794
0.875303 0.894652 0.333227
0.885283 0.897642 0.335943
0.890379 0.903380 0.333928
0.893462 0.899809 0.334295
0.895781 0.894041 0.337346
0.898772 0.885344 0.347662
0.309087 0.864195 0.229557
0.386816 0.883207 0.238956
0.475135 0.892271 0.249790
0.571252 0.888670 0.272221
0.656977 0.888243 0.291203
0.720913 0.893065 0.305089
0.765774 0.896117 0.314824
0.805051 0.897490 0.323186
0.832181 0.898283 0.327977
0.853178 0.900511 0.332158
0.869718 0.903593 0.335332
0.879698 0.906615 0.339361
0.888212 0.908782 0.343816
0.893431 0.913115 0.342870
0.896574 0.920073 0.339483
0.898100 0.913817 0.343877
0.900236 0.905028 0.356695
0.356542 0.888518 0.247868
0.429755 0.896117 0.257908
0.491951 0.900206 0.262974
0.584863 0.896147 0.283513
0.660700 0.896422 0.298619
0.719539 0.900175 0.312200
0.764035 0.902953 0.322210
0.803494 0.904326 0.331090
0.832944 0.905333 0.336522
0.856748 0.907958 0.341283
0.871519 0.911986 0.345098
0.881376 0.915190 0.347601
0.889342 0.917021 0.350408
0.894804 0.918425 0.354314
0.898253 0.924193 0.352087
0.901061 0.930999 0.348211
0.902281 0.920714 0.361303
0.408331 0.900236 0.270268
0.456397 0.904204 0.277226
0.503502 0.904723 0.277440
0.580407 0.902007 0.291691
0.654231 0.902281 0.306127
0.710506 0.904509 0.318883
0.753079 0.907103 0.328832
0.792447 0.908385 0.337926
0.823392 0.909880 0.345373
0.850126 0.912108 0.351141
0.866331 0.917052 0.357397
0.877836 0.921202 0.360937
0.886839 0.923247 0.364355
0.893523 0.924346 0.366796
0.899565 0.924834 0.368109
0.902464 0.929168 0.367559
0.904570 0.935271 0.365545
0.026368 0.026368 0.076905
0.035584 0.026123 0.081422
0.056916 0.025544 0.086946
0.090578 0.025116 0.088075
0.133394 0.025483 0.090700
0.185428 0.027100 0.090791
0.252537 0.032776 0.093507
0.332464 0.039887 0.099947
0.411994 0.048829 0.107393
0.485527 0.056855 0.113436
0.545617 0.065339 0.115358
0.590509 0.073854 0.117617
0.624414 0.082460 0.121035
0.650752 0.090364 0.125460
