assets/luts/impulz-fujicolor-200-fc-log-a13f7773.cube
# (C) 2014 VisionColor & Patchflyer [www.vision-color.com]
# Generator: VC Patchmatch v.2.1.1 [64/53]
# All work and no play makes Jack a dull boy.
# LUT generated from: FujiColor 200_FC
LUT_3D_SIZE 17
0.023743 0.023743 0.023743
0.042603 0.034272 0.032288
0.094392 0.047700 0.027802
0.146761 0.061311 0.020813
0.198520 0.074037 0.011200
0.242374 0.088716 0.007263
0.280735 0.098970 0.004852
0.307134 0.104952 0.003418
0.335454 0.111177 0.002808
0.360784 0.116182 0.002441
0.386572 0.120546 0.002564
0.406958 0.123384 0.002533
0.430030 0.126925 0.002686
0.453162 0.130892 0.002869
0.482063 0.136202 0.003388
0.515373 0.142428 0.004547
0.586877 0.156039 0.011749
0.025422 0.042512 0.035645
0.036835 0.043671 0.032593
0.087160 0.057404 0.029206
0.139712 0.077180 0.024384
0.192386 0.095003 0.015137
0.238285 0.108217 0.009491
0.281773 0.116274 0.005676
0.315862 0.124239 0.004150
0.355749 0.132723 0.003845
0.386969 0.139742 0.003418
0.415381 0.143557 0.003204
0.439033 0.146700 0.002930
0.468025 0.152438 0.002960
0.495064 0.157321 0.003113
0.524132 0.162875 0.003662
0.555535 0.168978 0.004974
0.631342 0.187991 0.015198
0.033692 0.077882 0.058717
0.043824 0.078309 0.054047
0.074983 0.081270 0.036469
0.126528 0.098756 0.031312
0.181582 0.114260 0.020996
0.231937 0.128573 0.011292
0.282322 0.138155 0.007446
0.331456 0.147341 0.005341
0.373449 0.155886 0.004944
0.415747 0.165194 0.004822
0.453620 0.171664 0.004395
0.483955 0.177005 0.003632
0.511650 0.181704 0.003571
0.543725 0.189212 0.004334
0.579004 0.198093 0.006470
0.616419 0.208957 0.009705
0.683009 0.229435 0.023713
0.052216 0.117098 0.085267
0.064698 0.118257 0.071351
0.091035 0.119844 0.050935
0.120516 0.121248 0.039612
0.174502 0.138277 0.029480
0.227787 0.147768 0.014130
0.276280 0.155947 0.008942
0.333043 0.169619 0.007385
0.393500 0.182437 0.008148
0.443580 0.193393 0.008362
0.485054 0.199252 0.006683
0.529351 0.211246 0.007233
0.573297 0.223209 0.008087
0.612940 0.234592 0.009644
0.649104 0.243900 0.011780
0.683192 0.258152 0.019776
0.729824 0.283604 0.041901
0.073610 0.155978 0.112520
0.089143 0.161318 0.088380
0.109957 0.162997 0.064271
0.142580 0.162081 0.047333
0.173556 0.162478 0.036561
0.228183 0.173007 0.022553
0.286534 0.185946 0.015564
0.343206 0.196597 0.012207
0.402609 0.208377 0.012177
0.468910 0.226139 0.015412
0.524346 0.240146 0.016419
0.577874 0.251469 0.015351
0.622797 0.263310 0.015686
0.666560 0.280186 0.021210
0.700282 0.297368 0.029267
0.731960 0.315068 0.040162
0.763058 0.339910 0.066011
0.098146 0.194644 0.139040
0.115480 0.204044 0.107546
0.137850 0.209110 0.077577
0.169406 0.209415 0.054444
0.201968 0.206607 0.041016
0.236484 0.202976 0.032593
0.297032 0.218997 0.026825
0.362051 0.234867 0.023835
0.425254 0.252110 0.025055
0.490486 0.268132 0.026978
0.555657 0.281743 0.028412
0.615900 0.300511 0.032136
0.665461 0.316716 0.035859
0.709255 0.332952 0.041657
0.742641 0.348913 0.049134
0.764492 0.370703 0.064027
0.783536 0.395789 0.090486
0.121767 0.239292 0.162966
0.138094 0.253330 0.131258
0.167697 0.263340 0.095827
0.201328 0.265538 0.069276
0.241215 0.263035 0.054505
0.277195 0.259251 0.045655
0.313695 0.258885 0.041260
0.378592 0.272038 0.036835
0.443442 0.289860 0.038392
0.510582 0.310918 0.043183
0.577600 0.330022 0.048371
0.640833 0.346777 0.052399
0.692195 0.363561 0.056672
0.735531 0.385443 0.066560
0.766018 0.406653 0.077760
0.784573 0.427283 0.092439
0.801114 0.449470 0.116030
0.142123 0.293462 0.190921
0.159884 0.308141 0.158236
0.198856 0.326268 0.116030
0.241306 0.330083 0.089265
0.284611 0.328496 0.073548
0.325826 0.324651 0.063600
0.361990 0.323827 0.058625
0.403586 0.326177 0.057252
0.471397 0.346868 0.060456
0.533715 0.359930 0.063111
0.599268 0.377844 0.068574
0.664179 0.400488 0.077852
0.716884 0.421485 0.085939
0.760189 0.443000 0.095521
0.788785 0.463081 0.106661
0.803464 0.483284 0.123201
0.815091 0.502098 0.143954
0.159548 0.349279 0.221653
0.183627 0.367147 0.183108
0.224887 0.388144 0.137270
0.279759 0.392645 0.111116
0.325704 0.391302 0.094881
0.376699 0.389502 0.085023
0.412375 0.387366 0.079072
0.455467 0.389563 0.077546
0.493645 0.392142 0.078218
0.559930 0.410529 0.084382
0.626703 0.428931 0.091890
0.687160 0.448585 0.100221
0.738460 0.470344 0.110658
0.779324 0.492805 0.123842
0.805905 0.513695 0.138033
0.820829 0.534020 0.154299
0.830076 0.551019 0.173556
0.174807 0.405859 0.253147
0.205020 0.429053 0.203830
0.248631 0.450111 0.158541
0.317388 0.452522 0.134493
0.369116 0.452949 0.118471
0.422339 0.452155 0.108431
0.461189 0.449683 0.103182
0.500511 0.448524 0.099001
0.543206 0.453498 0.100984
0.584787 0.458747 0.104311
0.652171 0.478096 0.114717
0.709072 0.499367 0.128389
0.752956 0.516289 0.138338
0.794858 0.539330 0.152529
0.820737 0.560296 0.167788
0.831662 0.579339 0.186069
0.838499 0.592432 0.203891
0.183505 0.458228 0.286870
0.220127 0.487800 0.228763
0.271092 0.508446 0.181155
0.347387 0.510002 0.157626
0.406531 0.509148 0.143038
0.458930 0.507042 0.132235
0.499397 0.504417 0.127474
0.538842 0.502434 0.123507
0.578302 0.502922 0.122866
0.623484 0.509758 0.127657
0.671763 0.520806 0.136873
0.729305 0.543297 0.151919
0.771328 0.563836 0.168368
0.805539 0.583459 0.184939
0.828397 0.602777 0.201724
0.838590 0.620417 0.217472
0.845731 0.633661 0.236240
0.184543 0.505882 0.325109
0.224094 0.538445 0.261875
0.283787 0.559808 0.210056
0.365942 0.561944 0.180972
0.432776 0.557580 0.164065
0.491829 0.554040 0.153109
0.532616 0.551446 0.147799
0.575341 0.549584 0.146853
0.613489 0.548028 0.146700
0.656062 0.555474 0.155154
0.701839 0.565972 0.164126
0.741054 0.581750 0.181399
0.781888 0.603265 0.197452
0.817594 0.625818 0.215549
0.837705 0.643366 0.236423
0.848844 0.660853 0.254185
0.855039 0.673701 0.270359
0.183200 0.548852 0.365393
0.221347 0.580865 0.305577
0.285771 0.606165 0.245640
0.372168 0.608606 0.207248
0.444770 0.600732 0.183474
0.511315 0.593133 0.169314
0.554284 0.590387 0.164004
0.602045 0.586938 0.164645
0.642390 0.586816 0.167269
0.686000 0.595483 0.179843
0.727474 0.610437 0.196536
0.767452 0.627497 0.216770
0.796048 0.642847 0.240360
0.833677 0.668544 0.266331
0.852293 0.687648 0.282994
0.861662 0.703365 0.296544
0.864988 0.711849 0.311315
0.181979 0.586297 0.406958
0.221134 0.619440 0.348486
0.283970 0.647364 0.291508
0.372503 0.651057 0.237919
0.445747 0.644129 0.210513
0.517327 0.628473 0.184695
0.568658 0.623194 0.179141
0.620264 0.616632 0.178164
0.667964 0.620020 0.187167
0.712489 0.629664 0.201022
0.757534 0.651667 0.229374
0.796170 0.670771 0.251499
0.820890 0.689632 0.284489
0.843229 0.702785 0.305699
0.861448 0.721706 0.331334
0.870420 0.738552 0.350378
0.873716 0.746975 0.361975
0.183017 0.620356 0.450660
0.223209 0.656397 0.398016
0.283940 0.685298 0.338506
0.369909 0.688533 0.273228
0.446296 0.677882 0.233921
0.517449 0.661097 0.201694
0.572381 0.647822 0.189792
0.625330 0.637751 0.186496
0.678920 0.643000 0.198123
0.727230 0.654566 0.214755
0.777798 0.682399 0.252659
0.815183 0.705379 0.286229
0.842527 0.730312 0.332158
0.858732 0.743893 0.359564
0.869078 0.754910 0.385870
0.877012 0.769467 0.406653
0.878111 0.773953 0.416876
0.188266 0.651728 0.494545
0.230686 0.688594 0.445319
0.288090 0.716213 0.388647
0.372137 0.718135 0.320653
0.443549 0.707149 0.267857
0.509850 0.689723 0.224674
0.562737 0.669306 0.203342
0.614832 0.654383 0.192416
0.668544 0.650172 0.196902
0.724788 0.666865 0.219608
0.784604 0.698299 0.256809
0.825956 0.727443 0.310857
0.859342 0.755367 0.365759
0.869505 0.772641 0.411414
0.876860 0.784237 0.442267
0.880339 0.791104 0.461006
0.880980 0.795682 0.470619
0.205692 0.685389 0.534142
0.247471 0.717494 0.486915
0.304845 0.737514 0.432319
0.383429 0.738491 0.368688
0.449592 0.726772 0.308110
0.508873 0.709651 0.253025
0.553704 0.686641 0.219120
0.603479 0.668574 0.202152
0.653346 0.657740 0.198825
0.715023 0.671229 0.219791
0.776211 0.700099 0.257176
0.829801 0.737087 0.320348
0.860441 0.765560 0.385840
0.873228 0.787106 0.444404
0.879637 0.801511 0.485267
0.883330 0.809476 0.508659
0.884916 0.813291 0.515160
0.023041 0.030152 0.044434
0.039979 0.035401 0.050477
0.090517 0.048402 0.047974
0.143160 0.063050 0.054688
0.198825 0.077943 0.055940
0.249516 0.092378 0.053071
0.299474 0.102632 0.047120
0.335760 0.109224 0.048035
0.380499 0.114046 0.046357
0.413703 0.117922 0.047120
0.443702 0.120607 0.043580
0.469612 0.122438 0.041840
0.501671 0.123781 0.043397
0.533654 0.124269 0.042390
0.564446 0.128847 0.042512
0.597345 0.134737 0.040925
0.655634 0.148165 0.055909
0.028382 0.045197 0.052338
0.045228 0.051087 0.055360
0.105135 0.067292 0.049989
0.166415 0.083223 0.041230
0.223606 0.095186 0.029755
0.278386 0.104768 0.017945
0.321813 0.111543 0.012726
0.359411 0.117006 0.010834
0.380133 0.119905 0.004639
0.399237 0.124056 0.004028
0.412360 0.126009 0.003113
0.438239 0.128756 0.003326
0.455207 0.131289 0.002960
0.477913 0.135073 0.003082
0.513634 0.141878 0.004089
0.578271 0.156191 0.013855
0.665125 0.175845 0.032258
0.036255 0.080995 0.074311
0.056001 0.093996 0.080262
0.092958 0.096040 0.056855
0.155550 0.110536 0.046845
0.215854 0.120638 0.032929
0.276677 0.130587 0.020203
0.328252 0.137148 0.015137
0.378973 0.142763 0.012482
0.408087 0.148013 0.006897
0.438788 0.153017 0.005035
0.458991 0.157076 0.003906
0.485573 0.159396 0.003754
0.503075 0.162051 0.003388
0.529442 0.169009 0.003845
0.571038 0.179294 0.007202
0.636164 0.194766 0.018097
0.712856 0.215976 0.040131
0.052552 0.122011 0.104219
0.073091 0.135683 0.104738
0.105409 0.138308 0.078523
0.146151 0.141085 0.052552
0.205814 0.149294 0.037049
0.267674 0.155337 0.021790
0.333288 0.166751 0.016480
0.389868 0.175540 0.017517
0.441444 0.181125 0.010986
0.476722 0.185824 0.009003
0.511620 0.192813 0.006653
0.545983 0.199680 0.007568
0.567376 0.203800 0.005798
0.590784 0.209720 0.006165
0.629877 0.222721 0.012116
0.685450 0.244175 0.030854
0.748257 0.271458 0.058686
0.071809 0.161410 0.132662
0.097536 0.180484 0.130648
0.125093 0.186374 0.095216
0.162295 0.187961 0.064851
0.207797 0.186740 0.049928
0.271092 0.195285 0.034424
0.344518 0.203525 0.020142
0.400473 0.209018 0.020813
0.460716 0.220371 0.019593
0.522210 0.230045 0.018341
0.566522 0.238804 0.015686
0.607965 0.243717 0.014038
0.638148 0.255802 0.016602
0.669459 0.269261 0.021180
0.698116 0.285374 0.031128
0.744167 0.306249 0.050874
0.777646 0.332525 0.083497
0.094514 0.200931 0.160861
0.120668 0.226505 0.157504
0.152224 0.240513 0.114168
0.186282 0.243717 0.076722
0.236789 0.239628 0.059968
0.282918 0.237736 0.049104
0.358450 0.251652 0.036622
0.420127 0.258762 0.035157
0.486473 0.267979 0.033295
0.547112 0.276036 0.031373
0.610681 0.290318 0.031922
0.655970 0.303746 0.035523
0.696162 0.314122 0.036194
0.727871 0.326726 0.040040
0.750729 0.346380 0.054108
0.771481 0.370092 0.078096
0.796750 0.396185 0.111391
0.117464 0.244877 0.186801
0.142794 0.284062 0.186648
0.181674 0.303899 0.136568
0.226780 0.314946 0.095827
0.283421 0.314275 0.075807
0.333120 0.311192 0.064668
0.383230 0.310277 0.058686
0.444053 0.315038 0.055146
0.513130 0.326085 0.054353
0.578698 0.340642 0.057252
0.645075 0.354223 0.058106
0.698238 0.364233 0.058778
0.734218 0.381781 0.066163
0.758572 0.396185 0.073671
0.778805 0.413672 0.087098
0.795529 0.433387 0.107546
0.812192 0.454505 0.136324
0.137850 0.297704 0.215457
0.161105 0.341192 0.215244
0.204410 0.366033 0.162112
0.261204 0.381094 0.120516
0.320241 0.381842 0.098146
0.376242 0.377783 0.086732
0.426108 0.375387 0.080171
0.473533 0.378683 0.079042
0.541176 0.386801 0.077760
0.601984 0.395056 0.080751
0.671046 0.413245 0.086610
0.726741 0.428840 0.091127
0.762112 0.445045 0.097902
0.785916 0.458991 0.105623
0.801266 0.474739 0.119814
0.812741 0.491646 0.138552
0.825742 0.509392 0.163790
0.154665 0.351324 0.250095
0.174350 0.398444 0.248081
0.217105 0.424613 0.193057
0.288945 0.444114 0.145022
0.355489 0.446052 0.122805
0.415274 0.443915 0.110262
0.468223 0.441260 0.103487
0.514900 0.443626 0.101808
0.569284 0.450278 0.105531
0.631495 0.460304 0.111238
0.699519 0.476753 0.118624
0.751705 0.490303 0.123598
0.783536 0.506035 0.134005
0.805051 0.520836 0.143526
0.820645 0.535851 0.156649
0.831357 0.549676 0.172366
0.838010 0.562188 0.194034
0.168917 0.402991 0.287510
0.181186 0.453529 0.287083
0.230442 0.482277 0.225834
0.302312 0.504753 0.169863
0.385046 0.502312 0.145785
0.446967 0.500542 0.132967
0.506371 0.498238 0.127413
0.549493 0.496559 0.124544
0.605158 0.502983 0.129274
0.654490 0.513176 0.138064
0.720455 0.529442 0.149355
0.769131 0.546044 0.158236
0.799161 0.557733 0.166384
0.820310 0.572351 0.177707
0.834134 0.586389 0.191867
0.842100 0.598291 0.207950
0.847807 0.607324 0.225467
0.177859 0.453101 0.326513
0.184909 0.503502 0.324041
0.237217 0.537560 0.253880
0.312322 0.559503 0.197299
0.407965 0.555352 0.168399
0.477546 0.552209 0.154665
0.540093 0.549859 0.149203
0.587457 0.549767 0.149508
0.637873 0.552209 0.152956
0.687785 0.563897 0.164828
0.738613 0.577783 0.178408
0.787167 0.597589 0.194339
0.814237 0.612085 0.206760
0.831449 0.621363 0.215702
0.845182 0.635462 0.230350
0.851225 0.644282 0.243900
0.856138 0.652949 0.262058
0.180026 0.499092 0.365942
0.184207 0.548852 0.364019
0.241886 0.585870 0.288823
0.315801 0.608240 0.225834
0.417914 0.602655 0.191470
0.496010 0.597528 0.175265
0.565209 0.592859 0.166751
0.615076 0.592187 0.169802
0.664485 0.593927 0.175204
0.713252 0.605066 0.191836
0.761135 0.622003 0.210727
0.803800 0.644373 0.234104
0.829618 0.659815 0.246647
0.843137 0.671321 0.261936
0.854398 0.681880 0.279210
0.859800 0.690394 0.290715
0.863767 0.697322 0.300694
0.178408 0.540551 0.403571
0.181949 0.589258 0.405463
0.238621 0.628138 0.332219
0.316320 0.650111 0.265599
0.414343 0.645136 0.216648
0.498329 0.633326 0.192203
0.573083 0.624475 0.179934
0.628290 0.621271 0.181491
0.683558 0.627863 0.194491
0.732021 0.638239 0.211673
0.781369 0.663233 0.248203
0.824277 0.686793 0.274723
0.844968 0.704158 0.306340
0.858091 0.716335 0.318120
0.867765 0.728176 0.330419
0.868925 0.730617 0.339818
0.871550 0.735012 0.348669
0.176913 0.577234 0.444221
0.182864 0.622400 0.448737
0.235203 0.662593 0.382940
0.312596 0.687861 0.312810
0.409766 0.684047 0.253330
0.490822 0.667720 0.214572
0.564416 0.649226 0.190860
0.620478 0.642390 0.189456
0.681819 0.642176 0.197940
0.734981 0.656825 0.221622
0.793210 0.688289 0.266819
0.832090 0.718074 0.314946
0.856657 0.740169 0.356909
0.867826 0.751400 0.385290
0.873930 0.760525 0.402014
0.875608 0.766110 0.403601
0.878843 0.770809 0.404578
0.179141 0.612818 0.486183
0.192599 0.652186 0.489754
0.244541 0.692103 0.427588
0.318517 0.714076 0.362371
0.409949 0.711147 0.292149
0.488136 0.695460 0.250126
0.552544 0.671687 0.206760
0.610742 0.657191 0.198306
0.671656 0.653101 0.201389
0.736812 0.671717 0.228428
0.799435 0.705959 0.277836
0.840757 0.741390 0.345434
0.868284 0.769528 0.400153
0.874022 0.781308 0.437201
0.880156 0.790372 0.461158
0.881254 0.792355 0.460609
0.880156 0.791897 0.462135
0.186923 0.646448 0.531029
0.207736 0.682704 0.528313
0.261143 0.716030 0.471717
0.332616 0.736965 0.405646
0.416205 0.731197 0.335027
0.485847 0.715999 0.277806
0.545342 0.692164 0.228031
0.598688 0.672908 0.208621
0.655467 0.659846 0.202548
0.725536 0.679500 0.231601
0.790372 0.709285 0.272892
0.839048 0.748837 0.354070
0.869566 0.778317 0.419409
0.878080 0.799283 0.480018
0.882750 0.808255 0.503746
0.885222 0.813596 0.517449
0.883452 0.812009 0.515831
0.206882 0.682002 0.572137
0.232029 0.714748 0.558495
0.288884 0.738643 0.502892
0.356329 0.753201 0.441810
0.435096 0.745724 0.375158
0.495583 0.731258 0.313176
0.547997 0.710842 0.255741
0.597223 0.692164 0.230350
0.651591 0.681331 0.220188
0.719753 0.692195 0.239597
0.783108 0.718288 0.284581
0.841703 0.753109 0.350072
0.866850 0.782956 0.428229
0.879850 0.807065 0.498695
0.884550 0.821256 0.537835
0.887022 0.828000 0.555108
0.887694 0.829770 0.557244
0.019440 0.036530 0.073243
0.034882 0.041657 0.080446
0.077424 0.051362 0.096925
0.133303 0.065675 0.099763
0.192416 0.080812 0.101198
0.247929 0.094240 0.102846
0.306554 0.105470 0.103090
0.364660 0.113191 0.098940
0.411536 0.118105 0.096834
0.452430 0.120516 0.096254
0.489174 0.120912 0.095064
0.524773 0.120577 0.092378
0.560327 0.120699 0.091035
0.594202 0.119966 0.090242
0.626245 0.122225 0.091402
0.656764 0.127382 0.095796
0.697963 0.140993 0.111482
0.023804 0.051270 0.081147
0.039826 0.057496 0.088655
0.092042 0.069673 0.109377
0.155673 0.085786 0.097475
0.217594 0.098390 0.089326
0.281193 0.108339 0.082124
0.338903 0.116426 0.076783
0.397559 0.122560 0.066835
0.422583 0.124361 0.062776
0.458351 0.123842 0.057923
0.478584 0.124025 0.058045
0.511925 0.125734 0.053223
0.533532 0.126467 0.051331
0.562371 0.128145 0.053620
0.594293 0.133272 0.057465
0.654292 0.147463 0.068482
0.717494 0.167666 0.087922
0.037903 0.088441 0.104036
0.056703 0.101717 0.115450
0.087373 0.093477 0.094545
0.155795 0.110018 0.084657
0.228061 0.122286 0.073426
0.297581 0.130251 0.059815
0.360784 0.135470 0.047547
0.419379 0.136446 0.033570
0.444038 0.138613 0.027466
0.473121 0.137575 0.013977
0.483162 0.138399 0.010742
0.489693 0.138094 0.005798
0.509789 0.140871 0.007263
0.532189 0.145480 0.005890
0.584833 0.155306 0.011475
0.658930 0.174044 0.029908
0.738186 0.206485 0.074250
0.052735 0.129335 0.132052
0.072328 0.143282 0.138003
0.101503 0.138125 0.119570
0.145937 0.141970 0.087709
0.219455 0.153048 0.074495
0.293034 0.161105 0.061677
0.366613 0.169802 0.052949
0.433173 0.172641 0.041199
0.478523 0.173404 0.032471
0.514702 0.175814 0.019928
0.543023 0.178286 0.014069
0.554711 0.180850 0.009216
0.572656 0.181399 0.008576
0.593683 0.186923 0.008576
0.643030 0.202914 0.019379
0.701289 0.227939 0.045624
0.773831 0.261326 0.091157
0.070314 0.169070 0.158724
0.092714 0.188266 0.164492
0.118807 0.184085 0.143343
0.160952 0.189487 0.106203
0.215854 0.194278 0.080659
0.290166 0.200046 0.065461
0.367147 0.204593 0.054658
0.445182 0.215946 0.047608
0.501747 0.221653 0.044129
0.556695 0.224338 0.030945
0.592584 0.226230 0.024170
0.624353 0.231785 0.018524
0.640436 0.238529 0.021698
0.671870 0.245518 0.022553
0.710750 0.261051 0.034180
0.752987 0.286656 0.062837
0.797574 0.321294 0.108400
0.091127 0.208438 0.186191
0.114168 0.233494 0.191501
0.140597 0.240848 0.169345
0.185855 0.252354 0.123568
0.240787 0.254704 0.093996
0.300755 0.253208 0.080201
0.375845 0.260319 0.068910
0.458366 0.270359 0.059815
0.525460 0.274296 0.056123
0.589014 0.283207 0.049836
0.641871 0.290257 0.045747
0.679286 0.297887 0.041382
0.717372 0.302770 0.039826
0.737789 0.316686 0.047578
0.757015 0.335485 0.064973
0.779568 0.359289 0.094240
0.816922 0.390600 0.137667
0.112642 0.252079 0.216617
0.135164 0.290166 0.226352
0.160555 0.302647 0.197421
0.219516 0.324193 0.146395
0.276936 0.328008 0.110994
0.339406 0.322454 0.097047
0.398093 0.322499 0.088228
0.476493 0.332616 0.080323
0.550057 0.342535 0.079011
0.623468 0.351202 0.074891
0.678126 0.356939 0.070985
0.721981 0.368597 0.071107
0.754086 0.380987 0.073793
0.772702 0.391577 0.081270
0.789456 0.407721 0.097261
0.804776 0.427375 0.124025
0.826688 0.453376 0.162417
0.131289 0.301854 0.251957
0.153140 0.343633 0.257084
0.178195 0.371923 0.228244
0.250736 0.398611 0.173617
0.323125 0.411994 0.133577
0.392691 0.406958 0.117983
0.450797 0.403159 0.109316
0.507820 0.404288 0.104799
0.577768 0.411154 0.103456
0.649775 0.421820 0.104036
0.709743 0.434363 0.105959
0.757748 0.448615 0.108095
0.786892 0.459541 0.110658
0.799619 0.469001 0.119875
0.810483 0.478584 0.132967
0.822538 0.494240 0.156069
0.839261 0.514000 0.187472
0.148135 0.352789 0.287358
0.166781 0.398444 0.289128
0.188266 0.434379 0.265751
0.268772 0.465934 0.200412
0.352850 0.480522 0.158755
0.427420 0.475700 0.140902
0.490471 0.472038 0.133242
0.546944 0.471214 0.128878
0.606180 0.478050 0.132631
0.677089 0.488258 0.134463
0.734981 0.499123 0.140322
0.780606 0.512688 0.146517
0.806668 0.526268 0.152529
0.820096 0.535988 0.159640
0.830320 0.544213 0.171664
0.838193 0.553674 0.190158
0.847623 0.567468 0.217502
0.161715 0.403601 0.324376
0.173709 0.450294 0.329503
0.191623 0.491157 0.306249
0.268345 0.524193 0.233890
0.371740 0.540246 0.180484
0.454780 0.537285 0.162478
0.523400 0.534173 0.154665
0.583642 0.533104 0.153475
0.642267 0.538994 0.157717
0.699351 0.551720 0.170809
0.756008 0.562799 0.179690
0.799558 0.574029 0.186648
0.824613 0.588708 0.194858
0.836759 0.598535 0.204044
0.843381 0.604456 0.212436
0.850706 0.612329 0.228855
0.858152 0.620935 0.250492
0.170596 0.451179 0.364599
0.177829 0.495705 0.368872
0.188327 0.541527 0.352483
0.268254 0.576104 0.271336
0.367895 0.596918 0.206516
0.471992 0.587366 0.179995
0.544274 0.583185 0.171878
0.614557 0.582452 0.174258
0.667994 0.585748 0.181338
0.727001 0.601312 0.199008
0.774472 0.618402 0.220859
0.819486 0.634119 0.235599
0.840360 0.647303 0.242466
0.850736 0.653468 0.247745
0.856046 0.658686 0.257267
0.858701 0.662196 0.270146
0.863584 0.669367 0.291447
0.173159 0.495094 0.405554
0.177035 0.538628 0.409979
0.185702 0.583978 0.394324
0.261234 0.622492 0.311192
0.363256 0.642512 0.241367
0.473243 0.631098 0.200381
0.558679 0.622644 0.186160
0.634638 0.622461 0.189609
0.694148 0.631983 0.205051
0.755245 0.649409 0.227756
0.798215 0.668330 0.256565
0.837827 0.689143 0.284916
0.856504 0.703273 0.302800
0.862913 0.708309 0.308537
0.865446 0.708431 0.311894
0.867674 0.711818 0.320714
0.869841 0.713924 0.332280
0.171633 0.533532 0.443244
0.174777 0.577356 0.449958
0.182040 0.622736 0.441108
0.260502 0.662684 0.358679
0.352300 0.683864 0.282231
0.463111 0.670375 0.227268
0.551598 0.657679 0.202884
0.632166 0.646662 0.192905
0.700298 0.659449 0.215152
0.764584 0.676753 0.243046
0.819852 0.709987 0.298558
0.854307 0.733516 0.339361
0.868742 0.752285 0.377691
0.874571 0.757626 0.379889
0.874113 0.754269 0.376806
0.873533 0.750149 0.378210
0.874968 0.749752 0.382910
0.171206 0.570764 0.482216
0.177157 0.612329 0.490822
0.188296 0.654536 0.487922
0.259586 0.695918 0.413031
0.349401 0.715724 0.334783
0.451698 0.705501 0.261509
0.533837 0.681575 0.220249
0.612924 0.663874 0.200809
0.681315 0.660090 0.207706
0.756344 0.685939 0.249577
0.821103 0.721584 0.305516
0.857877 0.757290 0.379431
0.876005 0.780606 0.427924
0.879820 0.789059 0.457038
0.879698 0.787167 0.451240
0.879728 0.786160 0.444251
0.880034 0.781430 0.436927
0.174472 0.606561 0.523217
0.188846 0.644343 0.531823
0.207034 0.683223 0.526177
0.272648 0.720027 0.458167
0.358801 0.736019 0.381170
0.453101 0.725795 0.303197
0.522881 0.701900 0.246006
0.592218 0.677211 0.212070
0.657511 0.668971 0.212497
0.736248 0.683009 0.240391
0.807492 0.722255 0.303044
0.854490 0.762509 0.385565
0.876219 0.794491 0.459113
0.882170 0.807736 0.499886
0.884611 0.812772 0.516381
0.883665 0.809415 0.503746
0.882383 0.805661 0.496223
0.186313 0.643580 0.567712
0.207431 0.678431 0.569635
0.234134 0.711849 0.553429
0.300023 0.743282 0.488075
0.384039 0.750942 0.417792
0.466041 0.741207 0.342535
0.531365 0.718685 0.286137
0.589929 0.699763 0.241550
0.650767 0.685695 0.232517
0.725902 0.697047 0.253544
0.795956 0.724025 0.303075
0.851164 0.766720 0.389960
0.874479 0.796475 0.466102
0.883574 0.818998 0.530175
0.885985 0.826078 0.548943
0.887541 0.829679 0.557702
0.885039 0.824674 0.545220
0.209415 0.680476 0.610071
0.231968 0.710384 0.600855
0.266575 0.739254 0.577417
0.334325 0.758206 0.519158
0.414527 0.764858 0.452949
0.486580 0.756161 0.389807
0.545159 0.740414 0.328771
0.601038 0.724330 0.282750
0.658457 0.716060 0.271214
0.726680 0.719173 0.279454
0.792203 0.741756 0.329656
0.849973 0.771267 0.391760
0.869322 0.798062 0.471534
0.881895 0.820584 0.535363
0.886503 0.837003 0.575616
0.888121 0.841794 0.587793
0.888426 0.842557 0.588342
0.017578 0.044648 0.104128
0.034424 0.050599 0.116670
0.066499 0.058717 0.133089
0.117922 0.069093 0.144839
0.174197 0.082704 0.150515
0.233066 0.094423 0.149844
0.291325 0.104555 0.148928
0.349981 0.112734 0.148745
0.404242 0.120394 0.150057
0.448371 0.124056 0.150668
0.488563 0.124910 0.148806
0.524285 0.122957 0.148135
0.561761 0.120638 0.147311
0.598688 0.118257 0.148226
