assets/luts/m31-rec-709-b1f2dc7d.cube
TITLE "VisionColor: M31 - Rec.709"
LUT_3D_SIZE 4
0.0432 0.0581 0.0668
0.2390 0.1124 0.0723
0.5567 0.1689 0.1288
0.8601 0.2408 0.1820
0.0432 0.2265 0.0624
0.3044 0.2238 0.0702
0.6864 0.2775 0.0924
0.9272 0.3968 0.0863
0.0432 0.4145 0.0555
0.3863 0.4663 0.0695
0.7632 0.5607 0.0474
0.9529 0.5402 0.0432
0.0434 0.7641 0.0432
0.4101 0.8250 0.0432
0.7539 0.8588 0.0447
0.9512 0.8779 0.0449
0.0434 0.1501 0.1845
0.3299 0.1688 0.1952
0.6651 0.2008 0.1839
0.8796 0.2550 0.1753
0.0435 0.2458 0.2459
0.2422 0.2981 0.3077
0.6553 0.2961 0.2473
0.9303 0.3572 0.2154
0.0432 0.4565 0.2990
0.2879 0.5105 0.1907
0.7526 0.5975 0.1312
0.9529 0.5926 0.0767
0.0432 0.7895 0.2165
0.3026 0.8472 0.0432
0.7286 0.8890 0.1686
0.9512 0.8974 0.2069
0.0437 0.2710 0.3339
0.2282 0.2706 0.3432
0.7419 0.2966 0.2296
0.8930 0.3661 0.3532
0.0438 0.3101 0.3695
0.1338 0.3621 0.4541
0.7090 0.3781 0.4039
0.8867 0.4583 0.4936
0.0441 0.5069 0.5371
0.0443 0.5825 0.6073
0.6793 0.6580 0.6522
0.9285 0.6766 0.6371
0.0447 0.8681 0.7690
0.0432 0.8916 0.6096
0.6326 0.9529 0.4832
0.9521 0.9218 0.5478
0.0441 0.4059 0.5078
0.1660 0.3974 0.4616
0.6606 0.4421 0.5376
0.9263 0.5043 0.7042
0.0441 0.4227 0.5424
0.0432 0.4623 0.6264
0.5900 0.4376 0.6944
0.9436 0.5300 0.7886
0.0444 0.5593 0.6997
0.0445 0.6096 0.7584
0.5367 0.6500 0.8365
0.9507 0.6726 0.8694
0.0447 0.7433 0.8521
0.0447 0.7970 0.8805
0.4267 0.8552 0.9059
0.9489 0.9481 0.9081
