assets/luts/m31-log-cd3224a4.cube
TITLE "VisionColor: M31 - LOG"
LUT_3D_SIZE 8
0.0335 0.0342 0.0342
0.0955 0.0590 0.0452
0.2163 0.0920 0.0391
0.4216 0.1154 0.0599
0.6662 0.1548 0.1011
0.8107 0.2571 0.1335
0.9107 0.3586 0.1600
0.9118 0.4348 0.1692
0.0485 0.0834 0.0545
0.0883 0.0867 0.0557
0.2164 0.1144 0.0453
0.4319 0.1455 0.0638
0.6831 0.1754 0.1053
0.8259 0.2375 0.1345
0.9106 0.3527 0.1594
0.9117 0.4288 0.1684
0.0633 0.1626 0.0902
0.0887 0.1689 0.0950
0.2215 0.1667 0.0841
0.4913 0.2172 0.0795
0.7333 0.2923 0.1240
0.8570 0.3654 0.1521
0.9122 0.4560 0.1720
0.9126 0.4754 0.1747
0.0650 0.2728 0.1321
0.0844 0.2784 0.1281
0.2164 0.3554 0.1425
0.5307 0.3233 0.0989
0.7800 0.3927 0.1433
0.8933 0.4835 0.1729
0.9147 0.5746 0.1897
0.9150 0.5877 0.1919
0.0958 0.4378 0.1849
0.1156 0.4487 0.1810
0.2351 0.5323 0.1819
0.5819 0.6352 0.2282
0.7989 0.5298 0.1666
0.9148 0.5801 0.1906
0.9165 0.6462 0.2019
0.9166 0.6508 0.2028
0.1362 0.6121 0.2266
0.1532 0.6274 0.2250
0.2774 0.6950 0.2178
0.5829 0.7770 0.2623
0.8075 0.8078 0.2976
0.9182 0.7048 0.2126
0.9184 0.7121 0.2139
0.9186 0.7171 0.2149
0.1790 0.7722 0.2624
0.1991 0.7908 0.2614
0.3302 0.8274 0.2559
0.5892 0.8824 0.3050
0.7953 0.9276 0.3584
0.9265 0.9421 0.3957
0.9224 0.8263 0.2362
0.9214 0.7996 0.2308
0.2417 0.9066 0.3124
0.2743 0.9330 0.3138
0.3927 0.9389 0.3154
0.5834 0.9422 0.3362
0.7584 0.9463 0.3627
0.9005 0.9508 0.3952
0.9524 0.9524 0.4048
0.9524 0.9524 0.4047
0.0348 0.0796 0.0945
0.0659 0.0744 0.0806
0.1755 0.1184 0.1036
0.4013 0.1363 0.0587
0.6580 0.1821 0.1016
0.8140 0.2571 0.1340
0.9107 0.3592 0.1601
0.9118 0.4348 0.1692
0.0361 0.0810 0.0863
0.0701 0.0833 0.0842
0.2010 0.1182 0.0732
0.4127 0.1533 0.0619
0.6655 0.1823 0.1029
0.8177 0.2348 0.1328
0.9106 0.3507 0.1592
0.9118 0.4323 0.1688
0.0401 0.1775 0.1290
0.0796 0.1649 0.1092
0.2046 0.1654 0.0984
0.4599 0.2142 0.0748
0.7073 0.2903 0.1196
0.8342 0.3476 0.1464
0.9114 0.4077 0.1657
0.9120 0.4474 0.1708
0.0533 0.2840 0.1630
0.0765 0.2772 0.1407
0.1845 0.3291 0.1376
0.4964 0.3150 0.0934
0.7593 0.3891 0.1398
0.8778 0.4771 0.1698
0.9144 0.5631 0.1879
0.9150 0.5891 0.1921
0.0945 0.4513 0.2097
0.1099 0.4490 0.1907
0.2021 0.4992 0.1763
0.5319 0.6135 0.2203
0.7824 0.5285 0.1642
0.9047 0.5801 0.1893
0.9166 0.6500 0.2026
0.9168 0.6565 0.2038
0.1401 0.6269 0.2487
0.1472 0.6264 0.2344
0.2384 0.6616 0.2124
0.5276 0.7519 0.2518
0.7847 0.7989 0.2903
0.9132 0.7088 0.2127
0.9186 0.7178 0.2150
0.9187 0.7219 0.2158
0.1820 0.7834 0.2870
0.1904 0.7860 0.2720
0.2870 0.8054 0.2509
0.5391 0.8598 0.2922
0.7626 0.9057 0.3430
0.9000 0.9256 0.3827
0.9223 0.8246 0.2358
0.9213 0.7987 0.2306
0.2333 0.9142 0.3478
0.2627 0.9244 0.3220
0.3624 0.9386 0.3131
0.5528 0.9425 0.3406
0.7276 0.9459 0.3625
0.8690 0.9499 0.3885
0.9524 0.9524 0.4048
0.9524 0.9524 0.4048
0.0341 0.1595 0.2070
0.0383 0.1517 0.1818
0.1096 0.1484 0.1534
0.2715 0.1989 0.1693
0.5843 0.2599 0.1639
0.7947 0.3167 0.1365
0.9109 0.3771 0.1621
0.9118 0.4348 0.1692
0.0354 0.1580 0.1936
0.0358 0.1555 0.1925
0.1219 0.1527 0.1598
0.2996 0.2102 0.1790
0.6254 0.2605 0.1488
0.8110 0.3084 0.1384
0.9109 0.3725 0.1616
0.9118 0.4348 0.1692
0.0378 0.1601 0.1761
0.0389 0.1663 0.1722
0.1435 0.1856 0.1894
0.4257 0.2097 0.1318
0.6931 0.2441 0.1127
0.8264 0.2835 0.1385
0.9106 0.3527 0.1594
0.9116 0.4205 0.1673
0.0716 0.3601 0.3022
0.0663 0.3383 0.2449
0.1274 0.3159 0.1930
0.4451 0.3274 0.1494
0.7168 0.3982 0.1349
0.8520 0.4824 0.1667
0.9141 0.5501 0.1858
0.9148 0.5791 0.1905
0.1157 0.5336 0.3602
0.1069 0.4999 0.2872
0.1645 0.4910 0.2255
0.4251 0.5766 0.2323
0.7393 0.5402 0.1607
0.8770 0.5877 0.1868
0.9167 0.6544 0.2034
0.9171 0.6660 0.2055
0.1547 0.6820 0.4009
0.1490 0.6602 0.3255
0.2103 0.6645 0.2578
0.4456 0.7216 0.2646
0.7424 0.7900 0.3031
0.8812 0.7180 0.2105
0.9189 0.7266 0.2166
0.9190 0.7295 0.2172
0.1891 0.8094 0.4406
0.1866 0.8003 0.3648
0.2583 0.8118 0.2912
0.4743 0.8371 0.3019
0.7129 0.8860 0.3496
0.8725 0.9144 0.3902
0.9223 0.8246 0.2358
0.9212 0.7950 0.2299
0.2191 0.9193 0.4958
0.2191 0.9193 0.4305
0.3259 0.9399 0.3463
0.5074 0.9444 0.3618
0.6864 0.9481 0.3891
0.8310 0.9510 0.4051
0.9536 0.9536 0.4170
0.9532 0.9532 0.4143
0.0515 0.2678 0.3627
0.0489 0.2588 0.3260
0.0471 0.2549 0.2792
0.1378 0.2643 0.2292
0.4490 0.2966 0.2108
0.7116 0.4072 0.2665
0.8835 0.4703 0.2790
0.9320 0.5265 0.3047
0.0509 0.2663 0.3483
0.0506 0.2641 0.3554
0.0485 0.2596 0.2982
0.1505 0.2715 0.2420
0.4735 0.3101 0.2257
0.7286 0.4172 0.2745
0.8927 0.4737 0.2792
0.9308 0.5223 0.2921
0.0502 0.2640 0.3360
0.0527 0.2760 0.3391
0.0565 0.2901 0.3774
0.2008 0.2961 0.2888
0.5437 0.3519 0.2864
0.7796 0.4202 0.2928
0.9193 0.4750 0.2834
0.9261 0.4999 0.2488
0.0526 0.2772 0.3214
0.0565 0.2955 0.3240
0.0638 0.3267 0.3478
0.2846 0.3848 0.3922
0.6735 0.4101 0.3446
0.8367 0.4479 0.3026
0.9277 0.4925 0.2635
0.9234 0.5323 0.2278
0.1122 0.5203 0.5130
0.1277 0.5799 0.5160
0.1258 0.5724 0.4564
0.2895 0.5698 0.3750
0.6914 0.5842 0.3135
0.8540 0.6223 0.3103
0.9289 0.6779 0.2592
0.9175 0.6820 0.2084
0.1696 0.7375 0.6483
0.1654 0.7220 0.5659
0.1613 0.7068 0.4830
0.3536 0.7190 0.3685
0.6538 0.7708 0.3913
0.8567 0.7354 0.2577
0.9196 0.7395 0.2198
0.9195 0.7465 0.2204
0.1964 0.8363 0.6772
0.1944 0.8289 0.5986
0.1925 0.8219 0.5117
0.4072 0.8397 0.3904
0.6396 0.8665 0.4199
0.8338 0.9017 0.4486
0.9224 0.8282 0.2366
0.9216 0.8049 0.2319
0.2191 0.9193 0.6999
0.2191 0.9193 0.6331
0.2191 0.9193 0.5508
0.4587 0.9505 0.4389
0.6409 0.9535 0.4623
0.7960 0.9556 0.4697
0.9571 0.9571 0.4603
0.9564 0.9530 0.4541
0.0889 0.4200 0.5538
0.0865 0.4128 0.5151
0.0836 0.4060 0.4445
0.0804 0.3955 0.3643
0.3041 0.4095 0.2374
0.6600 0.4044 0.1987
0.8421 0.5230 0.3892
0.9552 0.6399 0.6267
0.0883 0.4183 0.5459
0.0884 0.4179 0.5571
0.0842 0.4062 0.4725
0.0804 0.3958 0.3793
0.3251 0.4129 0.2489
0.6689 0.4093 0.2161
0.8512 0.5315 0.4136
0.9553 0.6405 0.6278
0.0873 0.4146 0.5354
0.0897 0.4246 0.5432
0.0908 0.4267 0.5747
0.0850 0.4109 0.4544
0.4117 0.4270 0.2910
0.6960 0.4432 0.3029
0.8705 0.5585 0.4924
0.9526 0.6251 0.5892
0.0869 0.4136 0.5266
0.0903 0.4277 0.5325
0.0976 0.4570 0.5583
0.1319 0.4879 0.6077
0.5161 0.4974 0.4910
0.7654 0.5502 0.5294
0.9157 0.6059 0.5740
0.9474 0.6029 0.5095
0.0917 0.4347 0.5227
0.0976 0.4594 0.5257
0.1069 0.4969 0.5458
0.1227 0.5440 0.5789
0.5937 0.6290 0.6367
0.8263 0.6587 0.6230
0.9507 0.6777 0.5892
0.9494 0.6727 0.5160
0.1487 0.6569 0.7020
0.1585 0.6959 0.7032
0.1718 0.7459 0.7164
0.1714 0.7444 0.6672
0.5874 0.7663 0.5901
0.8405 0.7646 0.5044
0.9519 0.7755 0.5126
0.9478 0.7766 0.4410
0.1980 0.8421 0.8343
0.2010 0.8532 0.8012
0.1998 0.8487 0.7435
0.1974 0.8397 0.6687
0.5974 0.8636 0.5624
0.7879 0.8879 0.5686
0.9459 0.8423 0.3698
0.9422 0.8267 0.3383
0.2191 0.9193 0.8541
0.2191 0.9193 0.8037
0.2191 0.9193 0.7482
0.2643 0.9312 0.6769
0.6201 0.9602 0.5662
0.7621 0.9627 0.5849
0.9244 0.9627 0.5505
0.9622 0.9582 0.5348
0.1285 0.5741 0.7137
0.1275 0.5721 0.6898
0.1233 0.5595 0.6232
0.1188 0.5451 0.5583
0.2055 0.5417 0.5036
0.5937 0.5207 0.4025
0.8188 0.5602 0.4592
0.9578 0.6596 0.6747
0.1281 0.5723 0.7141
0.1285 0.5735 0.7222
0.1230 0.5565 0.6518
0.1184 0.5420 0.5773
0.2208 0.5433 0.5213
0.6028 0.5249 0.4337
0.8240 0.5610 0.4699
0.9582 0.6637 0.6868
0.1262 0.5651 0.7075
0.1260 0.5641 0.7114
0.1248 0.5580 0.7267
0.1204 0.5454 0.6562
0.2640 0.5460 0.5872
0.6219 0.5471 0.5207
0.8372 0.5690 0.5198
0.9590 0.6711 0.7133
0.1245 0.5590 0.7012
0.1259 0.5641 0.7054
0.1301 0.5801 0.7194
0.1327 0.5883 0.7483
0.3532 0.5810 0.7097
0.6936 0.5795 0.6309
0.8690 0.6322 0.6669
0.9614 0.6958 0.7581
0.1241 0.5572 0.6972
0.1271 0.5693 0.7012
0.1332 0.5931 0.7143
0.1437 0.6340 0.7429
0.4411 0.6708 0.7939
0.7602 0.6749 0.7403
0.9069 0.7302 0.7775
0.9652 0.7362 0.7632
0.1305 0.5832 0.7004
0.1367 0.6086 0.7041
0.1444 0.6389 0.7140
0.1541 0.6760 0.7383
0.4414 0.7356 0.7834
0.7977 0.7895 0.7862
0.9383 0.8016 0.7804
0.9676 0.7936 0.7493
0.1774 0.7613 0.8347
0.1839 0.7870 0.8366
0.1915 0.8166 0.8410
0.2015 0.8548 0.8445
0.3272 0.8729 0.8110
0.7709 0.8805 0.7415
0.9491 0.8611 0.6555
0.9637 0.8578 0.6487
0.2141 0.8999 0.9185
0.2191 0.9193 0.9193
0.2191 0.9193 0.8977
0.2191 0.9193 0.8448
0.4334 0.9499 0.7801
0.7552 0.9703 0.7085
0.8820 0.9709 0.6923
0.9703 0.9684 0.6634
0.1655 0.7149 0.8212
0.1656 0.7161 0.8141
0.1635 0.7093 0.7910
0.1600 0.6974 0.7707
0.1548 0.6780 0.7489
0.4831 0.6748 0.7588
0.7989 0.6608 0.7335
0.9614 0.6959 0.7578
0.1645 0.7106 0.8243
0.1655 0.7142 0.8294
0.1628 0.7055 0.8065
0.1586 0.6910 0.7797
0.1545 0.6763 0.7566
0.5025 0.6721 0.7671
0.8040 0.6587 0.7388
0.9612 0.6932 0.7573
0.1618 0.6997 0.8242
0.1607 0.6951 0.8291
0.1594 0.6890 0.8359
0.1562 0.6782 0.8130
0.1530 0.6683 0.7818
0.5366 0.6652 0.7905
0.8154 0.6533 0.7578
0.9611 0.6908 0.7681
0.1597 0.6917 0.8224
0.1593 0.6894 0.8277
0.1600 0.6919 0.8333
0.1590 0.6866 0.8436
0.1887 0.6853 0.8329
0.5973 0.6766 0.8299
0.8348 0.6650 0.7946
0.9626 0.7063 0.7988
0.1578 0.6841 0.8204
0.1589 0.6880 0.8253
0.1620 0.6998 0.8318
0.1675 0.7207 0.8450
0.2362 0.7328 0.8688
0.6614 0.7308 0.8719
0.8642 0.7228 0.8383
0.9676 0.7547 0.8425
0.1579 0.6842 0.8213
0.1608 0.6955 0.8258
0.1647 0.7108 0.8311
0.1709 0.7346 0.8434
0.2415 0.7693 0.8663
0.7070 0.7977 0.8909
0.8918 0.8002 0.8657
0.9746 0.8168 0.8766
0.1644 0.7100 0.8289
0.1694 0.7295 0.8324
0.1746 0.7500 0.8375
0.1803 0.7718 0.8469
0.2507 0.8018 0.8627
0.6991 0.8443 0.8802
0.8956 0.8844 0.8722
0.9818 0.8897 0.8728
0.1964 0.8307 0.9157
0.2011 0.8489 0.9164
0.2076 0.8744 0.9174
0.2157 0.9062 0.9188
0.2191 0.9193 0.9144
0.6217 0.9635 0.8927
0.8733 0.9819 0.8395
0.9812 0.9803 0.8124
0.1950 0.8261 0.8973
0.1953 0.8277 0.8960
0.1948 0.8256 0.8918
0.1925 0.8167 0.8932
0.1899 0.8058 0.8985
0.3891 0.7971 0.9207
0.7824 0.7863 0.9289
0.9665 0.7590 0.9159
0.1935 0.8199 0.9026
0.1947 0.8245 0.9076
0.1938 0.8210 0.9029
0.1910 0.8104 0.8974
0.1884 0.7999 0.8987
0.4039 0.7933 0.9239
0.7859 0.7838 0.9304
0.9675 0.7572 0.9164
0.1906 0.8079 0.9094
0.1891 0.8017 0.9146
0.1881 0.7976 0.9145
0.1867 0.7922 0.9143
0.1848 0.7850 0.9082
0.4344 0.7806 0.9340
0.7901 0.7744 0.9362
0.9697 0.7508 0.9206
0.1882 0.7980 0.9123
0.1863 0.7904 0.9142
0.1849 0.7848 0.9140
0.1832 0.7783 0.9138
0.1817 0.7722 0.9136
0.4549 0.7693 0.9459
0.8003 0.7674 0.9458
0.9683 0.7509 0.9306
0.1863 0.7906 0.9132
0.1850 0.7854 0.9141
0.1850 0.7854 0.9141
0.1860 0.7892 0.9142
0.1850 0.7854 0.9141
0.4902 0.7812 0.9487
0.8217 0.7832 0.9604
0.9705 0.7709 0.9464
0.1847 0.7841 0.9135
0.1845 0.7834 0.9140
0.1854 0.7870 0.9141
0.1881 0.7976 0.9145
0.1914 0.8108 0.9150
0.5983 0.8121 0.9567
0.8589 0.8188 0.9627
0.9749 0.8114 0.9539
0.1843 0.7827 0.9139
0.1856 0.7875 0.9141
0.1874 0.7949 0.9144
0.1902 0.8062 0.9148
0.1941 0.8212 0.9153
0.6074 0.8481 0.9584
0.8754 0.8882 0.9619
0.9832 0.8844 0.9584
0.1881 0.7976 0.9167
0.1910 0.8093 0.9157
0.1941 0.8215 0.9154
0.1978 0.8361 0.9159
0.2014 0.8500 0.9165
0.6072 0.8874 0.9551
0.8641 0.9366 0.9533
0.9886 0.9870 0.9468
