assets/luts/m31-log-cd3224a4.cube
TITLE "VisionColor: M31 - LOG"
LUT_3D_SIZE 64
0.0335 0.0342 0.0342
0.0380 0.0359 0.0348
0.0431 0.0381 0.0356
0.0481 0.0403 0.0364
0.0538 0.0429 0.0377
0.0603 0.0453 0.0389
0.0681 0.0483 0.0405
0.0764 0.0515 0.0420
0.0855 0.0551 0.0437
0.0955 0.0590 0.0452
0.1061 0.0632 0.0469
0.1178 0.0676 0.0486
0.1303 0.0717 0.0499
0.1432 0.0758 0.0505
0.1566 0.0797 0.0504
0.1704 0.0835 0.0494
0.1851 0.0865 0.0471
0.2003 0.0895 0.0435
0.2163 0.0920 0.0391
0.2336 0.0940 0.0371
0.2527 0.0950 0.0375
0.2728 0.0955 0.0390
0.2944 0.0965 0.0415
0.3175 0.0986 0.0445
0.3417 0.1026 0.0479
0.3672 0.1069 0.0516
0.3939 0.1112 0.0556
0.4216 0.1154 0.0599
0.4496 0.1198 0.0643
0.4785 0.1244 0.0690
0.5070 0.1286 0.0737
0.5356 0.1335 0.0783
0.5636 0.1379 0.0831
0.5913 0.1408 0.0878
0.6175 0.1439 0.0923
0.6438 0.1472 0.0969
0.6662 0.1548 0.1011
0.6873 0.1664 0.1053
0.7060 0.1774 0.1093
0.7248 0.1885 0.1133
0.7416 0.1993 0.1169
0.7575 0.2106 0.1205
0.7719 0.2212 0.1238
0.7858 0.2324 0.1270
0.7986 0.2437 0.1302
0.8107 0.2571 0.1335
0.8228 0.2666 0.1364
0.8357 0.2746 0.1393
0.8473 0.2850 0.1422
0.8592 0.2961 0.1453
0.8712 0.3073 0.1484
0.8836 0.3194 0.1516
0.8958 0.3317 0.1548
0.9095 0.3448 0.1584
0.9107 0.3586 0.1600
0.9109 0.3705 0.1614
0.9110 0.3825 0.1628
0.9112 0.3928 0.1640
0.9113 0.4052 0.1654
0.9116 0.4208 0.1674
0.9118 0.4313 0.1687
0.9118 0.4348 0.1692
0.9118 0.4348 0.1692
0.9118 0.4348 0.1692
0.0346 0.0377 0.0355
0.0374 0.0381 0.0355
0.0428 0.0394 0.0357
0.0478 0.0417 0.0366
0.0536 0.0443 0.0377
0.0598 0.0467 0.0393
0.0674 0.0494 0.0409
0.0759 0.0522 0.0424
0.0852 0.0554 0.0439
0.0954 0.0590 0.0453
0.1062 0.0628 0.0468
0.1180 0.0670 0.0482
0.1306 0.0711 0.0495
0.1435 0.0750 0.0501
0.1571 0.0785 0.0498
0.1710 0.0822 0.0487
0.1855 0.0855 0.0465
0.2005 0.0890 0.0433
0.2161 0.0922 0.0392
0.2334 0.0944 0.0371
0.2524 0.0953 0.0376
0.2726 0.0958 0.0390
0.2942 0.0969 0.0415
0.3173 0.0989 0.0445
0.3417 0.1029 0.0479
0.3672 0.1071 0.0516
0.3939 0.1114 0.0556
0.4216 0.1157 0.0600
0.4496 0.1201 0.0643
0.4782 0.1244 0.0690
0.5070 0.1288 0.0737
0.5356 0.1327 0.0783
0.5640 0.1355 0.0830
0.5918 0.1386 0.0877
0.6185 0.1419 0.0923
0.6438 0.1466 0.0968
0.6657 0.1569 0.1011
0.6865 0.1680 0.1053
0.7061 0.1785 0.1093
0.7244 0.1894 0.1133
0.7416 0.2000 0.1169
0.7575 0.2110 0.1205
0.7719 0.2213 0.1238
0.7858 0.2326 0.1271
0.7986 0.2437 0.1302
0.8113 0.2551 0.1334
0.8235 0.2645 0.1363
0.8353 0.2768 0.1394
0.8470 0.2872 0.1424
0.8592 0.2961 0.1453
0.8712 0.3074 0.1484
0.8836 0.3195 0.1516
0.8959 0.3341 0.1551
0.9095 0.3451 0.1584
0.9107 0.3563 0.1598
0.9109 0.3708 0.1614
0.9110 0.3804 0.1625
0.9112 0.3953 0.1642
0.9113 0.4054 0.1654
0.9116 0.4187 0.1671
0.9118 0.4339 0.1690
0.9118 0.4348 0.1692
0.9118 0.4348 0.1692
0.9118 0.4348 0.1692
0.0358 0.0417 0.0373
0.0382 0.0425 0.0380
0.0416 0.0423 0.0370
0.0479 0.0431 0.0367
0.0534 0.0455 0.0382
0.0595 0.0483 0.0396
0.0669 0.0516 0.0411
0.0746 0.0551 0.0430
0.0836 0.0584 0.0448
0.0936 0.0619 0.0467
0.1048 0.0653 0.0480
0.1170 0.0687 0.0492
0.1298 0.0721 0.0501
0.1433 0.0754 0.0504
0.1571 0.0786 0.0499
0.1713 0.0817 0.0485
0.1860 0.0847 0.0460
0.2012 0.0875 0.0425
0.2170 0.0904 0.0384
0.2343 0.0927 0.0370
0.2531 0.0943 0.0375
0.2732 0.0958 0.0390
0.2944 0.0968 0.0415
0.3175 0.0988 0.0445
0.3419 0.1029 0.0479
0.3675 0.1071 0.0517
0.3942 0.1114 0.0557
0.4218 0.1157 0.0600
0.4502 0.1201 0.0644
0.4789 0.1238 0.0690
0.5081 0.1271 0.0737
0.5371 0.1303 0.0784
0.5651 0.1335 0.0831
0.5927 0.1367 0.0878
0.6189 0.1401 0.0923
0.6433 0.1488 0.0969
0.6649 0.1589 0.1011
0.6865 0.1695 0.1054
0.7057 0.1798 0.1094
0.7244 0.1904 0.1133
0.7416 0.2008 0.1170
0.7575 0.2116 0.1205
0.7723 0.2218 0.1239
0.7861 0.2329 0.1272
0.7992 0.2437 0.1303
0.8116 0.2553 0.1335
0.8238 0.2650 0.1364
0.8357 0.2771 0.1395
0.8473 0.2874 0.1425
0.8593 0.2985 0.1455
0.8715 0.3076 0.1485
0.8839 0.3200 0.1517
0.8965 0.3322 0.1550
0.9098 0.3453 0.1585
0.9107 0.3567 0.1599
0.9109 0.3711 0.1615
0.9110 0.3832 0.1628
0.9112 0.3958 0.1643
0.9114 0.4061 0.1655
0.9116 0.4215 0.1675
0.9118 0.4320 0.1688
0.9118 0.4348 0.1692
0.9118 0.4348 0.1692
0.9118 0.4348 0.1692
0.0374 0.0459 0.0391
0.0392 0.0463 0.0396
0.0424 0.0479 0.0404
0.0461 0.0470 0.0389
0.0533 0.0470 0.0386
0.0594 0.0498 0.0401
0.0669 0.0529 0.0416
0.0744 0.0563 0.0432
0.0832 0.0603 0.0450
0.0927 0.0647 0.0471
0.1035 0.0687 0.0493
0.1153 0.0724 0.0510
0.1277 0.0762 0.0522
0.1412 0.0790 0.0522
0.1556 0.0815 0.0514
0.1702 0.0839 0.0497
0.1853 0.0862 0.0469
0.2010 0.0885 0.0429
0.2173 0.0908 0.0385
0.2347 0.0924 0.0370
0.2538 0.0934 0.0375
0.2741 0.0941 0.0390
0.2954 0.0957 0.0416
0.3183 0.0986 0.0446
0.3425 0.1031 0.0480
0.3682 0.1072 0.0518
0.3951 0.1110 0.0557
0.4229 0.1147 0.0601
0.4515 0.1184 0.0645
0.4802 0.1218 0.0691
0.5094 0.1252 0.0738
0.5381 0.1285 0.0784
0.5659 0.1321 0.0831
0.5937 0.1354 0.0879
0.6192 0.1401 0.0924
0.6433 0.1503 0.0970
0.6653 0.1600 0.1013
0.6869 0.1705 0.1055
0.7061 0.1804 0.1095
0.7248 0.1909 0.1134
0.7420 0.2011 0.1171
0.7583 0.2118 0.1206
0.7730 0.2219 0.1240
0.7868 0.2326 0.1272
0.7994 0.2436 0.1303
0.8122 0.2550 0.1335
0.8241 0.2651 0.1364
0.8366 0.2753 0.1395
0.8477 0.2878 0.1425
0.8602 0.2970 0.1455
0.8719 0.3082 0.1486
0.8843 0.3227 0.1521
0.8968 0.3327 0.1551
0.9105 0.3459 0.1587
0.9107 0.3572 0.1599
0.9108 0.3696 0.1613
0.9110 0.3814 0.1626
0.9112 0.3942 0.1641
0.9114 0.4090 0.1659
0.9116 0.4199 0.1672
0.9118 0.4327 0.1689
0.9118 0.4348 0.1692
0.9118 0.4348 0.1692
0.9118 0.4348 0.1692
0.0388 0.0507 0.0410
0.0406 0.0508 0.0415
0.0433 0.0521 0.0419
0.0472 0.0537 0.0435
0.0511 0.0522 0.0410
0.0592 0.0517 0.0404
0.0666 0.0545 0.0421
0.0742 0.0580 0.0438
0.0829 0.0618 0.0457
0.0927 0.0661 0.0475
0.1030 0.0706 0.0494
0.1145 0.0751 0.0515
0.1268 0.0794 0.0531
0.1399 0.0832 0.0538
0.1537 0.0864 0.0536
0.1680 0.0890 0.0522
0.1833 0.0908 0.0493
0.1994 0.0923 0.0447
0.2164 0.0937 0.0396
0.2343 0.0947 0.0372
0.2541 0.0948 0.0376
0.2745 0.0949 0.0391
0.2963 0.0956 0.0417
0.3196 0.0979 0.0447
0.3439 0.1023 0.0482
0.3698 0.1061 0.0519
0.3966 0.1098 0.0558
0.4246 0.1136 0.0602
0.4530 0.1173 0.0646
0.4820 0.1209 0.0693
0.5109 0.1245 0.0739
0.5396 0.1281 0.0786
0.5674 0.1316 0.0833
0.5951 0.1353 0.0881
0.6202 0.1410 0.0926
0.6443 0.1509 0.0972
0.6662 0.1603 0.1014
0.6878 0.1707 0.1057
0.7073 0.1805 0.1097
0.7261 0.1908 0.1136
0.7432 0.2009 0.1173
0.7594 0.2114 0.1208
0.7737 0.2214 0.1241
0.7878 0.2321 0.1274
0.8004 0.2427 0.1304
0.8131 0.2541 0.1336
0.8247 0.2656 0.1366
0.8369 0.2758 0.1396
0.8483 0.2883 0.1427
0.8609 0.2975 0.1457
0.8726 0.3087 0.1487
0.8854 0.3211 0.1521
0.8976 0.3334 0.1553
0.9105 0.3466 0.1588
0.9107 0.3581 0.1600
0.9109 0.3703 0.1613
0.9110 0.3822 0.1627
0.9112 0.3948 0.1642
0.9114 0.4075 0.1657
0.9116 0.4208 0.1674
0.9118 0.4336 0.1690
0.9118 0.4348 0.1692
0.9118 0.4348 0.1692
0.9118 0.4348 0.1692
0.0404 0.0558 0.0431
0.0420 0.0559 0.0435
0.0444 0.0568 0.0442
0.0478 0.0584 0.0450
0.0525 0.0602 0.0471
0.0565 0.0581 0.0439
0.0659 0.0568 0.0425
0.0739 0.0598 0.0444
0.0824 0.0634 0.0464
0.0923 0.0676 0.0483
0.1028 0.0721 0.0502
0.1143 0.0767 0.0520
0.1264 0.0812 0.0532
0.1390 0.0858 0.0543
0.1528 0.0898 0.0544
0.1670 0.0935 0.0535
0.1822 0.0959 0.0507
0.1980 0.0978 0.0466
0.2146 0.0994 0.0419
0.2325 0.0997 0.0376
0.2529 0.0991 0.0379
0.2742 0.0985 0.0394
0.2966 0.0982 0.0419
0.3205 0.0995 0.0449
0.3455 0.1032 0.0484
0.3714 0.1069 0.0522
0.3985 0.1106 0.0562
0.4264 0.1144 0.0605
0.4550 0.1180 0.0650
0.4837 0.1218 0.0696
0.5129 0.1253 0.0743
0.5417 0.1288 0.0790
0.5693 0.1327 0.0837
0.5970 0.1364 0.0884
0.6225 0.1403 0.0929
0.6466 0.1501 0.0975
0.6684 0.1597 0.1017
0.6898 0.1697 0.1060
0.7093 0.1796 0.1100
0.7279 0.1898 0.1139
0.7445 0.1999 0.1175
0.7606 0.2104 0.1209
0.7751 0.2205 0.1242
0.7890 0.2310 0.1275
0.8017 0.2416 0.1306
0.8143 0.2530 0.1337
0.8259 0.2642 0.1367
0.8377 0.2763 0.1398
0.8495 0.2870 0.1428
0.8612 0.3002 0.1460
0.8735 0.3095 0.1490
0.8860 0.3219 0.1522
0.8983 0.3363 0.1558
0.9106 0.3474 0.1588
0.9107 0.3587 0.1601
0.9109 0.3709 0.1614
0.9111 0.3852 0.1631
0.9112 0.3958 0.1643
0.9114 0.4106 0.1661
0.9116 0.4217 0.1675
0.9119 0.4369 0.1694
0.9118 0.4348 0.1692
0.9118 0.4348 0.1692
0.9118 0.4348 0.1692
0.0421 0.0620 0.0456
0.0439 0.0620 0.0460
0.0459 0.0622 0.0464
0.0488 0.0638 0.0472
0.0528 0.0655 0.0489
0.0582 0.0674 0.0511
0.0630 0.0644 0.0468
0.0728 0.0625 0.0450
0.0822 0.0655 0.0471
0.0920 0.0695 0.0491
0.1026 0.0738 0.0511
0.1140 0.0784 0.0527
0.1262 0.0830 0.0540
0.1390 0.0875 0.0548
0.1527 0.0920 0.0546
0.1667 0.0959 0.0539
0.1817 0.0995 0.0515
0.1972 0.1026 0.0481
0.2141 0.1045 0.0434
0.2312 0.1061 0.0387
0.2508 0.1061 0.0384
0.2729 0.1047 0.0398
0.2962 0.1038 0.0423
0.3208 0.1042 0.0453
0.3462 0.1070 0.0488
0.3727 0.1105 0.0526
0.4003 0.1139 0.0567
0.4286 0.1174 0.0611
0.4571 0.1211 0.0655
0.4861 0.1246 0.0702
0.5154 0.1282 0.0749
0.5441 0.1321 0.0796
0.5713 0.1355 0.0843
0.5994 0.1395 0.0891
0.6254 0.1433 0.0936
0.6506 0.1476 0.0980
0.6724 0.1573 0.1023
0.6932 0.1676 0.1064
0.7121 0.1774 0.1104
0.7306 0.1877 0.1142
0.7471 0.1978 0.1178
0.7631 0.2084 0.1212
0.7773 0.2186 0.1245
0.7909 0.2292 0.1277
0.8035 0.2398 0.1307
0.8157 0.2512 0.1338
0.8276 0.2618 0.1368
0.8395 0.2730 0.1398
0.8511 0.2842 0.1428
0.8630 0.2962 0.1460
0.8748 0.3083 0.1491
0.8874 0.3212 0.1524
0.8998 0.3342 0.1558
0.9106 0.3476 0.1589
0.9107 0.3596 0.1602
0.9109 0.3718 0.1615
0.9110 0.3841 0.1629
0.9112 0.3966 0.1644
0.9114 0.4094 0.1660
0.9117 0.4250 0.1679
0.9118 0.4348 0.1692
0.9118 0.4348 0.1692
0.9118 0.4348 0.1692
0.9118 0.4348 0.1692
0.0443 0.0686 0.0483
0.0459 0.0687 0.0486
0.0478 0.0686 0.0492
0.0504 0.0697 0.0498
0.0539 0.0713 0.0511
0.0585 0.0733 0.0531
0.0641 0.0750 0.0553
0.0702 0.0717 0.0501
0.0808 0.0687 0.0479
0.0916 0.0718 0.0501
0.1026 0.0760 0.0520
0.1139 0.0804 0.0537
0.1263 0.0851 0.0549
0.1392 0.0896 0.0558
0.1528 0.0939 0.0553
0.1673 0.0981 0.0539
0.1819 0.1020 0.0519
0.1975 0.1052 0.0484
0.2139 0.1087 0.0445
0.2311 0.1116 0.0401
0.2505 0.1131 0.0390
0.2713 0.1136 0.0404
0.2949 0.1122 0.0429
0.3204 0.1116 0.0459
0.3468 0.1136 0.0495
0.3737 0.1166 0.0532
0.4017 0.1198 0.0574
0.4301 0.1229 0.0617
0.4594 0.1263 0.0663
0.4887 0.1298 0.0710
0.5180 0.1334 0.0756
0.5472 0.1371 0.0805
0.5749 0.1407 0.0851
0.6023 0.1443 0.0898
0.6282 0.1485 0.0944
0.6532 0.1526 0.0988
0.6765 0.1570 0.1029
0.6982 0.1633 0.1070
0.7169 0.1735 0.1109
0.7347 0.1839 0.1146
0.7510 0.1943 0.1182
0.7665 0.2048 0.1216
0.7802 0.2154 0.1247
0.7937 0.2261 0.1279
0.8062 0.2364 0.1309
0.8184 0.2471 0.1339
0.8300 0.2580 0.1368
0.8419 0.2694 0.1399
0.8531 0.2807 0.1429
0.8650 0.2930 0.1460
0.8768 0.3053 0.1491
0.8894 0.3186 0.1525
0.9015 0.3319 0.1558
0.9105 0.3452 0.1586
0.9107 0.3574 0.1599
0.9109 0.3703 0.1613
0.9110 0.3828 0.1628
0.9112 0.3960 0.1643
0.9114 0.4092 0.1659
0.9116 0.4228 0.1676
0.9118 0.4341 0.1691
0.9118 0.4344 0.1691
0.9118 0.4345 0.1691
0.9118 0.4348 0.1692
0.0464 0.0758 0.0514
0.0479 0.0757 0.0516
0.0498 0.0756 0.0522
0.0521 0.0761 0.0526
0.0552 0.0778 0.0537
0.0594 0.0793 0.0554
0.0645 0.0815 0.0576
0.0712 0.0833 0.0599
0.0786 0.0790 0.0530
0.0898 0.0755 0.0511
0.1020 0.0786 0.0531
0.1138 0.0829 0.0547
0.1262 0.0874 0.0559
0.1393 0.0920 0.0566
0.1531 0.0963 0.0565
0.1674 0.1005 0.0551
0.1829 0.1042 0.0523
0.1986 0.1080 0.0488
0.2151 0.1114 0.0449
0.2328 0.1148 0.0405
0.2513 0.1183 0.0395
0.2720 0.1203 0.0411
0.2934 0.1226 0.0437
0.3185 0.1232 0.0467
0.3458 0.1243 0.0503
0.3735 0.1265 0.0540
0.4023 0.1294 0.0582
0.4317 0.1322 0.0627
0.4614 0.1352 0.0672
0.4912 0.1382 0.0720
0.5211 0.1419 0.0767
0.5502 0.1451 0.0816
0.5778 0.1485 0.0862
0.6058 0.1523 0.0909
0.6316 0.1563 0.0955
0.6565 0.1601 0.0998
0.6796 0.1647 0.1039
0.7016 0.1693 0.1080
0.7212 0.1738 0.1116
0.7404 0.1787 0.1152
0.7559 0.1885 0.1186
0.7711 0.1993 0.1220
0.7846 0.2099 0.1251
0.7974 0.2210 0.1282
0.8098 0.2312 0.1312
0.8217 0.2426 0.1342
0.8333 0.2538 0.1371
0.8447 0.2656 0.1401
0.8559 0.2771 0.1430
0.8679 0.2898 0.1462
0.8793 0.3023 0.1493
0.8917 0.3156 0.1526
0.9041 0.3292 0.1560
0.9105 0.3429 0.1584
0.9106 0.3549 0.1596
0.9108 0.3680 0.1611
0.9110 0.3809 0.1626
0.9112 0.3944 0.1642
0.9114 0.4077 0.1657
0.9116 0.4215 0.1675
0.9118 0.4313 0.1687
0.9118 0.4313 0.1687
0.9118 0.4315 0.1687
0.9118 0.4320 0.1688
0.0485 0.0834 0.0545
0.0502 0.0834 0.0547
0.0519 0.0833 0.0551
0.0539 0.0832 0.0556
0.0569 0.0845 0.0564
0.0607 0.0862 0.0579
0.0651 0.0883 0.0600
0.0715 0.0906 0.0620
0.0789 0.0923 0.0644
0.0883 0.0867 0.0557
0.0997 0.0829 0.0545
0.1129 0.0861 0.0562
0.1262 0.0902 0.0573
0.1393 0.0946 0.0579
0.1534 0.0990 0.0576
0.1680 0.1032 0.0562
0.1836 0.1070 0.0535
0.1996 0.1105 0.0497
0.2164 0.1144 0.0453
0.2343 0.1181 0.0409
0.2540 0.1214 0.0400
0.2744 0.1250 0.0418
0.2968 0.1277 0.0446
0.3195 0.1320 0.0477
0.3441 0.1370 0.0512
0.3717 0.1407 0.0551
0.4014 0.1431 0.0593
0.4319 0.1455 0.0638
0.4623 0.1478 0.0684
0.4930 0.1506 0.0732
0.5233 0.1537 0.0780
0.5529 0.1569 0.0829
0.5814 0.1599 0.0876
0.6091 0.1640 0.0923
0.6353 0.1676 0.0968
0.6601 0.1712 0.1012
0.6831 0.1754 0.1053
0.7048 0.1795 0.1092
0.7248 0.1839 0.1129
0.7433 0.1888 0.1165
0.7599 0.1941 0.1197
0.7755 0.1996 0.1227
0.7894 0.2052 0.1256
0.8023 0.2142 0.1285
0.8140 0.2256 0.1315
0.8259 0.2375 0.1345
0.8373 0.2490 0.1374
0.8483 0.2614 0.1404
0.8593 0.2736 0.1433
0.8709 0.2864 0.1464
0.8827 0.2996 0.1496
0.8949 0.3133 0.1529
0.9077 0.3271 0.1564
0.9105 0.3404 0.1581
0.9106 0.3527 0.1594
0.9108 0.3661 0.1609
0.9110 0.3791 0.1624
0.9112 0.3928 0.1640
0.9114 0.4063 0.1656
0.9116 0.4203 0.1673
0.9117 0.4280 0.1683
0.9117 0.4283 0.1683
0.9117 0.4285 0.1683
0.9117 0.4288 0.1684
0.0508 0.0916 0.0576
0.0522 0.0915 0.0577
0.0540 0.0914 0.0583
0.0560 0.0913 0.0587
0.0586 0.0917 0.0592
0.0618 0.0934 0.0606
0.0660 0.0954 0.0621
0.0717 0.0977 0.0643
0.0795 0.1003 0.0672
0.0875 0.1017 0.0698
0.0985 0.0947 0.0586
0.1107 0.0908 0.0578
0.1251 0.0940 0.0592
0.1392 0.0977 0.0593
0.1537 0.1020 0.0588
0.1685 0.1062 0.0574
0.1842 0.1101 0.0547
0.2007 0.1140 0.0511
0.2182 0.1176 0.0463
0.2358 0.1216 0.0418
0.2560 0.1249 0.0404
0.2768 0.1288 0.0425
0.3001 0.1328 0.0455
0.3242 0.1374 0.0488
0.3485 0.1429 0.0523
0.3751 0.1484 0.0563
0.4030 0.1536 0.0605
0.4331 0.1570 0.0650
0.4642 0.1598 0.0698
0.4954 0.1626 0.0745
0.5264 0.1659 0.0795
0.5564 0.1690 0.0844
0.5849 0.1723 0.0891
0.6136 0.1760 0.0940
0.6395 0.1796 0.0985
0.6646 0.1833 0.1028
0.6875 0.1875 0.1069
0.7090 0.1913 0.1108
0.7284 0.1960 0.1144
0.7468 0.2005 0.1179
0.7631 0.2054 0.1210
0.7786 0.2105 0.1241
0.7923 0.2164 0.1270
0.8054 0.2225 0.1297
0.8177 0.2290 0.1324
0.8301 0.2364 0.1351
0.8417 0.2437 0.1378
0.8528 0.2560 0.1407
0.8637 0.2690 0.1436
0.8755 0.2822 0.1468
0.8871 0.2957 0.1500
0.8991 0.3101 0.1533
0.9102 0.3240 0.1565
0.9104 0.3374 0.1578
0.9106 0.3505 0.1592
0.9108 0.3641 0.1606
0.9109 0.3773 0.1622
0.9112 0.3913 0.1638
0.9113 0.4049 0.1654
0.9116 0.4194 0.1672
0.9117 0.4245 0.1678
0.9117 0.4248 0.1679
0.9117 0.4248 0.1679
0.9117 0.4252 0.1679
0.0528 0.0997 0.0608
0.0542 0.0997 0.0607
0.0560 0.0996 0.0612
0.0580 0.0995 0.0616
0.0603 0.0994 0.0622
0.0632 0.1008 0.0631
0.0671 0.1027 0.0647
0.0723 0.1050 0.0668
0.0793 0.1075 0.0695
0.0885 0.1105 0.0731
0.0986 0.1116 0.0733
0.1099 0.1028 0.0615
0.1229 0.0992 0.0609
0.1380 0.1021 0.0615
0.1538 0.1054 0.0605
0.1688 0.1095 0.0592
0.1852 0.1135 0.0565
0.2017 0.1176 0.0533
0.2194 0.1212 0.0484
0.2381 0.1249 0.0430
0.2580 0.1288 0.0409
0.2797 0.1325 0.0432
0.3029 0.1370 0.0462
0.3277 0.1431 0.0499
0.3543 0.1489 0.0537
0.3805 0.1545 0.0576
0.4081 0.1600 0.0619
0.4372 0.1655 0.0664
0.4682 0.1704 0.0714
0.4981 0.1752 0.0761
0.5296 0.1787 0.0811
0.5606 0.1820 0.0862
0.5893 0.1857 0.0909
0.6179 0.1890 0.0957
0.6437 0.1926 0.1001
0.6692 0.1964 0.1046
0.6919 0.2006 0.1086
0.7136 0.2047 0.1126
0.7327 0.2092 0.1162
0.7508 0.2136 0.1195
0.7669 0.2184 0.1227
0.7819 0.2236 0.1257
0.7956 0.2290 0.1285
0.8086 0.2352 0.1313
0.8208 0.2412 0.1339
0.8330 0.2482 0.1365
0.8445 0.2556 0.1392
0.8564 0.2640 0.1419
0.8679 0.2723 0.1447
0.8802 0.2819 0.1476
0.8921 0.2915 0.1505
0.9045 0.3061 0.1538
0.9102 0.3199 0.1561
0.9104 0.3337 0.1574
0.9106 0.3472 0.1588
0.9107 0.3612 0.1603
0.9109 0.3748 0.1619
0.9111 0.3891 0.1635
0.9113 0.4031 0.1652
0.9116 0.4177 0.1670
0.9116 0.4194 0.1672
0.9116 0.4197 0.1672
0.9116 0.4199 0.1672
0.9116 0.4204 0.1673
0.0545 0.1084 0.0639
0.0560 0.1083 0.0639
0.0576 0.1082 0.0644
0.0598 0.1080 0.0648
0.0619 0.1079 0.0654
0.0646 0.1085 0.0661
0.0686 0.1105 0.0677
0.0732 0.1127 0.0699
0.0795 0.1153 0.0723
0.0880 0.1181 0.0755
0.0988 0.1213 0.0797
0.1114 0.1213 0.0761
0.1223 0.1111 0.0645
0.1356 0.1078 0.0643
0.1523 0.1106 0.0637
0.1692 0.1133 0.0616
0.1854 0.1174 0.0593
0.2028 0.1212 0.0552
0.2207 0.1252 0.0509
0.2399 0.1289 0.0452
0.2598 0.1330 0.0415
0.2829 0.1369 0.0440
0.3069 0.1416 0.0472
0.3326 0.1480 0.0509
0.3587 0.1542 0.0548
0.3872 0.1608 0.0592
0.4156 0.1672 0.0636
0.4446 0.1732 0.0682
0.4739 0.1794 0.0730
0.5051 0.1846 0.0780
0.5353 0.1899 0.0830
0.5657 0.1952 0.0881
0.5933 0.1994 0.0928
0.6222 0.2036 0.0976
0.6484 0.2068 0.1021
0.6736 0.2108 0.1065
0.6966 0.2150 0.1106
0.7177 0.2190 0.1144
0.7371 0.2235 0.1180
0.7545 0.2278 0.1213
0.7705 0.2325 0.1244
0.7856 0.2381 0.1275
0.7992 0.2435 0.1303
0.8121 0.2489 0.1330
0.8242 0.2555 0.1357
0.8361 0.2620 0.1382
0.8478 0.2699 0.1410
0.8597 0.2774 0.1437
0.8713 0.2860 0.1464
0.8836 0.2952 0.1494
0.8959 0.3045 0.1523
0.9091 0.3155 0.1555
0.9103 0.3243 0.1566
0.9104 0.3337 0.1574
0.9105 0.3437 0.1585
0.9107 0.3572 0.1599
0.9109 0.3714 0.1615
0.9111 0.3862 0.1632
0.9113 0.4006 0.1649
0.9115 0.4127 0.1664
0.9115 0.4129 0.1664
0.9115 0.4131 0.1664
0.9115 0.4134 0.1664
0.9115 0.4141 0.1665
0.0560 0.1171 0.0675
0.0573 0.1170 0.0675
0.0594 0.1169 0.0681
0.0615 0.1167 0.0685
0.0638 0.1165 0.0690
0.0663 0.1163 0.0696
0.0696 0.1181 0.0707
0.0743 0.1205 0.0728
0.0802 0.1231 0.0752
0.0880 0.1261 0.0783
0.0981 0.1293 0.0823
0.1104 0.1326 0.0868
0.1262 0.1306 0.0787
0.1360 0.1190 0.0690
0.1500 0.1166 0.0682
0.1678 0.1192 0.0659
0.1862 0.1216 0.0620
0.2038 0.1255 0.0583
0.2224 0.1292 0.0532
0.2416 0.1331 0.0478
0.2624 0.1372 0.0425
0.2850 0.1416 0.0447
0.3103 0.1465 0.0481
0.3365 0.1527 0.0519
0.3634 0.1597 0.0560
0.3931 0.1667 0.0606
0.4228 0.1742 0.0654
0.4529 0.1804 0.0701
0.4829 0.1872 0.0750
0.5126 0.1936 0.0800
0.5425 0.1997 0.0851
0.5731 0.2054 0.0902
0.6001 0.2105 0.0949
0.6285 0.2162 0.0998
0.6530 0.2216 0.1042
0.6780 0.2261 0.1086
0.7008 0.2303 0.1126
0.7222 0.2347 0.1165
0.7409 0.2390 0.1200
0.7586 0.2433 0.1233
0.7743 0.2482 0.1264
0.7893 0.2535 0.1294
0.8024 0.2587 0.1321
0.8157 0.2647 0.1350
0.8277 0.2712 0.1376
0.8396 0.2779 0.1403
0.8514 0.2849 0.1429
0.8634 0.2930 0.1457
0.8751 0.3012 0.1485
0.8876 0.3108 0.1514
0.8996 0.3196 0.1543
0.9103 0.3298 0.1571
0.9104 0.3389 0.1580
0.9106 0.3479 0.1589
0.9107 0.3574 0.1599
0.9108 0.3678 0.1611
0.9109 0.3778 0.1622
0.9111 0.3891 0.1635
0.9113 0.3995 0.1647
0.9113 0.4049 0.1654
0.9113 0.4047 0.1654
0.9113 0.4047 0.1654
0.9113 0.4047 0.1654
0.9114 0.4056 0.1655
0.0575 0.1259 0.0714
0.0589 0.1258 0.0714
0.0611 0.1258 0.0719
0.0632 0.1255 0.0724
