assets/luts/m31-rec-709-b1f2dc7d.cube
TITLE "VisionColor: M31 - Rec.709"
LUT_3D_SIZE 8
0.0432 0.0581 0.0668
0.0935 0.0773 0.0734
0.1983 0.1056 0.0739
0.3206 0.1310 0.0737
0.4587 0.1550 0.1033
0.6024 0.1768 0.1403
0.7357 0.2061 0.1672
0.8601 0.2408 0.1820
0.0432 0.1206 0.0672
0.0904 0.1264 0.0721
0.2226 0.1304 0.0590
0.3494 0.1603 0.0622
0.4885 0.1827 0.0932
0.6277 0.2048 0.1244
0.7592 0.2358 0.1468
0.8783 0.2715 0.1612
0.0432 0.2020 0.0626
0.0931 0.2248 0.0517
0.2456 0.2012 0.0636
0.4123 0.1984 0.0547
0.5718 0.2325 0.0859
0.7002 0.2726 0.1005
0.8219 0.3246 0.1042
0.9138 0.3756 0.0979
0.0432 0.2781 0.0602
0.0980 0.3028 0.0432
0.2737 0.3097 0.0691
0.4532 0.2993 0.0447
0.6291 0.2932 0.0581
0.7655 0.3317 0.0788
0.8796 0.3885 0.0746
0.9525 0.4410 0.0571
0.0432 0.3494 0.0667
0.1365 0.3819 0.0432
0.3119 0.3977 0.0695
0.5051 0.4494 0.0440
0.6642 0.4407 0.0468
0.7957 0.4223 0.0432
0.9116 0.4567 0.0432
0.9529 0.4985 0.0432
0.0464 0.4436 0.0596
0.1628 0.4667 0.0527
0.3426 0.4821 0.0786
0.5127 0.5398 0.0441
0.6602 0.6033 0.0443
0.8046 0.6215 0.0446
0.9272 0.5687 0.0432
0.9529 0.5705 0.0432
0.0914 0.5087 0.0912
0.1835 0.5602 0.0660
0.3594 0.6073 0.0432
0.5287 0.6646 0.0444
0.6704 0.7170 0.0444
0.7863 0.7664 0.0446
0.9218 0.7752 0.0449
0.9494 0.7135 0.0467
0.0434 0.7641 0.0432
0.1189 0.7895 0.0432
0.3424 0.8188 0.0432
0.5358 0.8365 0.0432
0.6766 0.8499 0.0447
0.7899 0.8632 0.0447
0.8934 0.8943 0.0448
0.9512 0.8779 0.0449
0.0432 0.0889 0.1065
0.1249 0.0947 0.1217
0.2328 0.1081 0.1163
0.3605 0.1163 0.1026
0.4772 0.1440 0.1229
0.6091 0.1723 0.1529
0.7353 0.2013 0.1765
0.8543 0.2314 0.1930
0.0433 0.1195 0.1258
0.0891 0.1273 0.1361
0.2172 0.1550 0.1284
0.3648 0.1654 0.0938
0.4978 0.1718 0.1042
0.6277 0.1903 0.1365
0.7552 0.2230 0.1564
0.8761 0.2600 0.1695
0.0432 0.2159 0.1228
0.0570 0.2372 0.1075
0.2477 0.2163 0.1065
0.4132 0.2126 0.0633
0.5509 0.2441 0.0696
0.6748 0.2770 0.0883
0.7997 0.3192 0.1007
0.9125 0.3659 0.1050
0.0432 0.2802 0.0930
0.0432 0.3190 0.0749
0.2626 0.3214 0.1093
0.4594 0.3190 0.0691
0.6402 0.3077 0.0487
0.7615 0.3463 0.0643
0.8685 0.4019 0.0581
0.9445 0.4556 0.0432
0.0432 0.3366 0.1079
0.0805 0.4048 0.0490
0.2981 0.4136 0.0976
0.5091 0.4643 0.0441
0.6677 0.4616 0.0493
0.7988 0.4372 0.0432
0.9152 0.4729 0.0432
0.9529 0.5167 0.0432
0.0432 0.4003 0.1366
0.1276 0.4643 0.0762
0.3226 0.4872 0.1030
0.5078 0.5456 0.0904
0.6704 0.6189 0.0444
0.8028 0.6277 0.0446
0.9267 0.5753 0.0449
0.9529 0.5785 0.0432
0.0469 0.5251 0.1342
0.1535 0.5642 0.0867
0.3399 0.6002 0.0829
0.5167 0.6597 0.0443
0.6695 0.7277 0.0445
0.7877 0.7690 0.0446
0.9214 0.7726 0.0449
0.9494 0.7162 0.0467
0.0434 0.7828 0.0432
0.0478 0.7988 0.0432
0.3190 0.8174 0.0432
0.5136 0.8459 0.0432
0.6686 0.8610 0.0447
0.7863 0.8730 0.0447
0.8885 0.8943 0.0448
0.9512 0.8850 0.0449
0.0434 0.1334 0.1633
0.0914 0.1354 0.1699
0.2726 0.1483 0.1779
0.4119 0.1592 0.1653
0.5633 0.1760 0.1648
0.6739 0.1906 0.1575
0.7655 0.2164 0.1678
0.8730 0.2467 0.1811
0.0434 0.1421 0.1676
0.0730 0.1662 0.1957
0.2658 0.1743 0.2020
0.4165 0.1781 0.1821
0.5660 0.1852 0.1705
0.6939 0.1977 0.1648
0.7717 0.2227 0.1631
0.8783 0.2509 0.1786
0.0435 0.2121 0.2121
0.0435 0.2358 0.2329
0.1960 0.2498 0.2599
0.3892 0.2602 0.2371
0.5567 0.2470 0.2023
0.6864 0.2462 0.1848
0.8121 0.2775 0.1750
0.9347 0.3157 0.1544
0.0432 0.3543 0.2773
0.0432 0.3392 0.2265
0.1504 0.3706 0.1864
0.4334 0.3617 0.2051
0.6171 0.3443 0.1668
0.7397 0.3823 0.1579
0.8481 0.4292 0.1358
0.9445 0.4741 0.1207
0.0432 0.3994 0.2434
0.0432 0.3761 0.2053
0.2115 0.4487 0.1468
0.4734 0.4836 0.1831
0.6517 0.4918 0.1350
0.7890 0.4592 0.0744
0.8899 0.4985 0.0432
0.9529 0.5429 0.0432
0.0432 0.4263 0.2534
0.0432 0.3970 0.2073
0.2550 0.5100 0.1505
0.4772 0.5478 0.1977
0.6713 0.6349 0.1005
0.7997 0.6375 0.0446
0.9174 0.5829 0.0466
0.9512 0.5989 0.0450
0.0432 0.4716 0.2576
0.0432 0.4809 0.2181
0.2621 0.6375 0.1262
0.4887 0.6646 0.1516
0.6540 0.7330 0.1560
0.7908 0.7779 0.0446
0.9236 0.7704 0.0449
0.9494 0.7188 0.0467
0.0432 0.7775 0.1007
0.0434 0.8010 0.0432
0.2510 0.8343 0.0432
0.4798 0.8561 0.0432
0.6468 0.8770 0.0432
0.7775 0.8872 0.0831
0.8867 0.8987 0.1212
0.9512 0.8943 0.1539
0.0435 0.1857 0.2286
0.0828 0.1829 0.2260
0.2406 0.1902 0.2576
0.4616 0.2093 0.2216
0.6033 0.2079 0.2024
0.7206 0.2301 0.2095
0.8219 0.2567 0.2199
0.9081 0.2839 0.2267
0.0435 0.1920 0.2332
0.0519 0.2112 0.2577
0.1902 0.2070 0.2797
0.4596 0.2266 0.2422
0.6038 0.2237 0.2214
0.7228 0.2436 0.2261
0.8246 0.2672 0.2337
0.9067 0.2961 0.2408
0.0435 0.2281 0.2598
0.0436 0.2571 0.2913
0.1428 0.2799 0.3277
0.4365 0.2842 0.3041
0.5966 0.2788 0.2806
0.7148 0.2837 0.2712
0.8246 0.2932 0.2614
0.9063 0.3264 0.2717
0.0437 0.3166 0.3199
0.0437 0.3485 0.3441
0.0690 0.3845 0.3832
0.3692 0.4008 0.4063
0.5691 0.4083 0.3897
0.7117 0.4156 0.3730
0.8308 0.4201 0.3435
0.9281 0.4472 0.3326
0.0440 0.4663 0.3983
0.0440 0.5020 0.4156
0.0440 0.4849 0.3770
0.3481 0.5091 0.3275
0.6180 0.5304 0.3299
0.7597 0.5189 0.3337
0.8668 0.5593 0.3308
0.9494 0.5918 0.3228
0.0442 0.5691 0.4421
0.0432 0.5274 0.3845
0.0673 0.5100 0.3479
0.4012 0.5731 0.2948
0.6344 0.6380 0.3201
0.7846 0.6557 0.2513
0.9036 0.6109 0.2564
0.9529 0.6424 0.2689
0.0432 0.5900 0.3992
0.0432 0.5731 0.3666
0.0432 0.5931 0.3128
0.4021 0.7086 0.2390
0.6180 0.7339 0.3017
0.7757 0.7850 0.3092
0.9143 0.7752 0.1338
0.9463 0.7273 0.2839
0.0432 0.8161 0.3655
0.0432 0.8192 0.3063
0.0432 0.8343 0.1877
0.3692 0.9529 0.1369
0.6086 0.9316 0.2108
0.7557 0.9019 0.2979
0.8885 0.9098 0.3155
0.9516 0.9041 0.3050
0.0436 0.2387 0.2937
0.0634 0.2341 0.2864
0.1854 0.2377 0.3073
0.4101 0.2664 0.2873
0.6491 0.2567 0.2303
0.7495 0.2676 0.2297
0.8401 0.2941 0.2387
0.9023 0.3406 0.2990
0.0436 0.2449 0.3015
0.0437 0.2581 0.3186
0.1610 0.2543 0.3199
0.4027 0.2799 0.3106
0.6442 0.2689 0.2506
0.7459 0.2797 0.2507
0.8397 0.3077 0.2623
0.8974 0.3575 0.3306
0.0437 0.2665 0.3159
0.0437 0.2903 0.3439
0.1151 0.3159 0.3865
0.3852 0.3039 0.3912
0.6300 0.3126 0.3113
0.7335 0.3217 0.3103
0.8334 0.3445 0.3312
0.8943 0.3890 0.3759
0.0437 0.3214 0.3639
0.0438 0.3581 0.4023
0.0537 0.3901 0.4452
0.3026 0.4132 0.4901
0.6002 0.4192 0.4392
0.7219 0.4359 0.4485
0.8294 0.4321 0.4323
0.8987 0.4532 0.4396
0.0439 0.4298 0.4452
0.0440 0.4603 0.4654
0.0440 0.4994 0.5060
0.2342 0.5398 0.5549
0.5682 0.5567 0.5549
0.7210 0.5727 0.5536
0.8437 0.5820 0.5384
0.9272 0.5900 0.5251
0.0442 0.5775 0.5354
0.0443 0.6126 0.5491
0.0443 0.6495 0.5820
0.1755 0.6237 0.5398
0.5705 0.6384 0.5073
0.7615 0.6873 0.4707
0.8774 0.6779 0.5038
0.9525 0.7082 0.5109
0.0445 0.7228 0.6433
0.0444 0.7122 0.5958
0.0432 0.6886 0.5238
0.1680 0.7139 0.4707
0.5554 0.7641 0.4212
0.7481 0.7872 0.4800
0.9001 0.7912 0.3761
0.9529 0.7526 0.4607
0.0432 0.8614 0.5940
0.0432 0.8588 0.5087
0.0432 0.8663 0.4634
0.0432 0.8810 0.3741
0.5296 0.9529 0.3539
0.7308 0.9361 0.4192
0.8801 0.9214 0.4636
0.9516 0.9143 0.4461
0.0437 0.2866 0.3539
0.0437 0.2830 0.3448
0.1648 0.2786 0.3403
0.3905 0.3108 0.3401
0.6042 0.3095 0.2899
0.7730 0.3170 0.2728
0.8472 0.3341 0.3097
0.8890 0.3861 0.3885
0.0437 0.2930 0.3657
0.0438 0.3030 0.3785
0.1415 0.2983 0.3672
0.3843 0.3052 0.3808
0.5935 0.3206 0.3161
0.7664 0.3275 0.3097
0.8428 0.3450 0.3410
0.8863 0.4094 0.4281
0.0438 0.3061 0.3714
0.0438 0.3237 0.3937
0.0594 0.3457 0.4363
0.2868 0.3348 0.4434
0.5665 0.3683 0.4041
0.7499 0.3754 0.4041
0.8308 0.3928 0.4232
0.8859 0.4501 0.4963
0.0439 0.3592 0.4252
0.0439 0.3908 0.4632
0.0440 0.4134 0.4985
0.2559 0.4365 0.5593
0.5611 0.4248 0.5451
0.7441 0.4541 0.5247
0.8312 0.4783 0.5376
0.8934 0.5216 0.5811
0.0440 0.4296 0.4945
0.0441 0.4656 0.5331
0.0442 0.4998 0.5767
0.2236 0.5247 0.6157
0.5029 0.5554 0.6562
0.7433 0.5682 0.6300
0.8365 0.5922 0.6340
0.9014 0.6122 0.6407
0.0442 0.5464 0.5864
0.0442 0.5691 0.6002
0.0443 0.6029 0.6340
0.1089 0.6397 0.6766
0.4496 0.6757 0.7068
0.7286 0.7046 0.6975
0.8481 0.7117 0.6930
0.9303 0.7175 0.6873
0.0444 0.6824 0.6882
0.0444 0.7139 0.7002
0.0445 0.7557 0.7201
0.0446 0.7890 0.7410
0.3541 0.7801 0.6713
0.7184 0.8032 0.6349
0.8845 0.8143 0.5966
0.9529 0.8050 0.6424
0.0447 0.8428 0.7872
0.0447 0.8805 0.7935
0.0448 0.8992 0.7464
0.0432 0.9059 0.6580
0.3041 0.9529 0.5611
0.6828 0.9529 0.5482
0.8610 0.9298 0.6104
0.9521 0.9258 0.6011
0.0439 0.3412 0.4223
0.0439 0.3379 0.4110
0.1472 0.3339 0.3959
0.3317 0.3461 0.4083
0.5633 0.3790 0.3901
0.7273 0.3890 0.4128
0.8503 0.4105 0.4658
0.8890 0.4545 0.5331
0.0439 0.3483 0.4416
0.0439 0.3557 0.4496
0.1173 0.3501 0.4287
0.2875 0.3503 0.4338
0.5518 0.3870 0.4267
0.7197 0.3996 0.4514
0.8521 0.4199 0.5029
0.8925 0.4625 0.5567
0.0439 0.3568 0.4434
0.0439 0.3677 0.4621
0.0440 0.3868 0.5056
0.2404 0.3857 0.4994
0.5496 0.3870 0.5274
0.7166 0.4165 0.5243
0.8614 0.4381 0.5709
0.9005 0.4856 0.6038
0.0440 0.4054 0.5007
0.0441 0.4341 0.5380
0.0442 0.4425 0.5584
0.1822 0.4627 0.6211
0.4381 0.4305 0.6246
0.7264 0.4590 0.6464
0.8743 0.4863 0.6593
0.9116 0.5411 0.6699
0.0442 0.4667 0.5718
0.0443 0.5020 0.6117
0.0443 0.5247 0.6424
0.1548 0.5389 0.6686
0.4252 0.5660 0.7330
0.6904 0.5562 0.7335
0.8783 0.5767 0.7348
0.9187 0.6277 0.7304
0.0443 0.5482 0.6517
0.0444 0.5802 0.6833
0.0444 0.6029 0.7082
0.0486 0.6184 0.7304
0.4008 0.6433 0.7588
0.6842 0.6895 0.7779
0.8663 0.6970 0.7810
0.9218 0.7259 0.7806
0.0445 0.6562 0.7353
0.0445 0.6753 0.7455
0.0446 0.6988 0.7641
0.0446 0.7264 0.7872
0.3192 0.7597 0.8086
0.6388 0.7979 0.8188
0.8521 0.8321 0.8126
0.9436 0.8374 0.8112
0.0446 0.7788 0.8246
0.0446 0.8068 0.8325
0.0447 0.8419 0.8445
0.0447 0.8832 0.8548
0.1609 0.9210 0.8574
0.5211 0.9494 0.7855
0.8392 0.9529 0.7566
0.9525 0.9396 0.7672
0.0441 0.4059 0.5078
0.0440 0.4030 0.4920
0.1188 0.3985 0.4694
0.2799 0.4030 0.4550
0.5522 0.4236 0.5207
0.7104 0.4485 0.5536
0.8503 0.4618 0.6162
0.9263 0.5043 0.7042
0.0441 0.4139 0.5344
0.0441 0.4192 0.5398
0.0700 0.4132 0.5118
0.2470 0.4067 0.4938
0.5153 0.4112 0.5700
0.7188 0.4399 0.5966
0.8596 0.4581 0.6508
0.9330 0.5078 0.7308
0.0441 0.4196 0.5402
0.0442 0.4281 0.5593
0.0432 0.4481 0.6020
0.1987 0.4443 0.5958
0.4083 0.4054 0.6224
0.7068 0.4399 0.6886
0.8659 0.4614 0.7153
0.9414 0.5211 0.7735
0.0442 0.4594 0.5886
0.0443 0.4840 0.6229
0.0443 0.4834 0.6313
0.1136 0.5043 0.6926
0.3563 0.4861 0.7210
0.6295 0.4783 0.7521
0.8552 0.5016 0.7895
0.9476 0.5571 0.8183
0.0443 0.5176 0.6557
0.0444 0.5474 0.6917
0.0444 0.5638 0.7153
0.0578 0.5624 0.7246
0.3424 0.5869 0.7948
0.6011 0.5602 0.7952
0.8445 0.5829 0.8432
0.9503 0.6197 0.8525
0.0444 0.5793 0.7201
0.0445 0.6100 0.7512
0.0446 0.6251 0.7699
0.0446 0.6349 0.7846
0.3281 0.6477 0.8086
0.6286 0.6882 0.8508
0.8285 0.6886 0.8556
0.9503 0.7033 0.8761
0.0446 0.6495 0.7841
0.0446 0.6766 0.8068
0.0446 0.6926 0.8206
0.0446 0.7033 0.8325
0.2961 0.7170 0.8441
0.5993 0.7575 0.8654
0.8374 0.8223 0.8712
0.9472 0.8192 0.8934
0.0447 0.7433 0.8521
0.0447 0.7677 0.8663
0.0447 0.7890 0.8770
0.0447 0.8108 0.8876
0.1763 0.8339 0.8996
0.5358 0.8668 0.9072
0.8050 0.9081 0.9072
0.9489 0.9481 0.9081
