assets/luts/m31-rec-709-b1f2dc7d.cube
TITLE "VisionColor: M31 - Rec.709"
LUT_3D_SIZE 64
0.0432 0.0581 0.0668
0.0432 0.0595 0.0677
0.0432 0.0613 0.0684
0.0439 0.0632 0.0692
0.0499 0.0652 0.0699
0.0569 0.0673 0.0707
0.0651 0.0696 0.0715
0.0742 0.0717 0.0720
0.0835 0.0743 0.0728
0.0935 0.0773 0.0734
0.1037 0.0805 0.0740
0.1144 0.0839 0.0745
0.1255 0.0874 0.0750
0.1367 0.0910 0.0753
0.1483 0.0946 0.0753
0.1602 0.0977 0.0752
0.1728 0.1003 0.0748
0.1854 0.1029 0.0746
0.1983 0.1056 0.0739
0.2116 0.1079 0.0733
0.2252 0.1104 0.0729
0.2390 0.1124 0.0723
0.2533 0.1149 0.0717
0.2677 0.1170 0.0716
0.2819 0.1196 0.0717
0.2966 0.1223 0.0719
0.3081 0.1264 0.0728
0.3206 0.1310 0.0737
0.3330 0.1350 0.0751
0.3481 0.1386 0.0775
0.3632 0.1415 0.0806
0.3788 0.1438 0.0841
0.3943 0.1461 0.0876
0.4099 0.1483 0.0913
0.4261 0.1504 0.0953
0.4421 0.1527 0.0992
0.4587 0.1550 0.1033
0.4750 0.1572 0.1073
0.4916 0.1595 0.1115
0.5078 0.1619 0.1158
0.5247 0.1642 0.1201
0.5407 0.1662 0.1246
0.5567 0.1689 0.1288
0.5718 0.1715 0.1326
0.5873 0.1741 0.1364
0.6024 0.1768 0.1403
0.6175 0.1795 0.1440
0.6322 0.1821 0.1479
0.6468 0.1850 0.1515
0.6611 0.1879 0.1548
0.6766 0.1917 0.1573
0.6913 0.1952 0.1600
0.7068 0.1987 0.1625
0.7210 0.2023 0.1650
0.7357 0.2061 0.1672
0.7499 0.2096 0.1694
0.7646 0.2135 0.1714
0.7783 0.2170 0.1734
0.7926 0.2210 0.1752
0.8063 0.2248 0.1768
0.8201 0.2287 0.1783
0.8339 0.2328 0.1795
0.8472 0.2367 0.1808
0.8601 0.2408 0.1820
0.0432 0.0627 0.0667
0.0432 0.0628 0.0681
0.0432 0.0634 0.0681
0.0433 0.0656 0.0693
0.0495 0.0675 0.0703
0.0566 0.0693 0.0712
0.0649 0.0709 0.0718
0.0742 0.0724 0.0723
0.0835 0.0744 0.0729
0.0936 0.0768 0.0734
0.1038 0.0794 0.0739
0.1146 0.0824 0.0743
0.1256 0.0854 0.0747
0.1369 0.0888 0.0751
0.1485 0.0923 0.0753
0.1604 0.0960 0.0753
0.1731 0.0992 0.0750
0.1856 0.1025 0.0746
0.1987 0.1057 0.0739
0.2119 0.1081 0.0733
0.2255 0.1104 0.0728
0.2394 0.1125 0.0723
0.2537 0.1148 0.0718
0.2680 0.1170 0.0717
0.2824 0.1195 0.0718
0.2970 0.1224 0.0720
0.3086 0.1267 0.0728
0.3208 0.1310 0.0738
0.3337 0.1348 0.0754
0.3483 0.1372 0.0786
0.3637 0.1398 0.0819
0.3788 0.1423 0.0852
0.3943 0.1447 0.0887
0.4101 0.1471 0.0923
0.4263 0.1495 0.0960
0.4423 0.1519 0.0999
0.4590 0.1543 0.1039
0.4750 0.1568 0.1077
0.4916 0.1591 0.1119
0.5078 0.1617 0.1159
0.5243 0.1639 0.1204
0.5407 0.1663 0.1247
0.5567 0.1690 0.1287
0.5722 0.1716 0.1324
0.5878 0.1744 0.1363
0.6024 0.1771 0.1399
0.6180 0.1799 0.1438
0.6322 0.1825 0.1474
0.6473 0.1854 0.1509
0.6624 0.1890 0.1536
0.6775 0.1925 0.1563
0.6922 0.1962 0.1589
0.7073 0.1999 0.1612
0.7215 0.2033 0.1638
0.7366 0.2071 0.1661
0.7508 0.2106 0.1684
0.7655 0.2143 0.1703
0.7792 0.2181 0.1722
0.7935 0.2221 0.1741
0.8072 0.2260 0.1756
0.8214 0.2301 0.1769
0.8348 0.2340 0.1785
0.8477 0.2378 0.1799
0.8610 0.2423 0.1808
0.0432 0.0678 0.0670
0.0432 0.0680 0.0684
0.0432 0.0681 0.0692
0.0447 0.0674 0.0682
0.0508 0.0692 0.0693
0.0573 0.0716 0.0706
0.0646 0.0744 0.0719
0.0741 0.0771 0.0717
0.0834 0.0788 0.0734
0.0935 0.0812 0.0739
0.1038 0.0833 0.0744
0.1147 0.0850 0.0746
0.1258 0.0873 0.0749
0.1374 0.0897 0.0751
0.1491 0.0925 0.0753
0.1612 0.0956 0.0752
0.1737 0.0983 0.0750
0.1867 0.1013 0.0746
0.1999 0.1043 0.0739
0.2131 0.1072 0.0735
0.2267 0.1102 0.0728
0.2407 0.1127 0.0723
0.2550 0.1150 0.0718
0.2694 0.1173 0.0716
0.2837 0.1199 0.0717
0.2979 0.1227 0.0721
0.3095 0.1263 0.0732
0.3214 0.1299 0.0747
0.3348 0.1331 0.0769
0.3497 0.1358 0.0801
0.3645 0.1386 0.0830
0.3801 0.1413 0.0863
0.3954 0.1439 0.0897
0.4110 0.1463 0.0931
0.4272 0.1490 0.0968
0.4432 0.1515 0.1005
0.4598 0.1541 0.1044
0.4758 0.1566 0.1082
0.4925 0.1591 0.1122
0.5087 0.1619 0.1161
0.5251 0.1643 0.1204
0.5416 0.1666 0.1246
0.5575 0.1693 0.1284
0.5727 0.1721 0.1323
0.5886 0.1750 0.1360
0.6033 0.1775 0.1396
0.6184 0.1804 0.1434
0.6335 0.1835 0.1466
0.6486 0.1870 0.1494
0.6633 0.1904 0.1520
0.6788 0.1940 0.1548
0.6935 0.1974 0.1574
0.7082 0.2011 0.1599
0.7228 0.2046 0.1623
0.7379 0.2084 0.1648
0.7517 0.2119 0.1670
0.7664 0.2157 0.1692
0.7806 0.2195 0.1710
0.7948 0.2234 0.1728
0.8086 0.2274 0.1743
0.8223 0.2314 0.1758
0.8357 0.2355 0.1772
0.8490 0.2395 0.1784
0.8619 0.2437 0.1794
0.0432 0.0736 0.0672
0.0432 0.0737 0.0686
0.0432 0.0738 0.0699
0.0432 0.0739 0.0707
0.0513 0.0727 0.0691
0.0588 0.0737 0.0692
0.0655 0.0769 0.0703
0.0760 0.0794 0.0699
0.0844 0.0818 0.0719
0.0937 0.0850 0.0733
0.1041 0.0874 0.0738
0.1149 0.0899 0.0742
0.1261 0.0923 0.0748
0.1378 0.0943 0.0753
0.1498 0.0967 0.0752
0.1622 0.0985 0.0750
0.1749 0.1004 0.0748
0.1877 0.1027 0.0745
0.2011 0.1050 0.0740
0.2146 0.1072 0.0734
0.2283 0.1097 0.0730
0.2424 0.1121 0.0725
0.2569 0.1149 0.0719
0.2715 0.1168 0.0720
0.2861 0.1188 0.0722
0.2990 0.1220 0.0729
0.3106 0.1257 0.0741
0.3226 0.1294 0.0755
0.3366 0.1326 0.0779
0.3517 0.1354 0.0810
0.3663 0.1381 0.0840
0.3817 0.1409 0.0872
0.3972 0.1436 0.0904
0.4128 0.1463 0.0938
0.4290 0.1491 0.0973
0.4447 0.1517 0.1008
0.4614 0.1545 0.1046
0.4774 0.1571 0.1084
0.4938 0.1596 0.1123
0.5100 0.1624 0.1161
0.5269 0.1649 0.1203
0.5429 0.1673 0.1245
0.5589 0.1702 0.1282
0.5740 0.1730 0.1318
0.5895 0.1758 0.1355
0.6042 0.1784 0.1389
0.6197 0.1817 0.1423
0.6344 0.1852 0.1450
0.6500 0.1888 0.1479
0.6646 0.1920 0.1505
0.6797 0.1955 0.1533
0.6944 0.1991 0.1559
0.7099 0.2027 0.1585
0.7241 0.2063 0.1610
0.7388 0.2098 0.1633
0.7530 0.2135 0.1654
0.7677 0.2173 0.1678
0.7815 0.2212 0.1694
0.7957 0.2252 0.1710
0.8094 0.2292 0.1728
0.8237 0.2333 0.1742
0.8374 0.2374 0.1758
0.8503 0.2414 0.1770
0.8632 0.2455 0.1782
0.0432 0.0800 0.0674
0.0432 0.0801 0.0688
0.0432 0.0801 0.0701
0.0450 0.0801 0.0714
0.0490 0.0803 0.0721
0.0575 0.0799 0.0699
0.0669 0.0798 0.0673
0.0784 0.0813 0.0681
0.0875 0.0836 0.0695
0.0961 0.0867 0.0715
0.1061 0.0903 0.0723
0.1162 0.0936 0.0730
0.1269 0.0968 0.0734
0.1386 0.0991 0.0739
0.1504 0.1016 0.0744
0.1630 0.1033 0.0744
0.1761 0.1052 0.0742
0.1891 0.1071 0.0740
0.2027 0.1084 0.0734
0.2167 0.1097 0.0728
0.2306 0.1114 0.0725
0.2448 0.1132 0.0722
0.2593 0.1152 0.0719
0.2739 0.1172 0.0719
0.2888 0.1194 0.0721
0.3010 0.1226 0.0731
0.3128 0.1262 0.0745
0.3248 0.1302 0.0757
0.3392 0.1331 0.0785
0.3543 0.1361 0.0813
0.3692 0.1389 0.0844
0.3845 0.1419 0.0874
0.3999 0.1445 0.0906
0.4154 0.1472 0.0940
0.4316 0.1502 0.0974
0.4474 0.1529 0.1008
0.4638 0.1556 0.1046
0.4798 0.1583 0.1082
0.4965 0.1611 0.1119
0.5127 0.1635 0.1161
0.5291 0.1662 0.1199
0.5447 0.1688 0.1238
0.5607 0.1716 0.1276
0.5758 0.1743 0.1312
0.5913 0.1773 0.1346
0.6064 0.1806 0.1374
0.6215 0.1840 0.1405
0.6366 0.1874 0.1434
0.6517 0.1909 0.1461
0.6664 0.1941 0.1489
0.6815 0.1977 0.1515
0.6962 0.2012 0.1541
0.7113 0.2046 0.1569
0.7259 0.2082 0.1591
0.7406 0.2119 0.1617
0.7548 0.2155 0.1639
0.7690 0.2195 0.1657
0.7832 0.2233 0.1676
0.7975 0.2274 0.1694
0.8112 0.2314 0.1710
0.8250 0.2355 0.1723
0.8388 0.2396 0.1739
0.8517 0.2437 0.1751
0.8645 0.2481 0.1762
0.0432 0.0870 0.0676
0.0432 0.0872 0.0688
0.0432 0.0872 0.0700
0.0443 0.0891 0.0718
0.0497 0.0890 0.0732
0.0541 0.0894 0.0735
0.0640 0.0884 0.0686
0.0794 0.0860 0.0671
0.0905 0.0866 0.0668
0.0992 0.0891 0.0690
0.1092 0.0922 0.0701
0.1193 0.0956 0.0708
0.1300 0.0989 0.0711
0.1409 0.1025 0.0720
0.1521 0.1061 0.0724
0.1646 0.1088 0.0724
0.1776 0.1108 0.0724
0.1906 0.1126 0.0728
0.2043 0.1137 0.0722
0.2185 0.1152 0.0718
0.2326 0.1164 0.0715
0.2474 0.1169 0.0711
0.2621 0.1183 0.0711
0.2766 0.1200 0.0712
0.2917 0.1221 0.0714
0.3044 0.1252 0.0724
0.3164 0.1289 0.0737
0.3283 0.1326 0.0752
0.3430 0.1355 0.0780
0.3579 0.1384 0.0809
0.3730 0.1411 0.0841
0.3881 0.1440 0.0871
0.4039 0.1469 0.0903
0.4192 0.1497 0.0935
0.4352 0.1524 0.0970
0.4510 0.1552 0.1004
0.4674 0.1579 0.1041
0.4834 0.1606 0.1075
0.4994 0.1632 0.1114
0.5153 0.1657 0.1152
0.5318 0.1683 0.1192
0.5478 0.1709 0.1230
0.5633 0.1739 0.1265
0.5785 0.1771 0.1295
0.5944 0.1805 0.1324
0.6091 0.1837 0.1353
0.6246 0.1871 0.1384
0.6393 0.1904 0.1411
0.6544 0.1937 0.1440
0.6691 0.1971 0.1468
0.6842 0.2005 0.1494
0.6984 0.2037 0.1520
0.7135 0.2074 0.1548
0.7277 0.2108 0.1571
0.7428 0.2147 0.1594
0.7570 0.2185 0.1615
0.7712 0.2223 0.1634
0.7850 0.2262 0.1653
0.7997 0.2302 0.1672
0.8130 0.2342 0.1688
0.8268 0.2383 0.1703
0.8405 0.2427 0.1716
0.8534 0.2467 0.1730
0.8668 0.2509 0.1741
0.0432 0.0949 0.0675
0.0432 0.0950 0.0687
0.0432 0.0951 0.0699
0.0435 0.0990 0.0712
0.0488 0.0989 0.0724
0.0548 0.0987 0.0734
0.0595 0.0993 0.0730
0.0736 0.0962 0.0680
0.0903 0.0930 0.0669
0.1019 0.0921 0.0667
0.1127 0.0949 0.0677
0.1232 0.0981 0.0683
0.1337 0.1013 0.0690
0.1450 0.1048 0.0690
0.1566 0.1082 0.0693
0.1682 0.1118 0.0700
0.1808 0.1151 0.0696
0.1931 0.1184 0.0699
0.2066 0.1206 0.0698
0.2202 0.1220 0.0701
0.2348 0.1227 0.0696
0.2497 0.1236 0.0692
0.2646 0.1253 0.0690
0.2799 0.1266 0.0688
0.2950 0.1281 0.0692
0.3090 0.1306 0.0702
0.3210 0.1340 0.0717
0.3328 0.1375 0.0732
0.3472 0.1403 0.0761
0.3623 0.1429 0.0793
0.3774 0.1458 0.0823
0.3928 0.1484 0.0855
0.4083 0.1510 0.0889
0.4236 0.1536 0.0922
0.4399 0.1564 0.0957
0.4554 0.1590 0.0991
0.4716 0.1617 0.1027
0.4876 0.1643 0.1061
0.5038 0.1670 0.1100
0.5198 0.1694 0.1137
0.5362 0.1722 0.1174
0.5514 0.1750 0.1208
0.5673 0.1781 0.1241
0.5825 0.1813 0.1270
0.5980 0.1845 0.1302
0.6131 0.1877 0.1330
0.6282 0.1912 0.1358
0.6428 0.1943 0.1387
0.6580 0.1975 0.1417
0.6722 0.2007 0.1443
0.6868 0.2041 0.1471
0.7015 0.2074 0.1497
0.7162 0.2108 0.1522
0.7308 0.2145 0.1545
0.7455 0.2182 0.1569
0.7597 0.2221 0.1590
0.7739 0.2260 0.1609
0.7877 0.2297 0.1629
0.8019 0.2340 0.1644
0.8157 0.2378 0.1662
0.8294 0.2419 0.1679
0.8428 0.2463 0.1691
0.8556 0.2505 0.1703
0.8690 0.2548 0.1713
0.0432 0.1033 0.0677
0.0432 0.1033 0.0684
0.0432 0.1043 0.0695
0.0432 0.1087 0.0699
0.0478 0.1094 0.0703
0.0539 0.1093 0.0712
0.0602 0.1089 0.0725
0.0670 0.1085 0.0713
0.0851 0.1032 0.0699
0.1017 0.1006 0.0665
0.1137 0.0984 0.0667
0.1262 0.1011 0.0666
0.1378 0.1042 0.0665
0.1494 0.1073 0.0663
0.1611 0.1108 0.0667
0.1733 0.1141 0.0665
0.1856 0.1177 0.0666
0.1983 0.1212 0.0666
0.2108 0.1247 0.0665
0.2238 0.1280 0.0664
0.2379 0.1307 0.0659
0.2522 0.1315 0.0664
0.2672 0.1330 0.0659
0.2828 0.1349 0.0656
0.2979 0.1371 0.0659
0.3132 0.1398 0.0666
0.3270 0.1422 0.0679
0.3386 0.1452 0.0697
0.3519 0.1482 0.0720
0.3670 0.1504 0.0755
0.3823 0.1529 0.0789
0.3979 0.1552 0.0824
0.4134 0.1577 0.0859
0.4287 0.1600 0.0893
0.4450 0.1626 0.0929
0.4609 0.1652 0.0964
0.4772 0.1675 0.1002
0.4927 0.1701 0.1036
0.5091 0.1728 0.1073
0.5247 0.1751 0.1111
0.5411 0.1776 0.1147
0.5567 0.1803 0.1183
0.5722 0.1834 0.1215
0.5873 0.1865 0.1244
0.6029 0.1897 0.1274
0.6175 0.1928 0.1304
0.6326 0.1957 0.1334
0.6468 0.1989 0.1361
0.6620 0.2021 0.1390
0.6762 0.2052 0.1419
0.6913 0.2085 0.1446
0.7055 0.2121 0.1469
0.7206 0.2157 0.1494
0.7348 0.2193 0.1516
0.7490 0.2228 0.1541
0.7628 0.2266 0.1561
0.7775 0.2306 0.1579
0.7912 0.2345 0.1598
0.8054 0.2386 0.1615
0.8188 0.2424 0.1633
0.8325 0.2467 0.1648
0.8459 0.2509 0.1660
0.8588 0.2552 0.1672
0.8716 0.2595 0.1684
0.0432 0.1118 0.0675
0.0432 0.1118 0.0682
0.0432 0.1140 0.0686
0.0432 0.1185 0.0680
0.0466 0.1204 0.0678
0.0530 0.1198 0.0685
0.0610 0.1186 0.0697
0.0677 0.1174 0.0719
0.0776 0.1176 0.0710
0.0977 0.1109 0.0707
0.1144 0.1086 0.0656
0.1263 0.1061 0.0663
0.1397 0.1077 0.0657
0.1532 0.1108 0.0644
0.1659 0.1138 0.0638
0.1780 0.1172 0.0639
0.1912 0.1203 0.0630
0.2036 0.1241 0.0633
0.2172 0.1274 0.0623
0.2303 0.1308 0.0621
0.2432 0.1346 0.0621
0.2572 0.1376 0.0616
0.2710 0.1407 0.0612
0.2857 0.1432 0.0616
0.3008 0.1455 0.0622
0.3168 0.1480 0.0626
0.3323 0.1505 0.0637
0.3448 0.1541 0.0653
0.3568 0.1577 0.0668
0.3719 0.1604 0.0700
0.3874 0.1623 0.0740
0.4030 0.1643 0.0778
0.4187 0.1660 0.0818
0.4343 0.1681 0.0855
0.4505 0.1702 0.0894
0.4663 0.1725 0.0930
0.4825 0.1747 0.0969
0.4981 0.1771 0.1004
0.5149 0.1795 0.1043
0.5304 0.1815 0.1082
0.5464 0.1840 0.1119
0.5620 0.1867 0.1151
0.5775 0.1897 0.1184
0.5926 0.1924 0.1216
0.6078 0.1955 0.1245
0.6224 0.1984 0.1276
0.6375 0.2014 0.1306
0.6517 0.2043 0.1335
0.6668 0.2076 0.1360
0.6811 0.2107 0.1388
0.6962 0.2144 0.1413
0.7104 0.2178 0.1436
0.7255 0.2216 0.1461
0.7393 0.2252 0.1481
0.7539 0.2291 0.1504
0.7677 0.2324 0.1527
0.7819 0.2364 0.1546
0.7952 0.2401 0.1564
0.8094 0.2444 0.1580
0.8223 0.2482 0.1596
0.8357 0.2520 0.1614
0.8490 0.2565 0.1626
0.8619 0.2608 0.1639
0.8748 0.2653 0.1649
0.0432 0.1206 0.0672
0.0432 0.1207 0.0676
0.0432 0.1240 0.0673
0.0432 0.1285 0.0659
0.0460 0.1311 0.0650
0.0528 0.1300 0.0659
0.0602 0.1289 0.0668
0.0698 0.1276 0.0684
0.0778 0.1269 0.0716
0.0904 0.1264 0.0721
0.1108 0.1194 0.0697
0.1276 0.1167 0.0643
0.1400 0.1140 0.0656
0.1543 0.1144 0.0640
0.1684 0.1175 0.0626
0.1830 0.1205 0.0611
0.1957 0.1237 0.0609
0.2093 0.1271 0.0600
0.2226 0.1304 0.0590
0.2365 0.1338 0.0585
0.2503 0.1374 0.0579
0.2643 0.1408 0.0571
0.2784 0.1442 0.0570
0.2924 0.1476 0.0577
0.3070 0.1506 0.0581
0.3212 0.1541 0.0591
0.3366 0.1570 0.0604
0.3494 0.1603 0.0622
0.3615 0.1636 0.0640
0.3765 0.1665 0.0672
0.3923 0.1693 0.0706
0.4083 0.1721 0.0740
0.4241 0.1750 0.0772
0.4399 0.1764 0.0815
0.4561 0.1786 0.0853
0.4718 0.1806 0.0892
0.4885 0.1827 0.0932
0.5038 0.1846 0.0971
0.5203 0.1865 0.1012
0.5362 0.1888 0.1049
0.5522 0.1910 0.1088
0.5673 0.1937 0.1119
0.5829 0.1963 0.1152
0.5980 0.1992 0.1184
0.6136 0.2021 0.1215
0.6277 0.2048 0.1244
0.6433 0.2083 0.1272
0.6575 0.2114 0.1298
0.6726 0.2148 0.1326
0.6868 0.2181 0.1350
0.7019 0.2217 0.1374
0.7162 0.2251 0.1399
0.7308 0.2287 0.1423
0.7446 0.2322 0.1444
0.7592 0.2358 0.1468
0.7730 0.2395 0.1488
0.7868 0.2433 0.1508
0.8001 0.2473 0.1525
0.8139 0.2512 0.1542
0.8268 0.2550 0.1558
0.8401 0.2589 0.1574
0.8534 0.2632 0.1588
0.8659 0.2676 0.1598
0.8783 0.2715 0.1612
0.0432 0.1295 0.0666
0.0432 0.1299 0.0667
0.0432 0.1339 0.0656
0.0432 0.1385 0.0637
0.0457 0.1413 0.0623
0.0522 0.1403 0.0629
0.0595 0.1392 0.0641
0.0699 0.1382 0.0658
0.0826 0.1379 0.0687
0.0905 0.1369 0.0725
0.1041 0.1332 0.0749
0.1257 0.1287 0.0670
0.1415 0.1248 0.0636
0.1548 0.1223 0.0644
0.1699 0.1217 0.0621
0.1846 0.1244 0.0608
0.2001 0.1275 0.0587
0.2151 0.1306 0.0570
0.2284 0.1339 0.0563
0.2424 0.1374 0.0553
0.2571 0.1407 0.0539
0.2706 0.1443 0.0537
0.2853 0.1476 0.0535
0.2999 0.1512 0.0539
0.3137 0.1548 0.0553
0.3288 0.1581 0.0566
0.3412 0.1620 0.0580
0.3539 0.1661 0.0594
0.3663 0.1699 0.0609
0.3819 0.1725 0.0645
0.3974 0.1755 0.0676
0.4132 0.1782 0.0713
0.4294 0.1808 0.0749
0.4452 0.1833 0.0784
0.4616 0.1861 0.0819
0.4776 0.1886 0.0855
0.4941 0.1912 0.0892
0.5100 0.1928 0.0933
0.5265 0.1946 0.0974
0.5420 0.1964 0.1015
0.5584 0.1992 0.1050
0.5735 0.2014 0.1084
0.5891 0.2041 0.1118
0.6042 0.2071 0.1147
0.6197 0.2102 0.1177
0.6344 0.2136 0.1202
0.6495 0.2164 0.1232
0.6642 0.2199 0.1256
0.6793 0.2234 0.1283
0.6935 0.2267 0.1306
0.7082 0.2303 0.1331
0.7224 0.2334 0.1357
0.7370 0.2368 0.1382
0.7508 0.2404 0.1404
0.7650 0.2442 0.1425
0.7788 0.2481 0.1442
0.7926 0.2516 0.1463
0.8054 0.2553 0.1481
0.8192 0.2594 0.1497
0.8317 0.2632 0.1512
0.8450 0.2672 0.1527
0.8579 0.2710 0.1545
0.8703 0.2755 0.1553
0.8827 0.2795 0.1567
0.0432 0.1382 0.0658
0.0432 0.1398 0.0655
0.0432 0.1436 0.0640
0.0432 0.1484 0.0614
0.0452 0.1514 0.0594
0.0511 0.1505 0.0603
0.0588 0.1495 0.0609
0.0697 0.1490 0.0629
0.0826 0.1486 0.0659
0.0970 0.1462 0.0709
0.1056 0.1453 0.0760
0.1182 0.1403 0.0764
0.1407 0.1372 0.0652
0.1564 0.1331 0.0627
0.1704 0.1304 0.0633
0.1859 0.1292 0.0610
0.2014 0.1315 0.0588
0.2175 0.1347 0.0566
0.2336 0.1378 0.0540
0.2484 0.1411 0.0522
0.2634 0.1444 0.0504
0.2779 0.1477 0.0498
0.2919 0.1514 0.0503
0.3075 0.1550 0.0513
0.3210 0.1589 0.0527
0.3341 0.1630 0.0544
0.3470 0.1668 0.0562
0.3610 0.1704 0.0585
0.3752 0.1736 0.0612
0.3894 0.1773 0.0635
0.4045 0.1806 0.0663
0.4199 0.1837 0.0693
0.4354 0.1867 0.0726
0.4514 0.1891 0.0763
0.4672 0.1920 0.0796
0.4834 0.1946 0.0832
0.4998 0.1968 0.0871
0.5158 0.1992 0.0908
0.5322 0.2016 0.0945
0.5482 0.2040 0.0983
0.5642 0.2077 0.1008
0.5798 0.2106 0.1041
0.5958 0.2140 0.1069
0.6104 0.2167 0.1099
0.6264 0.2199 0.1129
0.6411 0.2234 0.1154
0.6562 0.2266 0.1182
0.6708 0.2298 0.1208
0.6855 0.2332 0.1234
0.7002 0.2367 0.1257
0.7153 0.2399 0.1285
0.7290 0.2434 0.1309
0.7437 0.2468 0.1332
0.7575 0.2505 0.1353
0.7717 0.2543 0.1374
0.7855 0.2577 0.1393
0.7988 0.2615 0.1415
0.8121 0.2652 0.1431
0.8250 0.2689 0.1448
0.8379 0.2726 0.1464
0.8503 0.2766 0.1478
0.8628 0.2806 0.1491
0.8752 0.2846 0.1504
0.8876 0.2890 0.1514
0.0432 0.1470 0.0650
0.0432 0.1497 0.0638
0.0432 0.1537 0.0619
0.0432 0.1581 0.0591
0.0442 0.1617 0.0567
0.0501 0.1609 0.0571
0.0576 0.1600 0.0577
0.0694 0.1596 0.0602
0.0826 0.1593 0.0632
0.0972 0.1572 0.0682
0.1099 0.1541 0.0746
0.1205 0.1541 0.0800
0.1346 0.1497 0.0747
0.1565 0.1455 0.0635
0.1715 0.1412 0.0630
0.1867 0.1387 0.0621
0.2027 0.1370 0.0594
0.2194 0.1388 0.0566
0.2355 0.1420 0.0544
0.2526 0.1451 0.0509
0.2690 0.1483 0.0480
0.2846 0.1517 0.0460
0.2995 0.1552 0.0474
0.3132 0.1591 0.0493
0.3261 0.1631 0.0511
0.3397 0.1673 0.0528
0.3543 0.1709 0.0556
0.3695 0.1745 0.0583
0.3843 0.1779 0.0611
0.3987 0.1811 0.0638
0.4156 0.1842 0.0675
0.4292 0.1877 0.0696
0.4439 0.1906 0.0726
0.4596 0.1939 0.0756
0.4743 0.1970 0.0784
0.4905 0.2000 0.0818
0.5065 0.2025 0.0853
0.5211 0.2047 0.0887
0.5380 0.2075 0.0925
0.5540 0.2110 0.0954
0.5700 0.2148 0.0979
0.5855 0.2183 0.1006
0.6015 0.2225 0.1029
0.6166 0.2266 0.1050
0.6322 0.2304 0.1077
0.6473 0.2345 0.1098
0.6628 0.2379 0.1125
0.6775 0.2411 0.1152
0.6926 0.2446 0.1176
0.7068 0.2477 0.1203
0.7219 0.2512 0.1228
0.7361 0.2545 0.1253
0.7508 0.2585 0.1273
0.7646 0.2619 0.1295
0.7783 0.2653 0.1317
0.7917 0.2689 0.1336
0.8054 0.2728 0.1355
0.8183 0.2764 0.1371
0.8312 0.2799 0.1390
0.8437 0.2837 0.1405
0.8561 0.2875 0.1420
0.8685 0.2915 0.1432
0.8810 0.2957 0.1444
0.8930 0.2997 0.1455
0.0432 0.1565 0.0641
0.0432 0.1593 0.0628
0.0432 0.1633 0.0607
0.0432 0.1676 0.0577
0.0432 0.1719 0.0546
0.0488 0.1714 0.0548
0.0569 0.1706 0.0553
0.0687 0.1704 0.0579
0.0820 0.1702 0.0608
0.0970 0.1683 0.0657
0.1121 0.1649 0.0722
0.1228 0.1622 0.0790
0.1357 0.1629 0.0836
0.1527 0.1599 0.0708
0.1731 0.1539 0.0615
0.1873 0.1495 0.0632
0.2036 0.1470 0.0612
0.2207 0.1455 0.0574
0.2376 0.1466 0.0543
0.2546 0.1496 0.0511
0.2719 0.1527 0.0477
0.2897 0.1560 0.0437
0.3046 0.1598 0.0448
0.3179 0.1634 0.0474
0.3319 0.1673 0.0496
0.3481 0.1711 0.0529
0.3623 0.1747 0.0553
0.3785 0.1784 0.0585
0.3934 0.1817 0.0614
0.4090 0.1851 0.0644
0.4239 0.1883 0.0673
0.4392 0.1915 0.0703
0.4543 0.1944 0.0734
0.4703 0.1975 0.0767
0.4854 0.2004 0.0797
0.5012 0.2033 0.0829
0.5149 0.2064 0.0854
0.5314 0.2098 0.0884
0.5469 0.2134 0.0912
0.5615 0.2177 0.0930
0.5767 0.2221 0.0949
0.5918 0.2256 0.0976
0.6078 0.2296 0.1001
0.6233 0.2336 0.1024
0.6393 0.2377 0.1048
0.6531 0.2423 0.1062
0.6686 0.2463 0.1086
0.6837 0.2507 0.1104
0.6988 0.2549 0.1126
0.7135 0.2594 0.1144
0.7286 0.2634 0.1166
0.7433 0.2675 0.1184
0.7579 0.2710 0.1209
0.7717 0.2741 0.1232
0.7855 0.2781 0.1250
0.7988 0.2815 0.1272
0.8121 0.2853 0.1289
0.8250 0.2888 0.1306
0.8379 0.2926 0.1324
0.8503 0.2961 0.1338
0.8623 0.3001 0.1352
0.8748 0.3039 0.1365
0.8867 0.3081 0.1375
0.8983 0.3119 0.1389
0.0432 0.1661 0.0634
0.0432 0.1689 0.0619
0.0432 0.1726 0.0598
0.0432 0.1766 0.0571
