assets/luts/m31-log-cd3224a4.cube
TITLE "VisionColor: M31 - LOG"
LUT_3D_SIZE 4
0.0335 0.0342 0.0342
0.2728 0.0955 0.0390
0.7719 0.2212 0.1238
0.9118 0.4348 0.1692
0.0681 0.1917 0.1058
0.3004 0.2051 0.0755
0.8347 0.3806 0.1503
0.9137 0.5333 0.1832
0.1209 0.5539 0.2146
0.3568 0.6793 0.2208
0.8896 0.6519 0.1995
0.9179 0.6950 0.2108
0.2417 0.9066 0.3124
0.4528 0.9398 0.3216
0.8498 0.9492 0.3835
0.9524 0.9524 0.4047
0.0351 0.1907 0.2527
0.1222 0.1812 0.1796
0.7163 0.3271 0.1996
0.9121 0.4520 0.1714
0.0386 0.1940 0.2164
0.1698 0.2374 0.2444
0.7919 0.3179 0.1362
0.9121 0.4495 0.1711
0.1486 0.6588 0.4718
0.2297 0.6276 0.2722
0.8290 0.6679 0.1949
0.9185 0.7140 0.2143
0.2191 0.9193 0.5683
0.3624 0.9438 0.3669
0.7729 0.9515 0.4188
0.9542 0.9537 0.4246
0.1155 0.5242 0.6659
0.1084 0.5042 0.5288
0.4927 0.4942 0.3014
0.9575 0.6571 0.6709
0.1131 0.5150 0.6534
0.1152 0.5210 0.6873
0.5753 0.5144 0.4804
0.9591 0.6719 0.7116
0.1179 0.5355 0.6457
0.1362 0.6086 0.6706
0.7509 0.7464 0.7445
0.9619 0.7566 0.6844
0.2191 0.9193 0.9193
0.2191 0.9193 0.8314
0.7144 0.9668 0.6624
0.9673 0.9650 0.6152
0.1950 0.8261 0.8973
0.1942 0.8235 0.8912
0.2316 0.8015 0.9075
0.9665 0.7590 0.9159
0.1897 0.8042 0.9107
0.1859 0.7888 0.9142
0.2716 0.7823 0.9272
0.9687 0.7490 0.9232
0.1852 0.7859 0.9133
0.1858 0.7885 0.9142
0.3772 0.8044 0.9411
0.9732 0.7952 0.9515
0.1881 0.7976 0.9167
0.1953 0.8261 0.9155
0.4560 0.8759 0.9491
0.9886 0.9870 0.9468
