assets/luts/moonrise-01-66c86429.cube
# Enhanced with VOXCOLOR algorithms
LUT_3D_SIZE 32
0.109804 0.050980 0.101961
0.117943 0.054843 0.103397
0.126082 0.058707 0.104833
0.134221 0.062570 0.106269
0.142360 0.066434 0.107706
0.150499 0.070297 0.109142
0.166487 0.073728 0.109342
0.184045 0.077072 0.109296
0.201603 0.080417 0.109250
0.219161 0.083761 0.109204
0.236718 0.087105 0.109157
0.260050 0.090313 0.108443
0.286269 0.093452 0.107396
0.312487 0.096592 0.106348
0.338706 0.099731 0.105300
0.364925 0.102870 0.104252
0.392886 0.106079 0.103335
0.422589 0.109356 0.102549
0.452292 0.112633 0.101763
0.481996 0.115911 0.100978
0.511699 0.119188 0.100192
0.540328 0.122473 0.099835
0.566810 0.125771 0.100334
0.593291 0.129070 0.100834
0.619773 0.132368 0.101334
0.646254 0.135667 0.101834
0.671178 0.138758 0.102494
0.688315 0.140810 0.103956
0.705452 0.142863 0.105418
0.722589 0.144915 0.106880
0.739726 0.146968 0.108342
0.756863 0.149020 0.109804
0.113425 0.058957 0.106113
0.121595 0.062994 0.107537
0.129765 0.067030 0.108962
0.137935 0.071067 0.110386
0.146105 0.075104 0.111811
0.154275 0.079141 0.113235
0.170460 0.082817 0.113423
0.188249 0.086421 0.113364
0.206038 0.090025 0.113304
0.223826 0.093629 0.113245
0.241615 0.097233 0.113186
0.265083 0.100628 0.112444
0.291392 0.103920 0.111361
0.317700 0.107211 0.110277
0.344008 0.110502 0.109194
0.370316 0.113794 0.108111
0.398217 0.117063 0.107142
0.427710 0.120310 0.106286
0.457203 0.123557 0.105430
0.486696 0.126805 0.104574
0.516189 0.130052 0.103719
0.544521 0.133261 0.103282
0.570532 0.136395 0.103682
0.596543 0.139529 0.104081
0.622554 0.142663 0.104481
0.648565 0.145797 0.104881
0.673043 0.148741 0.105447
0.689856 0.150733 0.106842
0.706668 0.152725 0.108237
0.723481 0.154717 0.109632
0.740294 0.156708 0.111027
0.757107 0.158700 0.112422
0.117047 0.066934 0.110264
0.125247 0.071144 0.111677
0.133448 0.075354 0.113090
0.141648 0.079564 0.114503
0.149849 0.083774 0.115916
0.158050 0.087984 0.117329
0.174433 0.091906 0.117504
0.192453 0.095769 0.117431
0.210472 0.099633 0.117359
0.228492 0.103497 0.117286
0.246512 0.107360 0.117214
0.270117 0.110944 0.116444
0.296515 0.114387 0.115326
0.322912 0.117830 0.114207
0.349310 0.121274 0.113089
0.375708 0.124717 0.111970
0.403548 0.128047 0.110948
0.432831 0.131264 0.110023
0.462114 0.134482 0.109097
0.491396 0.137699 0.108171
0.520679 0.140916 0.107246
0.548714 0.144050 0.106728
0.574255 0.147020 0.107029
0.599795 0.149989 0.107329
0.625335 0.152958 0.107629
0.650876 0.155928 0.107929
0.674907 0.158724 0.108401
0.691396 0.160655 0.109729
0.707885 0.162587 0.111057
0.724374 0.164518 0.112384
0.740862 0.166449 0.113712
0.757351 0.168380 0.115040
0.120668 0.074911 0.114416
0.128899 0.079294 0.115817
0.137131 0.083678 0.117218
0.145362 0.088061 0.118620
0.153593 0.092444 0.120021
0.161825 0.096828 0.121422
0.178405 0.100994 0.121585
0.196656 0.105118 0.121499
0.214907 0.109241 0.121413
0.233158 0.113365 0.121328
0.251408 0.117488 0.121242
0.275150 0.121259 0.120444
0.301637 0.124855 0.119291
0.328125 0.128450 0.118137
0.354612 0.132045 0.116983
0.381099 0.135640 0.115830
0.408879 0.139032 0.114755
0.437952 0.142219 0.113759
0.467024 0.145406 0.112764
0.496097 0.148593 0.111768
0.525169 0.151780 0.110772
0.552908 0.154839 0.110175
0.577977 0.157644 0.110376
0.603047 0.160449 0.110576
0.628117 0.163253 0.110777
0.653186 0.166058 0.110977
0.676772 0.168707 0.111354
0.692937 0.170578 0.112615
0.709101 0.172448 0.113876
0.725266 0.174319 0.115137
0.741431 0.176190 0.116398
0.757595 0.178060 0.117658
0.124289 0.082888 0.118567
0.132551 0.087444 0.119957
0.140813 0.092001 0.121347
0.149076 0.096558 0.122736
0.157338 0.101115 0.124126
0.165600 0.105671 0.125516
0.182378 0.110083 0.125665
0.200860 0.114466 0.125566
0.219342 0.118849 0.125468
0.237823 0.123232 0.125369
0.256305 0.127616 0.125270
0.280183 0.131575 0.124445
0.306760 0.135322 0.123256
0.333337 0.139069 0.122067
0.359914 0.142817 0.120878
0.386491 0.146564 0.119689
0.414211 0.150016 0.118561
0.443073 0.153173 0.117496
0.471935 0.156330 0.116430
0.500797 0.159487 0.115365
0.529660 0.162643 0.114299
0.557101 0.165628 0.113622
0.581700 0.168268 0.113723
0.606299 0.170908 0.113824
0.630898 0.173548 0.113924
0.655497 0.176188 0.114025
0.678637 0.178690 0.114308
0.694477 0.180500 0.115502
0.710318 0.182310 0.116695
0.726158 0.184120 0.117889
0.741999 0.185930 0.119083
0.757839 0.187741 0.120277
0.127910 0.090865 0.122719
0.136203 0.095595 0.124097
0.144496 0.100325 0.125475
0.152789 0.105055 0.126853
0.161082 0.109785 0.128231
0.169375 0.114515 0.129609
0.186351 0.119172 0.129746
0.205064 0.123815 0.129634
0.223776 0.128458 0.129522
0.242489 0.133100 0.129410
0.261202 0.137743 0.129299
0.285217 0.141890 0.128445
0.311883 0.145789 0.127221
0.338550 0.149689 0.125997
0.365216 0.153588 0.124772
0.391883 0.157487 0.123548
0.419542 0.161000 0.122368
0.448194 0.164127 0.121232
0.476846 0.167254 0.120097
0.505498 0.170380 0.118961
0.534150 0.173507 0.117826
0.561294 0.176417 0.117069
0.585422 0.178892 0.117070
0.609551 0.181368 0.117071
0.633680 0.183843 0.117072
0.657808 0.186319 0.117073
0.680501 0.188673 0.117262
0.696018 0.190423 0.118388
0.711534 0.192172 0.119515
0.727051 0.193922 0.120641
0.742567 0.195671 0.121768
0.758083 0.197421 0.122895
0.130470 0.104027 0.129488
0.138795 0.109111 0.130951
0.147120 0.114195 0.132413
0.155445 0.119278 0.133876
0.163770 0.124362 0.135338
0.172095 0.129446 0.136800
0.189117 0.134563 0.137022
0.207879 0.139686 0.136995
0.226640 0.144810 0.136969
0.245402 0.149934 0.136942
0.264164 0.155057 0.136916
0.288183 0.159533 0.136065
0.314832 0.163685 0.134803
0.341480 0.167837 0.133540
0.368128 0.171988 0.132277
0.394776 0.176140 0.131015
0.422375 0.179749 0.129730
0.450925 0.182814 0.128424
0.479475 0.185879 0.127117
0.508025 0.188945 0.125811
0.536575 0.192010 0.124504
0.563606 0.194792 0.123554
0.587598 0.197008 0.123319
0.611591 0.199224 0.123083
0.635584 0.201440 0.122848
0.659577 0.203656 0.122612
0.682154 0.205767 0.122575
0.697657 0.207353 0.123528
0.713159 0.208939 0.124482
0.728662 0.210525 0.125436
0.744164 0.212111 0.126389
0.759666 0.213697 0.127343
0.132817 0.118227 0.136781
0.141174 0.123700 0.138347
0.149532 0.129174 0.139913
0.157889 0.134647 0.141479
0.166246 0.140121 0.143045
0.174603 0.145594 0.144611
0.191642 0.151214 0.144937
0.210416 0.156862 0.145016
0.229191 0.162511 0.145094
0.247965 0.168160 0.145172
0.266739 0.173809 0.145251
0.290737 0.178641 0.144409
0.317345 0.183066 0.143108
0.343954 0.187490 0.141806
0.370562 0.191915 0.140505
0.397171 0.196339 0.139203
0.424709 0.200050 0.137803
0.453179 0.203048 0.136306
0.481648 0.206045 0.134808
0.510117 0.209043 0.133310
0.538587 0.212041 0.131812
0.565541 0.214685 0.130647
0.589465 0.216622 0.130148
0.613389 0.218560 0.129648
0.637313 0.220497 0.129149
0.661237 0.222435 0.128649
0.683765 0.224283 0.128360
0.699316 0.225685 0.129119
0.714866 0.227087 0.129879
0.730416 0.228488 0.130638
0.745967 0.229890 0.131397
0.761517 0.231292 0.132157
0.135164 0.132426 0.144074
0.143554 0.138290 0.145744
0.151943 0.144153 0.147413
0.160333 0.150016 0.149082
0.168723 0.155879 0.150752
0.177112 0.161743 0.152421
0.194167 0.167865 0.152852
0.212954 0.174039 0.153036
0.231741 0.180212 0.153219
0.250528 0.186386 0.153402
0.269315 0.192560 0.153586
0.293290 0.197750 0.152753
0.319859 0.202447 0.151413
0.346427 0.207144 0.150072
0.372996 0.211841 0.148732
0.399565 0.216538 0.147391
0.427043 0.220352 0.145877
0.455432 0.223282 0.144188
0.483821 0.226211 0.142499
0.512210 0.229141 0.140810
0.540599 0.232071 0.139121
0.567476 0.234577 0.137740
0.591331 0.236236 0.136977
0.615187 0.237896 0.136213
0.639042 0.239555 0.135450
0.662897 0.241214 0.134687
0.685376 0.242799 0.134145
0.700974 0.244017 0.134710
0.716573 0.245234 0.135275
0.732171 0.246452 0.135840
0.747770 0.247670 0.136406
0.763368 0.248887 0.136971
0.137511 0.146626 0.151367
0.145933 0.152879 0.153140
0.154355 0.159132 0.154913
0.162777 0.165385 0.156686
0.171199 0.171638 0.158459
0.179621 0.177891 0.160232
0.196691 0.184516 0.160767
0.215491 0.191215 0.161056
0.234291 0.197914 0.161344
0.253091 0.204613 0.161633
0.271891 0.211312 0.161921
0.295843 0.216858 0.161097
0.322372 0.221828 0.159718
0.348901 0.226798 0.158339
0.375430 0.231767 0.156959
0.401959 0.236737 0.155580
0.429377 0.240653 0.153950
0.457686 0.243515 0.152070
0.485994 0.246377 0.150190
0.514302 0.249240 0.148309
0.542611 0.252102 0.146429
0.569412 0.254470 0.144833
0.593198 0.255851 0.143806
0.616984 0.257231 0.142778
0.640771 0.258612 0.141751
0.664557 0.259992 0.140724
0.686987 0.261315 0.139929
0.702633 0.262349 0.140301
0.718280 0.263382 0.140672
0.733926 0.264416 0.141043
0.749573 0.265449 0.141414
0.765219 0.266483 0.141785
0.139859 0.160826 0.158660
0.148313 0.167469 0.160536
0.156767 0.174111 0.162413
0.165221 0.180754 0.164289
0.173676 0.187397 0.166166
0.182130 0.194039 0.168042
0.199216 0.201167 0.168683
0.218029 0.208391 0.169076
0.236841 0.215615 0.169469
0.255654 0.222839 0.169863
0.274466 0.230063 0.170256
0.298396 0.235966 0.169441
0.324886 0.241209 0.168023
0.351375 0.246451 0.166605
0.377864 0.251694 0.165187
0.404353 0.256936 0.163768
0.431711 0.260955 0.162023
0.459939 0.263749 0.159952
0.488167 0.266544 0.157880
0.516395 0.269338 0.155809
0.544623 0.272132 0.153737
0.571347 0.274363 0.151926
0.595065 0.275465 0.150635
0.618782 0.276567 0.149343
0.642500 0.277669 0.148052
0.666217 0.278771 0.146761
0.688597 0.279831 0.145714
0.704292 0.280681 0.145891
0.719987 0.281530 0.146068
0.735681 0.282379 0.146245
0.751376 0.283229 0.146422
0.767070 0.284078 0.146599
0.141368 0.180216 0.168820
0.149813 0.187047 0.170706
0.158258 0.193878 0.172592
0.166703 0.200710 0.174478
0.175148 0.207541 0.176364
0.183593 0.214373 0.178251
0.200610 0.221938 0.178969
0.219341 0.229650 0.179454
0.238073 0.237362 0.179940
0.256804 0.245074 0.180425
0.275536 0.252786 0.180910
0.299371 0.259057 0.180090
0.325758 0.264608 0.178617
0.352146 0.270158 0.177145
0.378533 0.275708 0.175672
0.404920 0.281258 0.174199
0.432203 0.285416 0.172307
0.460383 0.288180 0.169994
0.488563 0.290945 0.167681
0.516742 0.293710 0.165368
0.544922 0.296474 0.163054
0.571635 0.298590 0.160966
0.595415 0.299406 0.159327
0.619194 0.300222 0.157687
0.642974 0.301039 0.156048
0.666754 0.301855 0.154408
0.689215 0.302628 0.153021
0.705086 0.303183 0.152891
0.720956 0.303739 0.152762
0.736827 0.304295 0.152632
0.752697 0.304850 0.152503
0.768568 0.305406 0.152374
0.142458 0.202200 0.180412
0.150873 0.209120 0.182262
0.159288 0.216039 0.184111
0.167703 0.222959 0.185960
0.176118 0.229879 0.187809
0.184533 0.236798 0.189658
0.201439 0.244769 0.190442
0.220042 0.252951 0.191012
0.238646 0.261132 0.191583
0.257249 0.269314 0.192153
0.275853 0.277495 0.192723
0.299557 0.284140 0.191890
0.325811 0.290015 0.190356
0.352065 0.295891 0.188821
0.378319 0.301766 0.187287
0.404573 0.307642 0.185752
0.431774 0.311957 0.183695
0.459922 0.314711 0.181115
0.488070 0.317464 0.178535
0.516217 0.320218 0.175956
0.544365 0.322972 0.173376
0.571099 0.324984 0.170980
0.595007 0.325510 0.168950
0.618914 0.326037 0.166920
0.642821 0.326564 0.164891
0.666728 0.327091 0.162861
0.689336 0.327565 0.161088
0.705447 0.327772 0.160596
0.721557 0.327979 0.160104
0.737668 0.328186 0.159612
0.753778 0.328394 0.159120
0.769889 0.328601 0.158628
0.143548 0.224185 0.192005
0.151933 0.231193 0.193817
0.160318 0.238200 0.195629
0.168703 0.245208 0.197442
0.177088 0.252216 0.199254
0.185473 0.259224 0.201066
0.202267 0.267601 0.201914
0.220743 0.276252 0.202570
0.239218 0.284903 0.203226
0.257694 0.293554 0.203881
0.276169 0.302204 0.204537
0.299742 0.309222 0.203691
0.325863 0.315423 0.202094
0.351984 0.321624 0.200498
0.378106 0.327825 0.198901
0.404227 0.334026 0.197305
0.431345 0.338498 0.195083
0.459461 0.341241 0.192237
0.487577 0.343984 0.189390
0.515692 0.346727 0.186544
0.543808 0.349470 0.183697
0.570563 0.351378 0.180993
0.594598 0.351615 0.178573
0.618633 0.351852 0.176153
0.642668 0.352090 0.173733
0.666703 0.352327 0.171313
0.689457 0.352501 0.169154
0.705808 0.352360 0.168300
0.722158 0.352219 0.167446
0.738509 0.352078 0.166591
0.754860 0.351937 0.165737
0.771210 0.351795 0.164883
0.144638 0.246170 0.203598
0.152993 0.253266 0.205373
0.161348 0.260362 0.207148
0.169703 0.267457 0.208923
0.178058 0.274553 0.210699
0.186414 0.281649 0.212474
0.203096 0.290432 0.213387
0.221443 0.299552 0.214128
0.239791 0.308673 0.214869
0.258138 0.317793 0.215609
0.276486 0.326914 0.216350
0.299927 0.334304 0.215492
0.325916 0.340831 0.213833
0.351904 0.347357 0.212175
0.377892 0.353883 0.210516
0.403880 0.360409 0.208858
0.430916 0.365039 0.206472
0.459000 0.367771 0.203359
0.487084 0.370503 0.200245
0.515167 0.373235 0.197132
0.543251 0.375968 0.194019
0.570028 0.377772 0.191007
0.594190 0.377720 0.188197
0.618353 0.377667 0.185386
0.642515 0.377615 0.182576
0.666678 0.377563 0.179766
0.689578 0.377438 0.177221
0.706169 0.376949 0.176004
0.722760 0.376459 0.174788
0.739350 0.375969 0.173571
0.755941 0.375480 0.172354
0.772531 0.374990 0.171137
0.145728 0.268155 0.215191
0.154053 0.275339 0.216929
0.162378 0.282523 0.218667
0.170704 0.289707 0.220405
0.179029 0.296891 0.222143
0.187354 0.304075 0.223882
0.203924 0.313263 0.224860
0.222144 0.322853 0.225686
0.240364 0.332443 0.226512
0.258583 0.342033 0.227338
0.276803 0.351623 0.228164
0.300113 0.359387 0.227292
0.325968 0.366238 0.225572
0.351823 0.373090 0.223851
0.377679 0.379942 0.222131
0.403534 0.386793 0.220410
0.430487 0.391580 0.217860
0.458539 0.394301 0.214480
0.486591 0.397022 0.211100
0.514642 0.399744 0.207720
0.542694 0.402465 0.204340
0.569492 0.404166 0.201020
0.593782 0.403824 0.197820
0.618072 0.403483 0.194619
0.642362 0.403141 0.191419
0.666653 0.402799 0.188218
0.689700 0.402375 0.185288
0.706530 0.401537 0.183709
0.723361 0.400699 0.182130
0.740191 0.399861 0.180550
0.757022 0.399023 0.178971
0.773852 0.398185 0.177392
0.146295 0.293273 0.228603
0.154530 0.300207 0.230143
0.162766 0.307141 0.231683
0.171001 0.314075 0.233223
0.179237 0.321009 0.234764
0.187473 0.327943 0.236304
0.203875 0.337329 0.237257
0.221911 0.347205 0.238093
0.239946 0.357082 0.238929
0.257982 0.366958 0.239765
0.276018 0.376834 0.240601
0.299151 0.384882 0.239680
0.324834 0.392016 0.237879
0.350516 0.399150 0.236079
0.376198 0.406284 0.234279
0.401880 0.413418 0.232478
0.428731 0.418367 0.229757
0.456750 0.421130 0.226114
0.484769 0.423892 0.222471
0.512788 0.426655 0.218828
0.540807 0.429418 0.215185
0.567640 0.431074 0.211557
0.592103 0.430519 0.207960
0.616566 0.429963 0.204364
0.641030 0.429408 0.200767
0.665493 0.428852 0.197171
0.688732 0.428191 0.193844
0.705850 0.427001 0.191867
0.722968 0.425810 0.189890
0.740086 0.424620 0.187913
0.757204 0.423430 0.185936
0.774323 0.422240 0.183959
0.146338 0.321525 0.243835
0.154424 0.327871 0.245016
0.162511 0.334217 0.246197
0.170597 0.340563 0.247378
0.178683 0.346909 0.248559
0.186770 0.353254 0.249740
0.202947 0.362629 0.250580
0.220743 0.372609 0.251350
0.238539 0.382589 0.252121
0.256335 0.392569 0.252892
0.274131 0.402549 0.253663
0.297043 0.410791 0.252655
0.322512 0.418165 0.250756
0.347982 0.425538 0.248858
0.373451 0.432912 0.246960
0.398920 0.440285 0.245061
0.425648 0.445400 0.242161
0.453633 0.448256 0.238259
0.481618 0.451113 0.234356
0.509603 0.453969 0.230454
0.537589 0.456825 0.226551
0.564473 0.458498 0.222617
0.589154 0.457804 0.218618
0.613835 0.457110 0.214620
0.638517 0.456416 0.210621
0.663198 0.455722 0.206623
0.686675 0.454886 0.202889
0.704128 0.453340 0.200479
0.721582 0.451794 0.198069
0.739035 0.450247 0.195659
0.756488 0.448701 0.193249
0.773942 0.447155 0.190839
0.146381 0.349777 0.259067
0.154318 0.355535 0.259889
0.162255 0.361293 0.260711
0.170192 0.367050 0.261533
0.178130 0.372808 0.262355
0.186067 0.378566 0.263177
0.202020 0.387928 0.263902
0.219576 0.398012 0.264608
0.237132 0.408096 0.265313
0.254689 0.418179 0.266019
0.272245 0.428263 0.266725
0.294934 0.436700 0.265630
0.320191 0.444313 0.263633
0.345447 0.451926 0.261637
0.370704 0.459539 0.259641
0.395960 0.467152 0.257645
0.422564 0.472434 0.254566
0.450516 0.475383 0.250404
0.478467 0.478333 0.246242
0.506419 0.481282 0.242080
0.534371 0.484232 0.237918
0.561305 0.485921 0.233677
0.586205 0.485089 0.229276
0.611104 0.484256 0.224876
0.636004 0.483424 0.220475
0.660903 0.482592 0.216075
0.684618 0.481581 0.211934
0.702407 0.479679 0.209091
0.720195 0.477777 0.206248
0.737984 0.475874 0.203405
0.755773 0.473972 0.200563
0.773561 0.472070 0.197720
0.146424 0.378029 0.274299
0.154212 0.383199 0.274762
0.162000 0.388368 0.275224
0.169788 0.393538 0.275687
0.177576 0.398708 0.276150
0.185364 0.403877 0.276613
0.201092 0.413228 0.277224
0.218409 0.423415 0.277865
0.235725 0.433603 0.278506
0.253042 0.443790 0.279146
0.270358 0.453977 0.279787
0.292826 0.462608 0.278604
0.317869 0.470461 0.276510
0.342913 0.478314 0.274416
0.367956 0.486167 0.272322
0.393000 0.494020 0.270228
0.419480 0.499467 0.266970
0.447399 0.502510 0.262549
0.475317 0.505553 0.258128
0.503235 0.508596 0.253706
0.531153 0.511639 0.249285
0.558138 0.513344 0.244737
0.583256 0.512374 0.239934
0.608373 0.511403 0.235132
0.633491 0.510432 0.230329
0.658609 0.509462 0.225527
0.682561 0.508277 0.220979
0.700685 0.506018 0.217703
0.718809 0.503760 0.214427
0.736933 0.501502 0.211151
0.755057 0.499243 0.207876
0.773181 0.496985 0.204600
0.146467 0.406281 0.289530
0.154106 0.410863 0.289634
0.161745 0.415444 0.289738
0.169384 0.420026 0.289842
0.177022 0.424607 0.289946
0.184661 0.429189 0.290050
0.200165 0.438528 0.290547
0.217242 0.448819 0.291122
0.234318 0.459110 0.291698
0.251395 0.469401 0.292273
0.268472 0.479692 0.292849
0.290718 0.488517 0.291579
0.315548 0.496609 0.289387
0.340378 0.504702 0.287195
0.365209 0.512794 0.285003
0.390039 0.520887 0.282811
0.416397 0.526501 0.279375
0.444281 0.529637 0.274694
0.472166 0.532774 0.270013
0.500051 0.535910 0.265333
0.527935 0.539046 0.260652
0.554970 0.540767 0.255797
0.580306 0.539659 0.250592
0.605642 0.538550 0.245388
0.630978 0.537441 0.240183
0.656314 0.536332 0.234979
0.680504 0.534972 0.230024
0.698963 0.532357 0.226315
0.717422 0.529743 0.222606
0.735882 0.527129 0.218898
0.754341 0.524514 0.215189
0.772800 0.521900 0.211480
0.146482 0.434900 0.304971
0.153892 0.438669 0.304625
0.161301 0.442437 0.304280
0.168710 0.446206 0.303935
0.176120 0.449974 0.303589
0.183529 0.453743 0.303244
0.198757 0.462892 0.303561
0.215549 0.473117 0.304011
0.232342 0.483343 0.304461
0.249134 0.493568 0.304910
0.265926 0.503793 0.305360
0.287922 0.512715 0.303979
0.312520 0.520986 0.301683
0.337118 0.529256 0.299386
0.361716 0.537526 0.297090
0.386314 0.545797 0.294793
0.412537 0.551567 0.291191
0.440387 0.554837 0.286283
0.468236 0.558107 0.281375
0.496085 0.561377 0.276467
0.523935 0.564648 0.271559
0.551022 0.566445 0.266432
0.576586 0.565295 0.260867
0.602149 0.564146 0.255302
0.627713 0.562997 0.249737
0.653276 0.561847 0.244172
0.677714 0.560408 0.238849
0.696520 0.557522 0.234736
0.715327 0.554635 0.230624
0.734133 0.551748 0.226511
0.752939 0.548861 0.222398
0.771746 0.545974 0.218285
0.146441 0.464252 0.320827
0.153460 0.466758 0.319852
0.160480 0.469264 0.318877
0.167499 0.471771 0.317903
0.174519 0.474277 0.316928
0.181538 0.476783 0.315953
0.196390 0.485385 0.315959
0.212808 0.495206 0.316162
0.229225 0.505028 0.316365
0.245643 0.514849 0.316568
0.262061 0.524670 0.316771
0.283752 0.533494 0.315229
0.308078 0.541818 0.312816
0.332405 0.550143 0.310402
0.356731 0.558468 0.307988
0.381058 0.566793 0.305574
0.407127 0.572698 0.301832
0.434937 0.576183 0.296761
0.462747 0.579668 0.291689
0.490558 0.583153 0.286618
0.518368 0.586638 0.281547
0.545512 0.588630 0.276218
0.571322 0.587636 0.270376
0.597132 0.586642 0.264533
0.622942 0.585648 0.258691
0.648752 0.584654 0.252848
0.673456 0.583328 0.247236
0.692634 0.580335 0.242777
0.711812 0.577343 0.238317
0.730990 0.574351 0.233857
0.750167 0.571359 0.229398
0.769345 0.568367 0.224938
0.146399 0.493604 0.336684
0.153029 0.494848 0.335079
0.159659 0.496092 0.333475
0.166288 0.497336 0.331871
0.172918 0.498580 0.330266
0.179547 0.499824 0.328662
0.194022 0.507879 0.328358
0.210066 0.517296 0.328314
0.226109 0.526713 0.328270
0.242153 0.536130 0.328226
0.258196 0.545547 0.328182
0.279581 0.554272 0.326480
0.303636 0.562651 0.323949
0.327692 0.571030 0.321417
0.351747 0.579410 0.318886
0.375802 0.587789 0.316355
0.401716 0.593829 0.312473
0.429487 0.597528 0.307238
0.457259 0.601228 0.302004
0.485030 0.604928 0.296769
0.512802 0.608628 0.291534
0.540002 0.610815 0.286005
0.566058 0.609976 0.279885
0.592114 0.609138 0.273765
0.618171 0.608300 0.267644
0.644227 0.607461 0.261524
0.669199 0.606247 0.255623
0.688748 0.603149 0.250817
0.708297 0.600052 0.246011
0.727846 0.596955 0.241204
0.747396 0.593857 0.236398
0.766945 0.590760 0.231592
0.146358 0.522955 0.352540
0.152598 0.522937 0.350307
0.158837 0.522919 0.348073
0.165077 0.522901 0.345839
0.171317 0.522882 0.343605
0.177557 0.522864 0.341371
0.191655 0.530372 0.340756
0.207324 0.539385 0.340465
0.222993 0.548397 0.340174
0.238662 0.557410 0.339883
0.254332 0.566423 0.339592
0.275411 0.575050 0.337730
0.299195 0.583484 0.335081
0.322979 0.591918 0.332433
0.346763 0.600351 0.329785
0.370546 0.608785 0.327136
0.396305 0.614959 0.323113
0.424037 0.618874 0.317716
0.451770 0.622789 0.312318
0.479503 0.626703 0.306920
0.507235 0.630618 0.301522
0.534491 0.633000 0.295791
0.560794 0.632317 0.289393
0.587097 0.631634 0.282996
0.613400 0.630951 0.276598
0.639703 0.630269 0.270200
0.664942 0.629166 0.264010
0.684862 0.625963 0.258857
0.704783 0.622760 0.253704
0.724703 0.619558 0.248551
0.744624 0.616355 0.243398
0.764544 0.613153 0.238245
0.146317 0.552307 0.368397
0.152166 0.551027 0.365534
0.158016 0.549746 0.362670
0.163866 0.548466 0.359807
0.169716 0.547185 0.356943
0.175566 0.545904 0.354080
0.189287 0.552865 0.353154
0.204582 0.561474 0.352617
0.219877 0.570082 0.352079
0.235172 0.578691 0.351541
0.250467 0.587300 0.351003
0.271241 0.595828 0.348980
0.294753 0.604316 0.346214
0.318266 0.612805 0.343449
0.341778 0.621293 0.340683
0.365291 0.629781 0.337917
0.390894 0.636090 0.333754
0.418588 0.640220 0.328193
0.446281 0.644349 0.322632
0.473975 0.648478 0.317071
0.501669 0.652608 0.311510
0.528981 0.655185 0.305577
0.555530 0.654658 0.298902
0.582080 0.654130 0.292227
0.608629 0.653603 0.285552
0.635178 0.653076 0.278876
0.660684 0.652085 0.272397
0.680976 0.648777 0.266897
0.701268 0.645469 0.261398
0.721560 0.642161 0.255898
0.741852 0.638853 0.250398
0.762143 0.635545 0.244898
0.146623 0.580426 0.383469
0.152002 0.577858 0.379997
0.157381 0.575290 0.376525
0.162761 0.572721 0.373053
0.168140 0.570153 0.369581
0.173519 0.567585 0.366109
0.186818 0.573941 0.364869
0.201701 0.582081 0.364076
0.216584 0.590222 0.363283
0.231468 0.598363 0.362490
0.246351 0.606504 0.361697
0.266805 0.614898 0.359516
0.290044 0.623419 0.356641
0.313283 0.631939 0.353766
0.336522 0.640460 0.350892
0.359761 0.648981 0.348017
0.385212 0.655427 0.343731
0.412877 0.659798 0.338033
0.440541 0.664169 0.332336
0.468205 0.668540 0.326639
0.495869 0.672911 0.320941
0.523244 0.675720 0.314837
0.550038 0.675403 0.307918
0.576832 0.675086 0.301000
0.603626 0.674769 0.294081
0.630419 0.674452 0.287163
0.656192 0.673630 0.280428
0.676860 0.670281 0.274611
0.697528 0.666932 0.268795
0.718196 0.663583 0.262979
0.738863 0.660234 0.257162
0.759531 0.656885 0.251346
0.148671 0.602380 0.394619
0.153175 0.598397 0.390642
0.157678 0.594414 0.386666
0.162181 0.590431 0.382689
0.166684 0.586448 0.378713
0.171188 0.582465 0.374737
0.183841 0.587930 0.373166
0.198125 0.595283 0.372076
0.212409 0.602637 0.370986
0.226692 0.609991 0.369896
0.240976 0.617345 0.368807
0.261040 0.625425 0.366481
0.283995 0.633868 0.363538
0.306950 0.642311 0.360594
0.329905 0.650755 0.357651
0.352860 0.659198 0.354707
0.378178 0.665793 0.350386
0.405860 0.670540 0.344687
0.433542 0.675288 0.338988
0.461224 0.680035 0.333289
0.488906 0.684782 0.327590
0.516371 0.688003 0.321461
0.543401 0.688172 0.314470
