assets/luts/moonrise-01-66c86429.cube
# Enhanced with VOXCOLOR algorithms
LUT_3D_SIZE 5
DOMAIN_MIN 0.000000 0.000000 0.000000
DOMAIN_MAX 0.903226 0.903226 0.903226
0.109804 0.050980 0.101961
0.184045 0.077072 0.109296
0.338706 0.099731 0.105300
0.540328 0.122473 0.099835
0.705452 0.142863 0.105418
0.132817 0.118227 0.136781
0.210416 0.156862 0.145016
0.370562 0.191915 0.140505
0.565541 0.214685 0.130647
0.714866 0.227087 0.129879
0.144638 0.246170 0.203598
0.221443 0.299552 0.214128
0.377892 0.353883 0.210516
0.570028 0.377772 0.191007
0.722760 0.376459 0.174788
0.146482 0.434900 0.304971
0.215549 0.473117 0.304011
0.361716 0.537526 0.297090
0.551022 0.566445 0.266432
0.715327 0.554635 0.230624
0.150719 0.624334 0.405768
0.194549 0.608486 0.380076
0.323288 0.661049 0.364410
0.509497 0.700287 0.328084
0.687793 0.697402 0.280627
0.134557 0.085009 0.121714
0.208976 0.112805 0.129735
0.375127 0.139072 0.126186
0.591173 0.161448 0.119309
0.751100 0.174244 0.119471
0.151443 0.177487 0.168334
0.234244 0.230626 0.182884
0.397980 0.263987 0.177439
0.600180 0.276387 0.161717
0.750994 0.269415 0.149668
0.158172 0.330393 0.246396
0.242574 0.394162 0.260240
0.400094 0.431651 0.248101
0.593931 0.438455 0.220814
0.750161 0.418623 0.197156
0.159439 0.514702 0.342978
0.237227 0.562565 0.344641
0.385655 0.598914 0.323474
0.576500 0.609474 0.286549
0.745749 0.591593 0.254028
0.160873 0.649708 0.414312
0.221515 0.665950 0.401588
0.357684 0.701086 0.376983
0.548358 0.726505 0.338418
0.730381 0.727313 0.304086
0.157984 0.116892 0.143769
0.235030 0.141047 0.149142
0.410517 0.172930 0.149532
0.630163 0.197491 0.146345
0.778911 0.201388 0.144197
0.170370 0.232960 0.200223
0.262204 0.289328 0.215567
0.430274 0.321430 0.210767
0.631535 0.328990 0.195758
0.776515 0.310449 0.182664
0.177689 0.405915 0.285134
0.271966 0.463046 0.294107
0.434085 0.490920 0.280509
0.628169 0.491581 0.259850
0.780537 0.466564 0.249107
0.188006 0.583929 0.373173
0.276944 0.622543 0.368461
0.433140 0.644533 0.346882
0.626459 0.649373 0.326620
0.789736 0.635545 0.326478
0.201941 0.692850 0.425350
0.279213 0.711523 0.411628
0.429132 0.735232 0.390484
0.624762 0.756061 0.377505
0.796360 0.765365 0.392352
0.173608 0.137943 0.162191
0.254083 0.159835 0.168129
0.436464 0.200402 0.181002
0.653337 0.231190 0.193049
0.788557 0.229516 0.195234
0.185391 0.269154 0.225068
0.285964 0.326056 0.243349
0.457974 0.359597 0.245072
0.654359 0.368589 0.241935
0.789370 0.348592 0.241739
0.202440 0.454547 0.314401
0.302307 0.499803 0.318655
0.468675 0.524461 0.313752
0.661254 0.529122 0.318431
0.804197 0.513081 0.343662
0.228006 0.622125 0.393985
0.323504 0.649355 0.384427
0.486629 0.668193 0.379920
0.679103 0.678442 0.402614
0.826993 0.678691 0.458788
0.254901 0.715810 0.433267
0.345592 0.731650 0.420220
0.508608 0.754983 0.424994
0.701903 0.780000 0.467225
0.847735 0.798289 0.545978
0.176981 0.144703 0.171262
0.260754 0.167362 0.185992
0.446481 0.218269 0.225563
0.659650 0.260935 0.271611
0.784888 0.260362 0.284992
0.194636 0.275519 0.238821
0.300595 0.336576 0.270557
0.474682 0.376383 0.291795
0.665248 0.394502 0.315167
0.790291 0.382894 0.336915
0.231788 0.467201 0.340560
0.329376 0.505434 0.346862
0.496332 0.533534 0.363590
0.684236 0.551383 0.407340
0.815525 0.556741 0.475622
0.279582 0.631515 0.427240
0.370417 0.650432 0.415929
0.533787 0.673381 0.442502
0.718873 0.698095 0.518307
0.848528 0.721823 0.624183
0.313298 0.721650 0.460623
0.407382 0.734288 0.455336
0.575935 0.763291 0.504582
0.758072 0.798374 0.607043
0.873698 0.825159 0.713968
