assets/luts/moonrise-01-66c86429.cube
# Enhanced with VOXCOLOR algorithms
LUT_3D_SIZE 8
DOMAIN_MIN 0.000000 0.000000 0.000000
DOMAIN_MAX 0.903226 0.903226 0.903226
0.109804 0.050980 0.101961
0.142360 0.066434 0.107706
0.201603 0.080417 0.109250
0.286269 0.093452 0.107396
0.392886 0.106079 0.103335
0.511699 0.119188 0.100192
0.619773 0.132368 0.101334
0.705452 0.142863 0.105418
0.124289 0.082888 0.118567
0.157338 0.101115 0.124126
0.219342 0.118849 0.125468
0.306760 0.135322 0.123256
0.414211 0.150016 0.118561
0.529660 0.162643 0.114299
0.630898 0.173548 0.113924
0.710318 0.182310 0.116695
0.135164 0.132426 0.144074
0.168723 0.155879 0.150752
0.231741 0.180212 0.153219
0.319859 0.202447 0.151413
0.427043 0.220352 0.145877
0.540599 0.232071 0.139121
0.639042 0.239555 0.135450
0.716573 0.245234 0.135275
0.142458 0.202200 0.180412
0.176118 0.229879 0.187809
0.238646 0.261132 0.191583
0.325811 0.290015 0.190356
0.431774 0.311957 0.183695
0.544365 0.322972 0.173376
0.642821 0.326564 0.164891
0.721557 0.327979 0.160104
0.146295 0.293273 0.228603
0.179237 0.321009 0.234764
0.239946 0.357082 0.238929
0.324834 0.392016 0.237879
0.428731 0.418367 0.229757
0.540807 0.429418 0.215185
0.641030 0.429408 0.200767
0.722968 0.425810 0.189890
0.146467 0.406281 0.289530
0.177022 0.424607 0.289946
0.234318 0.459110 0.291698
0.315548 0.496609 0.289387
0.416397 0.526501 0.279375
0.527935 0.539046 0.260652
0.630978 0.537441 0.240183
0.717422 0.529743 0.222606
0.146358 0.522955 0.352540
0.171317 0.522882 0.343605
0.222993 0.548397 0.340174
0.299195 0.583484 0.335081
0.396305 0.614959 0.323113
0.507235 0.630618 0.301522
0.613400 0.630951 0.276598
0.704783 0.622760 0.253704
0.150719 0.624334 0.405768
0.165229 0.602743 0.387845
0.208233 0.615053 0.378689
0.277947 0.644318 0.370434
0.371144 0.676159 0.357041
0.481942 0.696653 0.334239
0.591297 0.702248 0.306897
0.687793 0.697402 0.280627
0.123864 0.070223 0.112688
0.155521 0.086808 0.119257
0.215829 0.101979 0.121122
0.303982 0.116131 0.119302
0.416352 0.129553 0.115076
0.540971 0.142163 0.111128
0.650265 0.153258 0.110547
0.733495 0.161524 0.112744
0.136319 0.109969 0.133109
0.170183 0.133643 0.141261
0.232871 0.154353 0.143946
0.322065 0.171804 0.142040
0.433047 0.185811 0.136739
0.553092 0.195686 0.130605
0.656633 0.201985 0.127095
0.735331 0.205246 0.126127
0.145062 0.168573 0.162929
0.180566 0.199662 0.173035
0.244256 0.226492 0.176603
0.333078 0.247853 0.174294
0.441929 0.262892 0.167192
0.558409 0.270092 0.157752
0.659139 0.271419 0.150259
0.737042 0.269472 0.145523
0.150350 0.246917 0.203309
0.186639 0.282931 0.214280
0.250022 0.314621 0.217983
0.337341 0.339578 0.214667
0.443647 0.356005 0.205144
0.557615 0.361260 0.191639
0.657910 0.358340 0.179402
0.737822 0.351661 0.170285
0.152548 0.343876 0.254176
0.188473 0.379956 0.263744
0.250280 0.413689 0.266212
0.335181 0.441139 0.261118
0.438764 0.459224 0.248741
0.551241 0.463859 0.230837
0.652932 0.458250 0.213463
0.736804 0.447992 0.199471
0.151976 0.453770 0.312900
0.185630 0.481624 0.317342
0.244230 0.512380 0.316565
0.325685 0.540142 0.308953
0.426361 0.560099 0.293834
0.538246 0.566464 0.272092
0.642749 0.561282 0.250047
0.731829 0.550029 0.231306
0.151012 0.555234 0.367457
0.179805 0.568657 0.364638
0.233379 0.592417 0.359728
0.310398 0.618610 0.349755
0.407978 0.640591 0.332875
0.519709 0.650949 0.308832
0.627423 0.649572 0.283647
0.721720 0.640781 0.261445
0.151787 0.634156 0.409531
0.172918 0.631880 0.400126
0.219646 0.647355 0.391750
0.291376 0.671284 0.380308
0.385849 0.695608 0.362927
0.497786 0.711514 0.338173
0.608531 0.716260 0.311487
0.707341 0.712788 0.287397
0.138152 0.090012 0.124930
0.169567 0.105567 0.130780
0.231511 0.121253 0.132568
0.322937 0.136695 0.131081
0.439641 0.151407 0.127306
0.567529 0.163937 0.123223
0.676228 0.172973 0.121449
0.756241 0.178214 0.121974
0.148713 0.137388 0.148724
0.184340 0.164075 0.158012
0.248653 0.186566 0.161402
0.339753 0.204743 0.159787
0.453067 0.218465 0.154313
0.575131 0.226351 0.147068
0.678752 0.228717 0.141325
0.755753 0.226856 0.137550
0.155585 0.205024 0.182543
0.194004 0.240256 0.194165
0.259440 0.268168 0.198103
0.349459 0.288658 0.195422
0.459407 0.301686 0.187483
0.576959 0.305653 0.176578
0.678033 0.302214 0.166848
0.755237 0.294202 0.159401
0.159575 0.291597 0.226379
0.199360 0.331124 0.238358
0.264695 0.361937 0.241370
0.352993 0.383725 0.236610
0.459803 0.396297 0.225601
0.574257 0.397625 0.210842
0.674961 0.390113 0.197297
0.754804 0.377737 0.186712
0.161516 0.393738 0.278949
0.201190 0.432113 0.288742
0.265203 0.462551 0.289182
0.351215 0.484280 0.281432
0.455244 0.496687 0.267027
0.568026 0.497152 0.248560
0.670157 0.488024 0.231603
0.754333 0.473751 0.218396
0.162480 0.501019 0.334934
0.199934 0.531328 0.339670
0.261048 0.557558 0.336204
0.344068 0.577989 0.325245
0.445673 0.591127 0.307963
0.558169 0.593566 0.286758
0.663185 0.586532 0.267416
0.752666 0.573939 0.252501
0.163879 0.591634 0.382343
0.196890 0.610213 0.381228
0.253598 0.630618 0.374235
0.332956 0.649797 0.361197
0.432307 0.665022 0.342556
0.545245 0.671973 0.320207
0.653552 0.670170 0.299925
0.748053 0.662453 0.284595
0.165659 0.656629 0.416320
0.192696 0.663537 0.410295
0.243927 0.678487 0.401054
0.319126 0.697130 0.387392
0.416291 0.715527 0.368878
0.529984 0.728431 0.346760
0.641338 0.733575 0.326763
0.739838 0.732788 0.312112
0.151743 0.108598 0.137587
0.183298 0.122069 0.141994
0.247240 0.138128 0.143860
0.341704 0.155245 0.143415
0.461536 0.171831 0.141084
0.590549 0.184763 0.137951
0.697037 0.191911 0.135920
0.773089 0.193800 0.135261
0.160589 0.163297 0.164454
0.198578 0.191346 0.174054
0.265150 0.214889 0.177919
0.358194 0.233748 0.176865
0.472874 0.247615 0.171902
0.594928 0.254263 0.164634
0.696840 0.253531 0.157977
0.771239 0.247319 0.152688
0.166220 0.239497 0.201847
0.207990 0.276145 0.213678
0.275810 0.304090 0.217579
0.367315 0.323807 0.214861
0.477906 0.335616 0.207032
0.595110 0.337602 0.196271
0.694979 0.330944 0.186419
0.770467 0.318709 0.178611
0.169984 0.333321 0.248355
0.213424 0.372633 0.259519
0.281247 0.401596 0.261538
0.371015 0.420905 0.256155
0.478425 0.431093 0.245292
0.592670 0.430269 0.231738
0.692570 0.420225 0.220028
0.771122 0.404724 0.211454
0.173133 0.439165 0.301472
0.216520 0.475546 0.309350
0.283212 0.502188 0.307845
0.370983 0.519762 0.299037
0.475965 0.528747 0.285173
0.588886 0.527189 0.269623
0.690422 0.516735 0.257303
0.773285 0.501183 0.249403
0.177289 0.543201 0.353981
0.218578 0.571499 0.356711
0.282804 0.593211 0.351042
0.368205 0.608582 0.339081
0.471429 0.617669 0.323112
0.584462 0.618331 0.306875
0.688758 0.611260 0.295360
0.776369 0.599529 0.289567
0.182859 0.625386 0.395063
0.220196 0.644075 0.392978
0.280834 0.660887 0.384342
0.363536 0.675234 0.370856
0.465409 0.686395 0.354482
0.579307 0.691828 0.339001
0.686558 0.690883 0.329443
0.778314 0.685641 0.326848
0.188243 0.681901 0.422981
0.220817 0.691740 0.417156
0.277234 0.704731 0.406999
0.356948 0.719333 0.393510
0.457593 0.733939 0.378100
0.572671 0.745509 0.364418
0.682675 0.752012 0.357608
0.777567 0.754564 0.358799
0.163699 0.124505 0.149686
0.195584 0.135739 0.152637
0.261701 0.152435 0.155221
0.358922 0.171757 0.156931
0.480879 0.190867 0.157465
0.609311 0.204784 0.156860
0.712297 0.210418 0.155928
0.783797 0.209109 0.154808
0.171091 0.185820 0.179289
0.211737 0.214374 0.189055
0.280921 0.238700 0.193619
0.375865 0.258417 0.193737
0.491174 0.272931 0.190290
0.611732 0.279130 0.184473
0.710614 0.276303 0.178617
0.781653 0.266860 0.173393
0.176448 0.269670 0.219762
0.221544 0.305878 0.231190
0.291994 0.333246 0.235060
0.385086 0.352430 0.232921
0.495973 0.363806 0.226421
0.611824 0.365058 0.217790
0.709333 0.356857 0.210374
0.782202 0.342453 0.204909
0.181389 0.369349 0.268148
0.228027 0.405882 0.277470
0.298375 0.432427 0.278588
0.389791 0.449936 0.273631
0.497818 0.459069 0.264810
0.611329 0.457818 0.255356
0.709432 0.447400 0.249124
0.785570 0.431443 0.246410
0.187294 0.477038 0.320751
0.233660 0.508785 0.325565
0.302914 0.531572 0.322618
0.392656 0.546385 0.314565
0.498836 0.553906 0.304097
0.611648 0.552368 0.295449
0.711582 0.542858 0.292507
0.791635 0.528785 0.294698
0.195798 0.576600 0.369155
0.240321 0.600646 0.368821
0.307655 0.618468 0.361998
0.395726 0.630863 0.351691
0.500832 0.638316 0.340889
0.614016 0.639244 0.334596
0.716196 0.634018 0.336396
0.799813 0.625286 0.344845
0.206184 0.651416 0.404507
0.247575 0.667881 0.400260
0.312433 0.681878 0.391288
0.398915 0.693695 0.380576
0.503496 0.703328 0.371092
0.617548 0.709085 0.368193
0.721674 0.710270 0.375187
0.807809 0.708643 0.390263
0.216081 0.702457 0.427633
0.253893 0.712149 0.420525
0.315897 0.723471 0.410728
0.400665 0.736063 0.400909
0.504929 0.749300 0.393785
0.620210 0.761186 0.394880
0.726142 0.769754 0.407364
0.813928 0.775746 0.429145
0.171971 0.135640 0.159923
0.204429 0.145180 0.162193
0.272679 0.163035 0.166866
0.372176 0.185205 0.172777
0.495297 0.207688 0.178882
0.621993 0.223630 0.183898
0.720947 0.228797 0.186528
0.787951 0.225348 0.186085
0.178505 0.200789 0.191081
0.221858 0.230196 0.202154
0.293714 0.255780 0.208672
0.390388 0.277012 0.211553
0.505774 0.293062 0.211707
0.623942 0.300051 0.210028
0.719110 0.296697 0.207705
0.786435 0.285849 0.204673
0.185263 0.290347 0.234048
0.233133 0.325772 0.245887
0.306017 0.352842 0.250809
0.400575 0.372261 0.250804
0.511484 0.384366 0.247825
0.625360 0.386536 0.244405
0.719766 0.378975 0.242990
0.789358 0.365022 0.243217
0.193538 0.394330 0.284070
0.242139 0.427200 0.291885
0.314418 0.451598 0.293181
0.407243 0.468365 0.290570
0.515731 0.478014 0.286612
0.628051 0.478414 0.285211
0.723533 0.470272 0.289044
0.796334 0.457004 0.296595
0.204260 0.502511 0.336142
0.251884 0.528764 0.337980
0.322758 0.548321 0.334973
0.414037 0.561919 0.330294
0.521199 0.569997 0.327001
0.633403 0.570831 0.330244
0.730707 0.565044 0.342116
0.806735 0.555608 0.359306
0.218158 0.597212 0.381090
0.264210 0.616543 0.377795
0.333652 0.631645 0.371744
0.423804 0.643120 0.366585
0.530316 0.651289 0.365732
0.642751 0.654797 0.375123
0.741307 0.653773 0.395714
0.819308 0.650389 0.422493
0.233160 0.665986 0.412116
0.277210 0.679660 0.405770
0.345465 0.692179 0.398859
0.435093 0.703749 0.395183
0.541574 0.714306 0.398176
0.654229 0.722400 0.413861
0.753008 0.727239 0.441999
0.831361 0.730227 0.476781
0.247011 0.713616 0.431684
0.288671 0.722029 0.423350
0.355533 0.732840 0.416711
0.444722 0.745697 0.415478
0.551568 0.759965 0.422908
0.664898 0.773760 0.444857
0.763781 0.784944 0.480046
0.841714 0.793987 0.522173
0.175931 0.141961 0.167244
0.209236 0.150511 0.170164
0.279321 0.169835 0.178687
0.380495 0.195177 0.191326
0.504163 0.221691 0.206406
0.629033 0.240907 0.220858
0.724539 0.247035 0.229687
0.787783 0.242676 0.230655
0.182562 0.207198 0.198811
0.228369 0.238359 0.213254
0.302584 0.265933 0.223861
0.400659 0.289466 0.231954
0.515843 0.308069 0.238593
0.631583 0.317289 0.244210
0.723273 0.315060 0.247962
0.787169 0.304391 0.248466
0.192409 0.299974 0.244331
0.242216 0.335620 0.258604
0.316990 0.363359 0.266720
0.412668 0.384063 0.271249
0.523368 0.398139 0.274519
0.635107 0.402846 0.279286
0.726308 0.397860 0.286500
0.792565 0.386358 0.294225
0.206038 0.407027 0.297162
0.255166 0.437284 0.305024
0.328474 0.460632 0.308483
0.422145 0.477872 0.310635
0.530696 0.489437 0.314344
0.641413 0.493260 0.323980
0.733863 0.489567 0.340466
0.803067 0.481291 0.360129
0.223527 0.515752 0.350868
0.270417 0.537530 0.350671
0.341602 0.555028 0.349428
0.433523 0.568746 0.350648
0.540954 0.578911 0.357520
0.651797 0.583995 0.375580
0.745795 0.584187 0.404414
0.817495 0.581718 0.437803
0.243934 0.607396 0.395361
0.289210 0.622689 0.389530
0.359129 0.636137 0.386054
0.450104 0.648046 0.388779
0.556884 0.658496 0.401019
0.667401 0.666391 0.428588
0.761453 0.671525 0.468814
0.833635 0.675262 0.513215
0.263278 0.672758 0.424585
0.307657 0.683729 0.416471
0.377541 0.695551 0.413688
0.468783 0.708089 0.420131
0.575629 0.720993 0.438880
0.685314 0.732894 0.474864
0.777677 0.742644 0.522827
0.848104 0.750959 0.573379
0.279519 0.718825 0.441439
0.322713 0.725623 0.432719
0.392680 0.736492 0.431939
0.484701 0.750678 0.442963
0.592421 0.767190 0.468526
0.701942 0.783872 0.512230
0.792476 0.798040 0.566187
0.860254 0.809643 0.620684
0.176981 0.144703 0.171262
0.211095 0.152983 0.176334
0.282413 0.173887 0.190454
0.384556 0.202366 0.212090
0.508360 0.233128 0.239027
0.631835 0.256579 0.265903
0.724773 0.264962 0.282673
0.784888 0.260362 0.284992
0.184748 0.208160 0.203705
0.232497 0.241190 0.223139
0.308462 0.270901 0.239812
0.407409 0.297045 0.255449
0.522102 0.318801 0.271168
0.635658 0.331380 0.286469
0.724408 0.331618 0.297589
0.785291 0.321992 0.301600
0.198794 0.302165 0.252814
0.249715 0.338474 0.271035
0.325726 0.367384 0.284311
0.422020 0.389984 0.295612
0.532159 0.406812 0.307424
0.641704 0.415217 0.322188
0.729866 0.414223 0.338725
0.792953 0.406309 0.353536
0.219084 0.411094 0.310507
0.267556 0.439672 0.319481
0.341085 0.462815 0.326798
0.434986 0.481340 0.335693
0.543057 0.495685 0.348965
0.651748 0.504100 0.370710
0.740988 0.506354 0.399616
0.806602 0.504488 0.430183
0.244836 0.520633 0.369095
0.289291 0.538956 0.367120
0.359687 0.555316 0.368852
0.451411 0.570033 0.377554
0.558298 0.583202 0.395957
0.666988 0.593735 0.428913
0.757241 0.601454 0.473120
0.824635 0.607571 0.520305
0.272992 0.611450 0.417066
0.315279 0.623107 0.408123
0.384221 0.635482 0.407975
0.474889 0.648566 0.419789
0.580835 0.662203 0.445921
0.688369 0.675654 0.490553
0.777386 0.688349 0.547108
0.843979 0.700695 0.605132
0.296659 0.675874 0.446856
0.339140 0.683983 0.436389
0.409064 0.695327 0.438569
0.500607 0.709365 0.456340
0.606545 0.725407 0.491384
0.712114 0.742125 0.545596
0.797583 0.757797 0.608300
0.860453 0.772296 0.668393
0.313298 0.721650 0.460623
0.356466 0.726631 0.451912
0.428286 0.737672 0.458589
0.522006 0.753624 0.483635
0.629473 0.773096 0.528152
0.734190 0.793541 0.591038
0.815937 0.811204 0.656763
0.873698 0.825159 0.713968
