assets/luts/rushmore-01-b6fa7703.cube
# Enhanced with VOXCOLOR algorithms
LUT_3D_SIZE 32
0.019608 0.007843 0.035294
0.035907 0.011133 0.035410
0.052206 0.014422 0.035527
0.068505 0.017712 0.035643
0.084804 0.021002 0.035759
0.101103 0.024292 0.035876
0.131594 0.028365 0.033861
0.164923 0.032594 0.031421
0.198252 0.036823 0.028981
0.231581 0.041053 0.026541
0.264910 0.045282 0.024100
0.302698 0.050128 0.021678
0.342715 0.055282 0.019266
0.382732 0.060435 0.016853
0.422749 0.065589 0.014440
0.462766 0.070743 0.012027
0.500176 0.076032 0.010185
0.534979 0.081456 0.008913
0.569782 0.086880 0.007641
0.604585 0.092305 0.006368
0.639388 0.097729 0.005096
0.670075 0.102966 0.004182
0.692530 0.107830 0.003983
0.714985 0.112694 0.003784
0.737440 0.117559 0.003585
0.759895 0.122423 0.003386
0.780437 0.127077 0.003243
0.791408 0.130681 0.003379
0.802380 0.134285 0.003514
0.813351 0.137889 0.003650
0.824323 0.141494 0.003786
0.835294 0.145098 0.003922
0.021744 0.015303 0.038246
0.037999 0.018619 0.038220
0.054254 0.021935 0.038193
0.070510 0.025251 0.038167
0.086765 0.028567 0.038141
0.103020 0.031883 0.038115
0.133717 0.036185 0.036025
0.167302 0.040684 0.033522
0.200886 0.045184 0.031018
0.234471 0.049683 0.028515
0.268056 0.054182 0.026012
0.306110 0.059325 0.023528
0.346400 0.064789 0.021052
0.386690 0.070254 0.018577
0.426979 0.075718 0.016102
0.467269 0.081183 0.013627
0.504840 0.086751 0.011738
0.539691 0.092424 0.010436
0.574542 0.098096 0.009133
0.609394 0.103768 0.007831
0.644245 0.109440 0.006528
0.674886 0.114907 0.005614
0.697105 0.119961 0.005476
0.719324 0.125016 0.005339
0.741543 0.130070 0.005202
0.763762 0.135124 0.005064
0.784062 0.139981 0.005008
0.794766 0.143852 0.005355
0.805469 0.147722 0.005703
0.816172 0.151592 0.006050
0.826876 0.155462 0.006398
0.837579 0.159332 0.006745
0.023880 0.022763 0.041197
0.040091 0.026105 0.041029
0.056303 0.029448 0.040860
0.072514 0.032790 0.040692
0.088726 0.036133 0.040523
0.104937 0.039475 0.040355
0.135839 0.044006 0.038188
0.169680 0.048775 0.035622
0.203520 0.053544 0.033056
0.237361 0.058313 0.030490
0.271201 0.063081 0.027924
0.309523 0.068521 0.025377
0.350085 0.074297 0.022839
0.390648 0.080072 0.020302
0.431210 0.085847 0.017764
0.471773 0.091623 0.015227
0.509504 0.097471 0.013292
0.544403 0.103391 0.011959
0.579303 0.109311 0.010626
0.614203 0.115232 0.009293
0.649102 0.121152 0.007960
0.679697 0.126847 0.007046
0.701680 0.132092 0.006970
0.723663 0.137337 0.006894
0.745646 0.142581 0.006819
0.767629 0.147826 0.006743
0.787688 0.152886 0.006773
0.798123 0.157022 0.007332
0.808558 0.161158 0.007891
0.818994 0.165294 0.008451
0.829429 0.169431 0.009010
0.839864 0.173567 0.009569
0.026015 0.030223 0.044149
0.042183 0.033592 0.043838
0.058351 0.036960 0.043527
0.074519 0.040329 0.043216
0.090686 0.043698 0.042905
0.106854 0.047067 0.042595
0.137962 0.051827 0.040352
0.172058 0.056865 0.037723
0.206154 0.061904 0.035093
0.240251 0.066943 0.032464
0.274347 0.071981 0.029835
0.312936 0.077718 0.027226
0.353771 0.083804 0.024626
0.394606 0.089890 0.022026
0.435441 0.095976 0.019427
0.476276 0.102063 0.016827
0.514168 0.108190 0.014845
0.549116 0.114358 0.013482
0.584064 0.120527 0.012119
0.619012 0.126695 0.010755
0.653960 0.132863 0.009392
0.684507 0.138787 0.008478
0.706255 0.144222 0.008464
0.728002 0.149658 0.008450
0.749749 0.155093 0.008436
0.771496 0.160528 0.008422
0.791313 0.165791 0.008538
0.801480 0.170193 0.009309
0.811648 0.174595 0.010080
0.821815 0.178997 0.010851
0.831982 0.183399 0.011622
0.842149 0.187801 0.012392
0.028151 0.037683 0.047100
0.044275 0.041078 0.046647
0.060399 0.044473 0.046194
0.076523 0.047868 0.045741
0.092647 0.051263 0.045288
0.108771 0.054658 0.044834
0.140085 0.059648 0.042515
0.174437 0.064956 0.039823
0.208788 0.070264 0.037131
0.243140 0.075572 0.034439
0.277492 0.080881 0.031747
0.316348 0.086915 0.029075
0.357456 0.093312 0.026413
0.398564 0.099709 0.023751
0.439672 0.106106 0.021089
0.480780 0.112502 0.018427
0.518832 0.118909 0.016399
0.553828 0.125326 0.015005
0.588824 0.131742 0.013611
0.623821 0.138159 0.012217
0.658817 0.144575 0.010823
0.689318 0.150728 0.009910
0.710829 0.156353 0.009958
0.732341 0.161979 0.010005
0.753852 0.167604 0.010053
0.775363 0.173229 0.010100
0.794939 0.178695 0.010303
0.804838 0.183363 0.011286
0.814737 0.188031 0.012268
0.824636 0.192699 0.013251
0.834535 0.197367 0.014233
0.844434 0.202035 0.015216
0.030287 0.045143 0.050052
0.046367 0.048564 0.049456
0.062447 0.051986 0.048861
0.078527 0.055407 0.048265
0.094608 0.058828 0.047670
0.110688 0.062250 0.047074
0.142207 0.067468 0.044679
0.176815 0.073046 0.041924
0.211423 0.078624 0.039169
0.246030 0.084202 0.036413
0.280638 0.089780 0.033658
0.319761 0.096112 0.030924
0.361141 0.102819 0.028199
0.402522 0.109527 0.025475
0.443903 0.116235 0.022751
0.485283 0.122942 0.020027
0.523496 0.129628 0.017952
0.558540 0.136293 0.016528
0.593585 0.142957 0.015104
0.628630 0.149622 0.013680
0.663674 0.156286 0.012255
0.694129 0.162668 0.011342
0.715404 0.168484 0.011451
0.736679 0.174300 0.011560
0.757955 0.180115 0.011670
0.779230 0.185931 0.011779
0.798564 0.191600 0.012069
0.808195 0.196534 0.013263
0.817826 0.201468 0.014457
0.827457 0.206402 0.015651
0.837088 0.211336 0.016845
0.846719 0.216270 0.018039
0.031576 0.060618 0.054826
0.047731 0.064265 0.054148
0.063887 0.067912 0.053470
0.080042 0.071559 0.052792
0.096197 0.075206 0.052114
0.112353 0.078853 0.051436
0.144160 0.084553 0.048963
0.179098 0.090664 0.046131
0.214035 0.096775 0.043298
0.248973 0.102886 0.040466
0.283911 0.108997 0.037634
0.323337 0.115866 0.034814
0.365008 0.123114 0.032000
0.406679 0.130362 0.029186
0.448349 0.137610 0.026371
0.490020 0.144858 0.023557
0.528419 0.152005 0.021427
0.563544 0.159052 0.019981
0.598670 0.166099 0.018534
0.633796 0.173145 0.017088
0.668922 0.180192 0.015641
0.699397 0.186915 0.014756
0.720572 0.192991 0.014992
0.741746 0.199067 0.015229
0.762921 0.205143 0.015466
0.784095 0.211219 0.015703
0.803331 0.217171 0.016153
0.812874 0.222504 0.017668
0.822417 0.227837 0.019183
0.831960 0.233170 0.020698
0.841503 0.238503 0.022213
0.851046 0.243836 0.023728
0.032695 0.077697 0.059965
0.048950 0.081609 0.059217
0.065204 0.085522 0.058468
0.081459 0.089434 0.057720
0.097713 0.093347 0.056971
0.113967 0.097259 0.056223
0.146079 0.103491 0.053671
0.181361 0.110188 0.050759
0.216644 0.116884 0.047847
0.251926 0.123580 0.044934
0.287209 0.130277 0.042022
0.326946 0.137732 0.039112
0.368911 0.145566 0.036202
0.410875 0.153400 0.033293
0.452840 0.161234 0.030384
0.494804 0.169068 0.027474
0.533393 0.176713 0.025286
0.568607 0.184169 0.023819
0.603820 0.191625 0.022352
0.639034 0.199080 0.020885
0.674248 0.206536 0.019418
0.704757 0.213623 0.018565
0.725858 0.219973 0.018943
0.746959 0.226323 0.019321
0.768060 0.232673 0.019698
0.789161 0.239023 0.020076
0.808326 0.245275 0.020701
0.817817 0.251034 0.022558
0.827308 0.256792 0.024416
0.836799 0.262551 0.026273
0.846290 0.268310 0.028131
0.855781 0.274069 0.029989
0.033814 0.094776 0.065104
0.050168 0.098953 0.064285
0.066521 0.103131 0.063466
0.082875 0.107309 0.062647
0.099229 0.111487 0.061829
0.115582 0.115665 0.061010
0.147997 0.122429 0.058380
0.183625 0.129711 0.055387
0.219252 0.136993 0.052395
0.254880 0.144275 0.049403
0.290508 0.151556 0.046410
0.330555 0.159597 0.043410
0.372813 0.168018 0.040405
0.415071 0.176438 0.037400
0.457330 0.184858 0.034396
0.499588 0.193279 0.031391
0.538367 0.201421 0.029145
0.573669 0.209286 0.027657
0.608971 0.217151 0.026169
0.644272 0.225016 0.024682
0.679574 0.232881 0.023194
0.710117 0.240332 0.022375
0.731144 0.246956 0.022894
0.752172 0.253580 0.023412
0.773199 0.260204 0.023931
0.794226 0.266828 0.024450
0.813322 0.273379 0.025248
0.822761 0.279563 0.027449
0.832200 0.285748 0.029649
0.841639 0.291932 0.031849
0.851078 0.298117 0.034049
0.860517 0.304301 0.036250
0.034934 0.111854 0.070242
0.051386 0.116298 0.069353
0.067839 0.120741 0.068464
0.084292 0.125184 0.067575
0.100744 0.129627 0.066686
0.117197 0.134070 0.065796
0.149916 0.141367 0.063088
0.185889 0.149234 0.060016
0.221861 0.157102 0.056943
0.257833 0.164969 0.053871
0.293806 0.172836 0.050799
0.334165 0.181463 0.047708
0.376716 0.190470 0.044608
0.419268 0.199476 0.041508
0.461820 0.208483 0.038408
0.504371 0.217489 0.035308
0.543342 0.226129 0.033004
0.578731 0.234403 0.031496
0.614121 0.242677 0.029987
0.649510 0.250951 0.028479
0.684900 0.259225 0.026971
0.715477 0.267040 0.026185
0.736431 0.273938 0.026844
0.757384 0.280837 0.027504
0.778338 0.287735 0.028163
0.799291 0.294633 0.028823
0.818317 0.301483 0.029796
0.827704 0.308093 0.032339
0.837091 0.314703 0.034882
0.846478 0.321314 0.037425
0.855865 0.327924 0.039968
0.865252 0.334534 0.042511
0.036053 0.128933 0.075381
0.052605 0.133642 0.074422
0.069156 0.138350 0.073462
0.085708 0.143059 0.072502
0.102260 0.147768 0.071543
0.118812 0.152476 0.070583
0.151835 0.160305 0.067796
0.188152 0.168758 0.064644
0.224470 0.177211 0.061492
0.260787 0.185663 0.058339
0.297104 0.194116 0.055187
0.337774 0.203329 0.052006
0.380619 0.212922 0.048811
0.423464 0.222514 0.045615
0.466310 0.232107 0.042420
0.509155 0.241700 0.039225
0.548316 0.250838 0.036863
0.583794 0.259520 0.035334
0.619271 0.268203 0.033805
0.654748 0.276886 0.032276
0.690226 0.285569 0.030747
0.720837 0.293748 0.029995
0.741717 0.300921 0.030795
0.762597 0.308093 0.031595
0.783476 0.315265 0.032396
0.804356 0.322438 0.033196
0.823312 0.329587 0.034344
0.832647 0.336623 0.037230
0.841982 0.343659 0.040115
0.851317 0.350695 0.043001
0.860652 0.357731 0.045886
0.869988 0.364766 0.048772
0.036817 0.152143 0.082370
0.053478 0.157126 0.081330
0.070140 0.162109 0.080290
0.086801 0.167093 0.079250
0.103463 0.172076 0.078210
0.120124 0.177059 0.077171
0.153428 0.185458 0.074285
0.190060 0.194540 0.071030
0.226692 0.203622 0.067774
0.263323 0.212704 0.064519
0.299955 0.221786 0.061264
0.340932 0.231631 0.057989
0.384081 0.241856 0.054703
0.427230 0.252082 0.051417
0.470379 0.262307 0.048132
0.513528 0.272533 0.044846
0.552917 0.282196 0.042453
0.588548 0.291298 0.040953
0.624179 0.300400 0.039452
0.659809 0.309501 0.037951
0.695440 0.318603 0.036451
0.726156 0.327129 0.035790
0.747043 0.334506 0.036808
0.767931 0.341883 0.037826
0.788818 0.349260 0.038843
0.809705 0.356637 0.039861
0.828663 0.363995 0.041257
0.837972 0.371262 0.044544
0.847281 0.378528 0.047830
0.856589 0.385794 0.051116
0.865898 0.393061 0.054402
0.875207 0.400327 0.057689
0.037403 0.178418 0.090283
0.054179 0.183680 0.089158
0.070956 0.188943 0.088033
0.087733 0.194205 0.086908
0.104510 0.199468 0.085783
0.121286 0.204731 0.084658
0.154858 0.213719 0.081663
0.191789 0.223452 0.078294
0.228720 0.233185 0.074924
0.265651 0.242919 0.071555
0.302582 0.252652 0.068186
0.343865 0.263151 0.064814
0.387322 0.274032 0.061440
0.430780 0.284914 0.058067
0.474237 0.295796 0.054693
0.517695 0.306677 0.051320
0.557332 0.316880 0.048909
0.593148 0.326406 0.047461
0.628965 0.335931 0.046014
0.664781 0.345456 0.044566
0.700598 0.354981 0.043118
0.731454 0.363847 0.042578
0.752390 0.371393 0.043851
0.773325 0.378940 0.045125
0.794261 0.386487 0.046399
0.815197 0.394034 0.047673
0.834192 0.401556 0.049354
0.843488 0.408955 0.053069
0.852783 0.416354 0.056785
0.862078 0.423753 0.060501
0.871373 0.431152 0.064217
0.880669 0.438551 0.067933
0.037989 0.204693 0.098196
0.054881 0.210235 0.096986
0.071773 0.215776 0.095776
0.088664 0.221318 0.094566
0.105556 0.226860 0.093356
0.122448 0.232402 0.092146
0.156289 0.241980 0.089041
0.193519 0.252364 0.085558
0.230749 0.262749 0.082074
0.267979 0.273133 0.078591
0.305210 0.283518 0.075107
0.346797 0.294671 0.071639
0.390563 0.306209 0.068177
0.434330 0.317746 0.064716
0.478096 0.329284 0.061255
0.521862 0.340821 0.057793
0.561746 0.351565 0.055365
0.597749 0.361513 0.053970
0.633751 0.371462 0.052575
0.669754 0.381410 0.051180
0.705756 0.391359 0.049786
0.736752 0.400564 0.049365
0.757736 0.408280 0.050895
0.778720 0.415997 0.052425
0.799704 0.423714 0.053954
0.820688 0.431430 0.055484
0.839721 0.439116 0.057450
0.849003 0.446648 0.061595
0.858285 0.454180 0.065741
0.867567 0.461712 0.069886
0.876848 0.469244 0.074032
0.886130 0.476776 0.078177
0.038575 0.230968 0.106110
0.055582 0.236789 0.104815
0.072589 0.242610 0.103519
0.089596 0.248431 0.102224
0.106603 0.254252 0.100929
0.123610 0.260074 0.099634
0.157719 0.270240 0.096420
0.195248 0.281276 0.092822
0.232778 0.292312 0.089224
0.270307 0.303348 0.085627
0.307837 0.314383 0.082029
0.349730 0.326191 0.078464
0.393805 0.338385 0.074914
0.437880 0.350578 0.071365
0.481954 0.362772 0.067816
0.526029 0.374966 0.064267
0.566161 0.386249 0.061821
0.602349 0.396621 0.060479
0.638538 0.406993 0.059137
0.674726 0.417365 0.057795
0.710914 0.427737 0.056453
0.742051 0.437281 0.056153
0.763083 0.445167 0.057939
0.784115 0.453054 0.059724
0.805147 0.460940 0.061510
0.826179 0.468827 0.063295
0.845251 0.476676 0.065546
0.854519 0.484341 0.070121
0.863787 0.492006 0.074696
0.873055 0.499671 0.079271
0.882323 0.507336 0.083846
0.891592 0.515000 0.088422
0.039161 0.257243 0.114023
0.056283 0.263343 0.112643
0.073405 0.269444 0.111263
0.090527 0.275544 0.109882
0.107650 0.281645 0.108502
0.124772 0.287745 0.107121
0.159149 0.298501 0.103798
0.196978 0.310188 0.100086
0.234807 0.321875 0.096374
0.272635 0.333562 0.092662
0.310464 0.345249 0.088951
0.352663 0.357711 0.085289
0.397046 0.370561 0.081652
0.441430 0.383411 0.078015
0.485813 0.396260 0.074378
0.530196 0.409110 0.070741
0.570575 0.420933 0.068278
0.606950 0.431728 0.066988
0.643324 0.442524 0.065699
0.679698 0.453320 0.064410
0.716072 0.464116 0.063120
0.747349 0.473998 0.062941
0.768429 0.482054 0.064983
0.789510 0.490111 0.067024
0.810590 0.498167 0.069065
0.831670 0.506223 0.071107
0.850780 0.514237 0.073642
0.860034 0.522034 0.078647
0.869289 0.529832 0.083651
0.878544 0.537629 0.088656
0.887799 0.545427 0.093661
0.897053 0.553225 0.098666
0.039670 0.285283 0.122544
0.056889 0.291593 0.121064
0.074109 0.297904 0.119585
0.091328 0.304214 0.118106
0.108547 0.310524 0.116626
0.125766 0.316835 0.115147
0.160358 0.328067 0.111718
0.198425 0.340283 0.107899
0.236491 0.352500 0.104081
0.274557 0.364717 0.100262
0.312624 0.376933 0.096443
0.355090 0.389935 0.092726
0.399756 0.403330 0.089060
0.444421 0.416725 0.085393
0.489087 0.430121 0.081727
0.533753 0.443516 0.078060
0.574378 0.455783 0.075659
0.610963 0.466924 0.074522
0.647547 0.478064 0.073385
0.684132 0.489204 0.072249
0.720717 0.500344 0.071112
0.752160 0.510483 0.071150
0.773323 0.518619 0.073539
0.794485 0.526754 0.075928
0.815647 0.534890 0.078317
0.836810 0.543025 0.080706
0.855983 0.551091 0.083602
0.865211 0.558806 0.089034
0.874440 0.566522 0.094466
0.883668 0.574238 0.099898
0.892896 0.581953 0.105330
0.902124 0.589669 0.110763
0.040103 0.315088 0.131672
0.057401 0.321539 0.130079
0.074699 0.327990 0.128487
0.091997 0.334441 0.126895
0.109295 0.340892 0.125302
0.126593 0.347343 0.123710
0.161345 0.358938 0.120179
0.199588 0.371562 0.116261
0.237831 0.384187 0.112343
0.276074 0.396811 0.108425
0.314317 0.409436 0.104507
0.357012 0.422864 0.100776
0.401934 0.436693 0.097139
0.446855 0.450523 0.093501
0.491777 0.464353 0.089864
0.536698 0.478183 0.086226
0.577569 0.490800 0.083965
0.614388 0.502206 0.083081
0.651208 0.513612 0.082196
0.688027 0.525018 0.081312
0.724847 0.536424 0.080427
0.756485 0.546736 0.080780
0.777763 0.554860 0.083608
0.799042 0.562984 0.086436
0.820320 0.571109 0.089264
0.841598 0.579233 0.092092
0.860861 0.587239 0.095425
0.870049 0.594658 0.101282
0.879238 0.602076 0.107140
0.888427 0.609495 0.112997
0.897616 0.616913 0.118854
0.906804 0.624332 0.124712
0.040535 0.344894 0.140799
0.057912 0.351485 0.139094
0.075289 0.358076 0.137389
0.092666 0.364668 0.135684
0.110043 0.371259 0.133978
0.127420 0.377850 0.132273
0.162332 0.389809 0.128641
0.200752 0.402841 0.124624
0.239171 0.415874 0.120606
0.277590 0.428906 0.116588
0.316009 0.441938 0.112571
0.358934 0.455792 0.108826
0.404111 0.470056 0.105218
0.449289 0.484321 0.101609
0.494467 0.498585 0.098001
0.539644 0.512850 0.094392
0.580760 0.525818 0.092272
0.617814 0.537489 0.091640
0.654868 0.549160 0.091007
0.691922 0.560832 0.090375
0.728977 0.572503 0.089743
0.760811 0.582988 0.090411
0.782204 0.591101 0.093678
0.803598 0.599214 0.096945
0.824992 0.607327 0.100212
0.846385 0.615440 0.103479
0.865738 0.623388 0.107248
0.874888 0.630509 0.113531
0.884037 0.637631 0.119813
0.893186 0.644752 0.126096
0.902335 0.651874 0.132378
0.911484 0.658995 0.138661
0.040968 0.374699 0.149927
0.058424 0.381431 0.148109
0.075880 0.388163 0.146291
0.093336 0.394894 0.144473
0.110791 0.401626 0.142655
0.128247 0.408358 0.140836
0.163320 0.420680 0.137103
0.201915 0.434120 0.132986
0.240511 0.447560 0.128869
0.279106 0.461000 0.124752
0.317702 0.474441 0.120635
0.360856 0.488720 0.116876
0.406289 0.503419 0.113297
0.451723 0.518118 0.109717
0.497156 0.532818 0.106137
0.542590 0.547517 0.102558
0.583951 0.560835 0.100578
0.621240 0.572772 0.100198
0.658529 0.584709 0.099818
0.695818 0.596646 0.099439
0.733107 0.608583 0.099059
0.765136 0.619241 0.100041
0.786645 0.627343 0.103747
0.808154 0.635444 0.107453
0.829664 0.643546 0.111159
0.851173 0.651648 0.114865
0.870616 0.659536 0.119072
0.879726 0.666361 0.125779
0.888835 0.673185 0.132487
0.897945 0.680009 0.139194
0.907055 0.686834 0.145902
0.916165 0.693658 0.152610
0.041401 0.404505 0.159055
0.058935 0.411377 0.157124
0.076470 0.418249 0.155193
0.094005 0.425121 0.153262
0.111540 0.431993 0.151331
0.129074 0.438866 0.149400
0.164307 0.451551 0.145564
0.203079 0.465399 0.141348
0.241851 0.479247 0.137131
0.280623 0.493095 0.132915
0.319394 0.506943 0.128699
0.362778 0.521648 0.124926
0.408467 0.536782 0.121376
0.454157 0.551916 0.117825
0.499846 0.567050 0.114274
0.545535 0.582184 0.110724
0.587142 0.595852 0.108885
0.624665 0.608055 0.108757
0.662189 0.620257 0.108630
0.699713 0.632460 0.108502
0.737237 0.644662 0.108374
0.769461 0.655494 0.109671
0.791086 0.663584 0.113816
0.812711 0.671674 0.117961
0.834336 0.679765 0.122107
0.855961 0.687855 0.126252
0.875494 0.695685 0.130895
0.884564 0.702212 0.138028
0.893634 0.708739 0.145160
0.902704 0.715267 0.152293
0.911775 0.721794 0.159426
0.920845 0.728321 0.166559
0.041949 0.433045 0.167770
0.059533 0.439992 0.165726
0.077117 0.446938 0.163682
0.094700 0.453885 0.161639
0.112284 0.460831 0.159595
0.129868 0.467778 0.157551
0.165208 0.480695 0.153637
0.204100 0.494806 0.149348
0.242993 0.508917 0.145060
0.281885 0.523028 0.140772
0.320777 0.537138 0.136483
0.364343 0.552129 0.132753
0.410246 0.567559 0.129301
0.456149 0.582989 0.125849
0.502053 0.598420 0.122397
0.547956 0.613850 0.118946
0.589781 0.627755 0.117329
0.627528 0.640136 0.117547
0.665275 0.652517 0.117765
0.703021 0.664897 0.117984
0.740768 0.677278 0.118202
0.773182 0.688209 0.119898
0.794929 0.696240 0.124550
0.816676 0.704272 0.129202
0.838423 0.712303 0.133854
0.860170 0.720335 0.138505
0.879798 0.728053 0.143635
0.888828 0.734207 0.151154
0.897858 0.740360 0.158673
0.906888 0.746514 0.166192
0.915919 0.752667 0.173711
0.924949 0.758821 0.181231
0.042730 0.459055 0.175660
0.060303 0.465944 0.173504
0.077876 0.472833 0.171347
0.095448 0.479722 0.169191
0.113021 0.486611 0.167035
0.130594 0.493499 0.164879
0.165939 0.506384 0.160931
0.204839 0.520468 0.156626
0.243738 0.534552 0.152321
0.282638 0.548636 0.148015
0.321538 0.562720 0.143710
0.365193 0.577714 0.140133
0.411226 0.593164 0.136919
0.457260 0.608614 0.133706
0.503293 0.624064 0.130493
0.549326 0.639514 0.127279
0.591316 0.653431 0.126048
0.629263 0.665815 0.126799
0.667210 0.678199 0.127550
0.705157 0.690583 0.128302
0.743103 0.702966 0.129053
0.775695 0.713848 0.131318
0.797577 0.721726 0.136612
0.819458 0.729603 0.141906
0.841340 0.737480 0.147200
0.863222 0.745358 0.152494
0.882955 0.752860 0.158210
0.891944 0.758487 0.166037
0.900933 0.764114 0.173865
0.909922 0.769741 0.181693
0.918911 0.775368 0.189520
0.927901 0.780994 0.197348
0.043511 0.485065 0.183550
0.061073 0.491897 0.181281
0.078635 0.498728 0.179013
0.096196 0.505559 0.176744
0.113758 0.512390 0.174475
0.131320 0.519221 0.172206
0.166670 0.532074 0.168226
0.205577 0.546130 0.163904
0.244484 0.560187 0.159581
0.283392 0.574244 0.155259
0.322299 0.588301 0.150937
0.366044 0.603300 0.147512
0.412207 0.618769 0.144538
0.458370 0.634239 0.141563
0.504533 0.649709 0.138588
0.550696 0.665179 0.135613
0.592851 0.679107 0.134767
0.630998 0.691494 0.136051
0.669145 0.703881 0.137336
0.707292 0.716268 0.138620
0.745439 0.728655 0.139904
0.778209 0.739487 0.142739
0.800225 0.747211 0.148674
0.822241 0.754934 0.154610
0.844257 0.762658 0.160546
0.866273 0.770381 0.166482
0.886111 0.777668 0.172784
0.895060 0.782768 0.180921
0.904008 0.787868 0.189057
0.912956 0.792968 0.197193
0.921904 0.798068 0.205329
0.930853 0.803168 0.213466
0.044292 0.511076 0.191440
0.061843 0.517849 0.189059
0.079394 0.524622 0.186678
0.096945 0.531396 0.184296
0.114495 0.538169 0.181915
0.132046 0.544943 0.179534
0.167400 0.557763 0.175521
0.206315 0.571793 0.171182
0.245230 0.585822 0.166842
0.284145 0.599852 0.162503
0.323060 0.613882 0.158163
0.366894 0.628885 0.154892
0.413187 0.644374 0.152156
0.459480 0.659864 0.149419
0.505773 0.675353 0.146683
0.552066 0.690843 0.143946
0.594386 0.704783 0.143487
0.632733 0.717173 0.145304
0.671080 0.729563 0.147121
0.709427 0.741953 0.148938
0.747774 0.754343 0.150755
0.780722 0.765127 0.154159
0.802873 0.772696 0.160737
0.825023 0.780266 0.167314
0.847174 0.787835 0.173892
0.869325 0.795405 0.180470
0.889268 0.802475 0.187359
0.898176 0.807048 0.195804
0.907083 0.811621 0.204249
0.915990 0.816195 0.212693
0.924897 0.820768 0.221138
0.933804 0.825341 0.229583
0.045073 0.537086 0.199330
0.062613 0.543801 0.196836
0.080153 0.550517 0.194343
0.097693 0.557233 0.191849
0.115232 0.563948 0.189355
0.132772 0.570664 0.186862
0.168131 0.583452 0.182816
0.207054 0.597455 0.178459
0.245976 0.611458 0.174103
0.284899 0.625461 0.169746
0.323821 0.639463 0.165390
0.367744 0.654470 0.162272
0.414167 0.669980 0.159774
0.460590 0.685489 0.157276
0.507013 0.700998 0.154778
0.553437 0.716507 0.152280
0.595921 0.730459 0.152206
0.634468 0.742852 0.154556
0.673015 0.755245 0.156906
0.711562 0.767639 0.159256
0.750109 0.780032 0.161606
0.783235 0.790766 0.165579
0.805521 0.798182 0.172799
0.827806 0.805597 0.180019
0.850091 0.813013 0.187238
0.872376 0.820428 0.194458
0.892425 0.827282 0.201933
0.901291 0.831329 0.210687
0.910158 0.835375 0.219440
0.919024 0.839422 0.228194
0.927890 0.843468 0.236947
0.936756 0.847514 0.245701
0.046020 0.561736 0.206727
0.063518 0.568351 0.204122
0.081015 0.574966 0.201518
0.098513 0.581582 0.198913
0.116011 0.588197 0.196309
0.133508 0.594812 0.193704
0.168835 0.607505 0.189640
0.207728 0.621414 0.185284
0.246621 0.635322 0.180928
0.285514 0.649231 0.176572
0.324407 0.663139 0.172216
0.368389 0.678088 0.169276
0.414914 0.693556 0.167045
0.461439 0.709025 0.164814
0.507964 0.724493 0.162583
0.554489 0.739962 0.160352
0.597119 0.753877 0.160692
0.635855 0.766238 0.163603
0.674590 0.778599 0.166514
0.713325 0.790960 0.169425
0.752060 0.803321 0.172335
0.785358 0.813981 0.176900
0.807780 0.821240 0.184774
0.830203 0.828499 0.192647
0.852626 0.835758 0.200520
0.875049 0.843017 0.208394
0.895207 0.849658 0.216461
0.904047 0.853207 0.225499
0.912887 0.856757 0.234538
0.921726 0.860306 0.243576
0.930566 0.863856 0.252614
0.939406 0.867405 0.261652
0.047796 0.579585 0.211656
0.065096 0.585887 0.208949
0.082396 0.592189 0.206242
0.099696 0.598491 0.203536
0.116995 0.604793 0.200829
0.134295 0.611095 0.198122
0.169409 0.623377 0.194114
0.208087 0.636854 0.189845
0.246764 0.650332 0.185577
0.285441 0.663810 0.181308
0.324118 0.677287 0.177040
0.368002 0.691864 0.174402
0.414491 0.706990 0.172580
0.460979 0.722116 0.170759
0.507467 0.737242 0.168937
0.553955 0.752368 0.167115
0.596631 0.766006 0.168010
0.635496 0.778158 0.171622
0.674361 0.790309 0.175234
0.713226 0.802461 0.178846
0.752091 0.814612 0.182458
0.785525 0.825076 0.187728
0.808100 0.832165 0.196313
