assets/luts/rushmore-01-b6fa7703.cube
# Enhanced with VOXCOLOR algorithms
LUT_3D_SIZE 8
DOMAIN_MIN 0.000000 0.000000 0.000000
DOMAIN_MAX 0.903226 0.903226 0.903226
0.019608 0.007843 0.035294
0.084804 0.021002 0.035759
0.198252 0.036823 0.028981
0.342715 0.055282 0.019266
0.500176 0.076032 0.010185
0.639388 0.097729 0.005096
0.737440 0.117559 0.003585
0.802380 0.134285 0.003514
0.028151 0.037683 0.047100
0.092647 0.051263 0.045288
0.208788 0.070264 0.037131
0.357456 0.093312 0.026413
0.518832 0.118909 0.016399
0.658817 0.144575 0.010823
0.753852 0.167604 0.010053
0.814737 0.188031 0.012268
0.033814 0.094776 0.065104
0.099229 0.111487 0.061829
0.219252 0.136993 0.052395
0.372813 0.168018 0.040405
0.538367 0.201421 0.029145
0.679574 0.232881 0.023194
0.773199 0.260204 0.023931
0.832200 0.285748 0.029649
0.037403 0.178418 0.090283
0.104510 0.199468 0.085783
0.228720 0.233185 0.074924
0.387322 0.274032 0.061440
0.557332 0.316880 0.048909
0.700598 0.354981 0.043118
0.794261 0.386487 0.046399
0.852783 0.416354 0.056785
0.039670 0.285283 0.122544
0.108547 0.310524 0.116626
0.236491 0.352500 0.104081
0.399756 0.403330 0.089060
0.574378 0.455783 0.075659
0.720717 0.500344 0.071112
0.815647 0.534890 0.078317
0.874440 0.566522 0.094466
0.041401 0.404505 0.159055
0.111540 0.431993 0.151331
0.241851 0.479247 0.137131
0.408467 0.536782 0.121376
0.587142 0.595852 0.108885
0.737237 0.644662 0.108374
0.834336 0.679765 0.122107
0.893634 0.708739 0.145160
0.044292 0.511076 0.191440
0.114495 0.538169 0.181915
0.245230 0.585822 0.166842
0.413187 0.644374 0.152156
0.594386 0.704783 0.143487
0.747774 0.754343 0.150755
0.847174 0.787835 0.173892
0.907083 0.811621 0.204249
0.049573 0.597433 0.216585
0.117980 0.621389 0.205349
0.246906 0.665342 0.190225
0.414067 0.720424 0.178116
0.596143 0.778136 0.175329
0.752121 0.825904 0.192581
0.853872 0.856928 0.226446
0.914888 0.875799 0.263788
0.036454 0.029623 0.091768
0.102526 0.041093 0.090305
0.217851 0.055756 0.081240
0.364352 0.073333 0.069018
0.523103 0.093299 0.057584
0.660827 0.114322 0.051940
0.754556 0.134488 0.053815
0.815141 0.153931 0.061967
0.041210 0.067744 0.106022
0.106983 0.082966 0.107078
0.224620 0.101904 0.099837
0.374545 0.123746 0.088597
0.536509 0.147536 0.077301
0.675609 0.171493 0.071312
0.768305 0.193885 0.072904
0.826314 0.215501 0.080657
0.044590 0.131228 0.126083
0.111433 0.151841 0.129020
0.232284 0.177753 0.123159
0.386122 0.206937 0.112770
0.551474 0.237378 0.101881
0.692089 0.265948 0.096353
0.784674 0.291326 0.099132
0.841911 0.316086 0.108904
0.047783 0.218668 0.152709
0.116879 0.244681 0.156284
0.241450 0.278576 0.151019
0.399277 0.316602 0.141332
0.567897 0.355211 0.131440
0.710010 0.389224 0.127786
0.802938 0.417501 0.133671
0.860304 0.444725 0.147745
0.051795 0.326311 0.185584
0.124034 0.356325 0.188147
0.252406 0.397574 0.182555
0.413886 0.444317 0.173569
0.585353 0.491201 0.165692
0.728779 0.530583 0.165938
0.822108 0.560930 0.177204
0.879748 0.588644 0.197560
0.057828 0.442970 0.221281
0.133351 0.473682 0.220897
0.264787 0.518907 0.214418
0.428801 0.571205 0.207074
0.602041 0.623664 0.203629
0.746217 0.666517 0.211352
0.839612 0.697074 0.231066
0.896997 0.722036 0.258932
0.066078 0.545041 0.251014
0.143187 0.573479 0.247086
0.275793 0.618221 0.240357
0.440630 0.671143 0.236529
0.614413 0.724666 0.240496
0.758900 0.768041 0.259273
0.852198 0.797205 0.289770
0.908909 0.817872 0.324658
0.075703 0.624839 0.271227
0.151823 0.649598 0.264372
0.283208 0.690809 0.258295
0.447093 0.740724 0.259207
0.620552 0.791996 0.272106
0.765537 0.833860 0.303553
0.859193 0.861077 0.345683
0.915407 0.878021 0.386758
0.059459 0.065232 0.188651
0.128137 0.074988 0.186674
0.244420 0.088412 0.177174
0.390300 0.105208 0.164505
0.546973 0.124872 0.152713
0.681260 0.146363 0.147755
0.771089 0.168478 0.153262
0.828388 0.192303 0.169429
0.062092 0.114691 0.209264
0.130994 0.130214 0.212792
0.249510 0.148288 0.206936
0.398323 0.168648 0.196217
0.557573 0.190854 0.184912
0.693185 0.213898 0.179297
0.782923 0.236887 0.183250
0.838676 0.261193 0.196385
0.065139 0.186546 0.233825
0.135399 0.208666 0.241328
0.256691 0.233575 0.238567
0.408568 0.260267 0.230081
0.570283 0.287664 0.220211
0.707072 0.313771 0.215348
0.797149 0.337989 0.219574
0.852727 0.362932 0.232433
0.070381 0.278456 0.263079
0.143413 0.306398 0.272524
0.267914 0.338589 0.271831
0.422585 0.372740 0.265584
0.586066 0.406617 0.258145
0.723254 0.436531 0.255874
0.813360 0.461892 0.262629
0.869161 0.486825 0.277919
0.079285 0.386182 0.296780
0.156450 0.417795 0.305782
0.284350 0.456124 0.305881
0.441163 0.497282 0.301821
0.605245 0.537580 0.297989
0.741598 0.571260 0.300571
0.830862 0.597281 0.312396
0.886492 0.620953 0.332540
0.093974 0.498473 0.331537
0.175524 0.529616 0.337151
0.306114 0.570500 0.336957
0.463685 0.615666 0.335799
0.626606 0.660014 0.337900
0.760474 0.695966 0.348817
0.847582 0.721537 0.368758
0.901918 0.742175 0.395292
0.113126 0.594422 0.358978
0.196273 0.621808 0.359780
0.327284 0.661275 0.359526
0.483948 0.706424 0.362908
0.644685 0.751307 0.373658
0.775700 0.787391 0.396096
0.860335 0.811661 0.426147
0.912695 0.828816 0.458579
0.133275 0.667334 0.375213
0.214021 0.690135 0.371621
0.342666 0.725986 0.372073
0.497039 0.768457 0.381088
0.655636 0.811514 0.401856
0.784960 0.846461 0.437301
0.868089 0.869371 0.478258
0.918622 0.883924 0.515788
0.088846 0.115065 0.315151
0.161513 0.123509 0.313279
0.278048 0.136327 0.304903
0.421183 0.153296 0.293965
0.573014 0.173968 0.284213
0.702049 0.197538 0.281620
0.787932 0.223028 0.290698
0.842450 0.251994 0.312819
0.090992 0.176438 0.342783
0.164364 0.191468 0.347499
0.283007 0.208694 0.343253
0.428538 0.228254 0.334350
0.582215 0.250066 0.324905
0.712103 0.273649 0.321143
0.798155 0.298438 0.327553
0.851827 0.326057 0.344711
0.095762 0.256539 0.372013
0.170634 0.278201 0.381429
0.291533 0.301476 0.380926
0.439180 0.326014 0.374791
0.594202 0.351327 0.367126
0.724463 0.376179 0.363935
0.810688 0.400225 0.369512
0.864399 0.425861 0.384178
0.105591 0.352073 0.403583
0.183343 0.379120 0.415510
0.306631 0.408432 0.417792
0.455613 0.438660 0.414591
0.610627 0.468423 0.409840
0.739819 0.495106 0.409049
0.825311 0.518304 0.415913
0.878978 0.541367 0.430644
0.122427 0.458370 0.437397
0.204531 0.488427 0.449400
0.330154 0.522320 0.453152
0.479264 0.557461 0.452744
0.632308 0.591358 0.451898
0.758328 0.619783 0.455462
0.841531 0.641956 0.465899
0.894307 0.661941 0.483103
0.149354 0.564348 0.470438
0.235778 0.593187 0.479303
0.362639 0.628189 0.483166
0.509939 0.665503 0.485882
0.658512 0.701513 0.490713
0.778857 0.730623 0.501418
0.857760 0.751410 0.518044
0.908098 0.767975 0.539492
0.183287 0.652594 0.495490
0.270038 0.676926 0.499202
0.395359 0.709720 0.502989
0.539122 0.746196 0.510065
0.682346 0.781930 0.522811
0.796731 0.810531 0.543291
0.870954 0.829882 0.567844
0.918064 0.843556 0.593499
0.217902 0.718174 0.508781
0.299539 0.737317 0.507243
0.420229 0.766418 0.511471
0.559539 0.800398 0.523928
0.698352 0.834544 0.545978
0.808782 0.862228 0.577808
0.879737 0.880632 0.611246
0.923886 0.892562 0.640699
0.124331 0.178696 0.458809
0.201815 0.186381 0.456926
0.317995 0.199690 0.450820
0.456789 0.218425 0.443671
0.601704 0.242084 0.438476
0.723985 0.269745 0.440153
0.805603 0.299857 0.452526
0.857446 0.333847 0.477236
0.127425 0.250155 0.491278
0.206053 0.264345 0.495348
0.323996 0.281389 0.492737
0.464385 0.301591 0.487040
0.610190 0.324958 0.481643
0.732582 0.351022 0.481625
0.814209 0.378721 0.490637
0.865634 0.409448 0.509592
0.135947 0.336490 0.523413
0.215885 0.356229 0.531616
0.335272 0.377937 0.532366
0.476577 0.401464 0.529131
0.622374 0.426457 0.525178
0.744011 0.451831 0.525163
0.825218 0.476773 0.532358
0.876603 0.503147 0.547369
0.152835 0.433547 0.555776
0.235064 0.457292 0.566273
0.355523 0.483242 0.569689
0.496378 0.510344 0.569176
0.640185 0.537477 0.567664
0.759069 0.562454 0.569095
0.838497 0.584517 0.576101
0.889339 0.606124 0.589156
0.180341 0.536318 0.588302
0.266061 0.561970 0.599191
0.387011 0.590610 0.604197
0.525520 0.620229 0.606180
0.664629 0.648884 0.607701
0.778021 0.673262 0.611874
0.853674 0.692512 0.620352
0.902794 0.709514 0.633434
0.222099 0.634054 0.618402
0.310765 0.658161 0.627022
0.430478 0.686528 0.632350
0.564026 0.716308 0.636802
0.695271 0.744843 0.642371
0.800106 0.768011 0.651069
0.869583 0.784737 0.662909
0.915180 0.797917 0.677741
0.272836 0.713182 0.640602
0.359573 0.732955 0.644907
0.474918 0.758609 0.650133
0.601746 0.786635 0.657862
0.724364 0.813812 0.669126
0.820428 0.835549 0.684342
0.883327 0.850424 0.701017
0.924578 0.861004 0.718103
0.323457 0.770964 0.651928
0.401994 0.785727 0.651337
0.509950 0.807816 0.656713
0.629726 0.833385 0.668636
0.745401 0.858913 0.687005
0.835234 0.879616 0.710396
0.893223 0.893612 0.733054
0.930517 0.902903 0.752530
0.164786 0.255308 0.595380
0.246333 0.262079 0.592335
0.361145 0.277029 0.588717
0.494498 0.299745 0.586719
0.631483 0.329341 0.588228
0.746419 0.363999 0.596094
0.823705 0.400003 0.611380
0.872939 0.437461 0.634527
0.169608 0.330774 0.626728
0.253291 0.344040 0.628310
0.369612 0.362185 0.627229
0.503551 0.385321 0.625972
0.640107 0.413112 0.626711
0.754017 0.444258 0.632388
0.830681 0.475830 0.644077
0.879475 0.508159 0.661922
0.183767 0.418480 0.657626
0.268263 0.435622 0.662106
0.384930 0.456724 0.663400
0.518322 0.481301 0.663725
0.653268 0.508591 0.665029
0.765009 0.536792 0.669827
0.840286 0.563602 0.679056
0.888620 0.589947 0.692806
0.210025 0.513337 0.687948
0.295201 0.532388 0.693965
0.410993 0.555513 0.697140
0.541844 0.581265 0.699223
0.672754 0.608131 0.701745
0.780047 0.633482 0.706579
0.852377 0.655536 0.714418
0.899515 0.675863 0.725407
0.250264 0.609900 0.717211
0.336547 0.629340 0.723647
0.450093 0.653026 0.727992
0.575814 0.678741 0.731573
0.699464 0.704373 0.735518
0.799322 0.726668 0.741051
0.866616 0.744280 0.748506
0.911279 0.759226 0.758095
0.307471 0.697715 0.742900
0.393829 0.715617 0.748288
0.502802 0.737819 0.753000
0.620223 0.761735 0.757922
0.733061 0.784986 0.763727
0.822281 0.804125 0.770902
0.882142 0.818095 0.779139
0.922521 0.828989 0.788640
0.373523 0.766737 0.761423
0.455290 0.781395 0.764419
0.556802 0.800779 0.769205
0.664387 0.822083 0.775999
0.765804 0.842766 0.784774
0.844215 0.859366 0.794971
0.896239 0.870867 0.805117
0.931495 0.879149 0.815230
0.437263 0.816524 0.771338
0.508901 0.827376 0.771274
0.600813 0.843679 0.776237
0.698977 0.862464 0.785632
0.791072 0.881067 0.798581
0.861232 0.896053 0.813238
0.907016 0.906280 0.826387
0.937524 0.913232 0.837612
0.205847 0.335727 0.699169
0.288317 0.340052 0.693866
0.400116 0.356491 0.691909
0.527709 0.384115 0.694518
0.657509 0.421288 0.702442
0.766337 0.464581 0.716338
0.840137 0.506476 0.733682
0.887102 0.544450 0.752902
0.211996 0.407925 0.724912
0.298673 0.419896 0.723626
0.412403 0.439620 0.723735
0.539784 0.466776 0.726644
0.667585 0.500409 0.733320
0.773694 0.537832 0.744555
0.845707 0.573176 0.758375
0.891773 0.604884 0.773530
0.232252 0.491681 0.751456
0.319370 0.506461 0.752270
0.432505 0.527743 0.753996
0.557954 0.554521 0.757681
0.682469 0.585414 0.764037
0.784763 0.617488 0.773553
0.854155 0.646315 0.784656
0.899069 0.671503 0.796507
0.268333 0.580856 0.777779
0.353942 0.595700 0.779548
0.464084 0.616979 0.782425
0.584985 0.642674 0.786930
0.703620 0.670688 0.793356
0.799941 0.697606 0.801745
0.865262 0.720254 0.810831
0.908257 0.739293 0.820187
0.320939 0.669406 0.802770
0.404298 0.683201 0.804939
0.509160 0.703132 0.808530
0.622357 0.726552 0.813621
0.731714 0.750947 0.820149
0.819253 0.772741 0.827770
0.878655 0.789828 0.835450
0.918581 0.803573 0.843117
0.391063 0.747129 0.823833
0.470904 0.759431 0.825996
0.567801 0.776939 0.829980
0.669867 0.797012 0.835538
0.766383 0.817229 0.842329
0.842211 0.834333 0.849679
0.893621 0.846990 0.856635
0.928888 0.856752 0.863379
0.467226 0.806572 0.838714
0.540373 0.816882 0.840401
0.627358 0.831717 0.844760
0.717282 0.848577 0.851156
0.800584 0.865222 0.858889
0.864590 0.878774 0.866813
0.907656 0.888329 0.873770
0.937463 0.895302 0.880101
0.537086 0.848951 0.847248
0.600372 0.857042 0.848043
0.676950 0.869502 0.852867
0.756021 0.883835 0.860604
0.828359 0.897854 0.870091
0.882773 0.908967 0.879549
0.918841 0.916549 0.887286
0.943481 0.921770 0.893734
0.245601 0.412242 0.770618
0.325210 0.413061 0.763404
0.432144 0.430180 0.762706
0.553861 0.462042 0.768836
0.677755 0.506146 0.781545
0.782290 0.557229 0.799691
0.853648 0.603432 0.817652
0.898574 0.639195 0.831935
0.252616 0.477293 0.790816
0.338968 0.487325 0.787212
0.448781 0.507959 0.788129
0.569821 0.538409 0.794049
0.690122 0.577087 0.804961
0.789886 0.619937 0.820046
0.858019 0.657999 0.834907
0.901518 0.687622 0.846980
0.278366 0.553745 0.812577
0.365112 0.566332 0.810671
0.473785 0.587608 0.812665
0.591801 0.616148 0.818702
0.707222 0.650066 0.828567
0.801397 0.685510 0.841347
0.865572 0.715982 0.853624
0.907162 0.739636 0.863685
0.323245 0.634985 0.834521
0.406381 0.646565 0.833323
0.510244 0.666411 0.835997
0.622068 0.692131 0.842191
0.730066 0.721234 0.851340
0.816901 0.749813 0.862297
0.875962 0.773423 0.872427
0.914901 0.791689 0.880746
0.386460 0.714752 0.855312
0.463855 0.724248 0.854572
0.559680 0.741369 0.857676
0.661737 0.763215 0.863884
0.759018 0.787036 0.872355
0.836191 0.809147 0.881767
0.888721 0.826756 0.890107
0.924072 0.840473 0.896969
0.466189 0.783305 0.872548
0.536518 0.791209 0.872499
0.621450 0.805244 0.876019
0.710274 0.822735 0.882173
0.793538 0.841239 0.890001
0.858665 0.857694 0.898119
0.903104 0.870445 0.904977
0.933639 0.880475 0.910550
0.547334 0.834598 0.884652
0.609748 0.841480 0.885513
0.683171 0.853072 0.889638
0.758407 0.867039 0.895967
0.827541 0.881304 0.903458
0.880619 0.893395 0.910653
0.916758 0.902378 0.916310
0.941850 0.909251 0.920688
0.616951 0.870509 0.891904
0.671507 0.876671 0.893639
0.734886 0.886676 0.898520
0.798720 0.898256 0.905333
0.856046 0.909481 0.912917
0.898936 0.918294 0.919654
0.927887 0.924401 0.924491
0.947832 0.928734 0.928029
