assets/luts/rushmore-01-b6fa7703.cube
# Enhanced with VOXCOLOR algorithms
LUT_3D_SIZE 5
DOMAIN_MIN 0.000000 0.000000 0.000000
DOMAIN_MAX 0.903226 0.903226 0.903226
0.019608 0.007843 0.035294
0.164923 0.032594 0.031421
0.422749 0.065589 0.014440
0.670075 0.102966 0.004182
0.802380 0.134285 0.003514
0.032695 0.077697 0.059965
0.181361 0.110188 0.050759
0.452840 0.161234 0.030384
0.704757 0.213623 0.018565
0.827308 0.256792 0.024416
0.038575 0.230968 0.106110
0.195248 0.281276 0.092822
0.481954 0.362772 0.067816
0.742051 0.437281 0.056153
0.863787 0.492006 0.074696
0.041949 0.433045 0.167770
0.204100 0.494806 0.149348
0.502053 0.598420 0.122397
0.773182 0.688209 0.119898
0.897858 0.740360 0.158673
0.049573 0.597433 0.216585
0.208445 0.652295 0.194406
0.506969 0.749990 0.175291
0.785693 0.836171 0.198555
0.914888 0.875799 0.263788
0.053074 0.054906 0.160270
0.203055 0.075034 0.151871
0.463724 0.105549 0.129496
0.705633 0.142097 0.118429
0.825026 0.180782 0.137518
0.058270 0.150992 0.195809
0.212041 0.188464 0.199515
0.482133 0.233351 0.182304
0.729021 0.278426 0.171573
0.845904 0.320562 0.187427
0.066815 0.314972 0.247178
0.229979 0.371485 0.255210
0.508940 0.440177 0.243997
0.758621 0.499962 0.241622
0.875875 0.544238 0.267769
0.086305 0.509644 0.307077
0.260501 0.571294 0.309620
0.543341 0.655229 0.307724
0.789909 0.724806 0.327159
0.904010 0.764043 0.374864
0.115646 0.655157 0.344137
0.287809 0.705398 0.338807
0.566377 0.784014 0.355087
0.808145 0.850754 0.411066
0.917540 0.882069 0.482907
0.106234 0.145954 0.387487
0.264434 0.163260 0.380811
0.514683 0.195435 0.364978
0.740212 0.238648 0.362058
0.849913 0.291366 0.395536
0.113275 0.273757 0.441145
0.275730 0.308548 0.449585
0.531272 0.348582 0.439448
0.758210 0.391640 0.434902
0.867262 0.437281 0.456626
0.138637 0.445489 0.497882
0.308716 0.494474 0.513340
0.564172 0.547928 0.511961
0.784943 0.594666 0.514380
0.891455 0.630546 0.535663
0.194214 0.623305 0.553216
0.371418 0.672250 0.565197
0.616548 0.730703 0.573524
0.818436 0.777913 0.591803
0.914548 0.804396 0.622860
0.270090 0.745086 0.582050
0.432847 0.780252 0.584088
0.660281 0.832430 0.607907
0.843492 0.876221 0.653167
0.927175 0.897733 0.698525
0.174961 0.274842 0.626245
0.339638 0.291817 0.620453
0.572575 0.335622 0.620089
0.776388 0.397429 0.634512
0.876679 0.463702 0.669959
0.190814 0.415007 0.679607
0.360140 0.445835 0.683582
0.592147 0.489983 0.685279
0.790979 0.541352 0.694826
0.889030 0.590519 0.717409
0.244882 0.580152 0.731200
0.412940 0.614725 0.739339
0.633448 0.659407 0.745344
0.816499 0.701549 0.754875
0.907627 0.732831 0.770489
0.344694 0.731658 0.775114
0.505784 0.762290 0.782816
0.699391 0.800838 0.792502
0.851261 0.832671 0.804977
0.926793 0.850928 0.819220
0.464316 0.826600 0.796841
0.598189 0.847357 0.800114
0.759856 0.877756 0.816499
0.881430 0.902811 0.838337
0.939170 0.915636 0.855987
0.245601 0.412242 0.770618
0.402598 0.424222 0.762210
0.617191 0.483595 0.774802
0.805106 0.569512 0.804209
0.898574 0.639195 0.831935
0.270000 0.533459 0.806976
0.437058 0.561247 0.805774
0.645581 0.613937 0.817391
0.818989 0.677635 0.839203
0.905473 0.726263 0.859338
0.353673 0.675669 0.845170
0.507043 0.699231 0.845953
0.694185 0.741815 0.857587
0.844235 0.786097 0.874701
0.919458 0.816708 0.889046
0.486263 0.798718 0.876343
0.614943 0.815683 0.878862
0.763502 0.844885 0.890135
0.877788 0.871986 0.903652
0.935895 0.889353 0.913601
0.616951 0.870509 0.891904
0.718133 0.883779 0.896975
0.828414 0.904041 0.909185
0.908265 0.920227 0.921148
0.947832 0.928734 0.928029
